luts/Rec2100_HLG/DJI_Osmo_DLogM_to_Rec2100_HLG_BT2408_DeepBlacks_Natural.cube
TITLE "OpenOSV D-Log M to Rec.2100 HLG, BT.2408 Deep Blacks + Natural - DJI Osmo 360 / Pocket 3"
LUT_3D_SIZE 65
DOMAIN_MIN 0.000000 0.000000 0.000000
DOMAIN_MAX 1.000000 1.000000 1.000000
0.000000 0.000000 0.000000
0.002503 0.000577 0.000000
0.005063 0.001167 0.000000
0.007754 0.001787 0.000000
0.010600 0.002443 0.000000
0.013616 0.003138 0.000000
0.016816 0.003875 0.000000
0.020212 0.004658 0.000000
0.023819 0.005489 0.000000
0.035092 0.008088 0.000000
0.046868 0.010802 0.000000
0.059090 0.013618 0.000000
0.071770 0.016541 0.000000
0.084913 0.019570 0.000000
0.098523 0.022706 0.000000
0.112599 0.025950 0.000000
0.127143 0.029302 0.000000
0.142151 0.032761 0.000000
0.157623 0.036327 0.000000
0.173556 0.039999 0.000000
0.189949 0.043777 0.000000
0.206801 0.047661 0.000000
0.224111 0.051650 0.000000
0.241880 0.055745 0.000000
0.260110 0.059947 0.000000
0.278804 0.064255 0.000000
0.297966 0.068671 0.000000
0.317603 0.073197 0.000000
0.337723 0.077834 0.000000
0.358336 0.082585 0.000000
0.379454 0.087452 0.000000
0.401089 0.092438 0.000000
0.423257 0.097547 0.000000
0.445974 0.102782 0.000000
0.469261 0.108149 0.000000
0.493136 0.113652 0.000000
0.517089 0.119295 0.000000
0.539794 0.125084 0.000000
0.561372 0.131026 0.000000
0.581987 0.137126 0.000000
0.601770 0.143391 0.000000
0.620831 0.149827 0.000000
0.639257 0.156443 0.000000
0.657126 0.163245 0.000000
0.674500 0.170242 0.000000
0.691433 0.177441 0.000000
0.707974 0.184851 0.000000
0.724162 0.192481 0.000000
0.740032 0.200341 0.000000
0.755616 0.208439 0.000000
0.770942 0.216786 0.000000
0.786033 0.225391 0.000000
0.800911 0.234266 0.000000
0.815595 0.243421 0.000000
0.830102 0.252866 0.000000
0.844448 0.262614 0.000000
0.858647 0.272677 0.000000
0.872711 0.283067 0.000000
0.886650 0.293796 0.000000
0.900476 0.304878 0.000000
0.914198 0.316325 0.000000
0.927823 0.328152 0.000000
0.941360 0.340374 0.000000
0.954815 0.353004 0.000000
0.968194 0.366058 0.000000
0.001799 0.004584 0.000000
0.005162 0.005356 0.000000
0.007955 0.006114 0.000000
0.010747 0.006873 0.000000
0.013639 0.007644 0.000000
0.016672 0.008435 0.000000
0.019871 0.009252 0.000000
0.023255 0.010100 0.000000
0.026840 0.010984 0.000000
0.038020 0.013675 0.000000
0.049683 0.016414 0.000000
0.061784 0.019215 0.000000
0.074336 0.022092 0.000000
0.087350 0.025056 0.000000
0.100829 0.028113 0.000000
0.114775 0.031266 0.000000
0.129189 0.034518 0.000000
0.144070 0.037871 0.000000
0.159417 0.041324 0.000000
0.175230 0.044880 0.000000
0.191506 0.048539 0.000000
0.208246 0.052302 0.000000
0.225448 0.056168 0.000000
0.243115 0.060140 0.000000
0.261247 0.064217 0.000000
0.279849 0.068402 0.000000
0.298926 0.072695 0.000000
0.318482 0.077099 0.000000
0.338527 0.081615 0.000000
0.359070 0.086247 0.000000
0.380123 0.090997 0.000000
0.401698 0.095869 0.000000
0.423811 0.100865 0.000000
0.446478 0.105991 0.000000
0.469718 0.111250 0.000000
0.493550 0.116648 0.000000
0.517443 0.122189 0.000000
0.540090 0.127879 0.000000
0.561621 0.133724 0.000000
0.582197 0.139730 0.000000
0.601948 0.145904 0.000000
0.620982 0.152252 0.000000
0.639387 0.158782 0.000000
0.657237 0.165501 0.000000
0.674595 0.172417 0.000000
0.691515 0.179539 0.000000
0.708044 0.186874 0.000000
0.724222 0.194432 0.000000
0.740085 0.202221 0.000000
0.755662 0.210251 0.000000
0.770981 0.218533 0.000000
0.786067 0.227075 0.000000
0.800941 0.235888 0.000000
0.815621 0.244984 0.000000
0.830125 0.254372 0.000000
0.844468 0.264066 0.000000
0.858665 0.274075 0.000000
0.872726 0.284414 0.000000
0.886664 0.295094 0.000000
0.900488 0.306128 0.000000
0.914209 0.317530 0.000000
0.927833 0.329313 0.000000
0.941368 0.341491 0.000000
0.954822 0.354080 0.000000
0.968200 0.367095 0.000000
0.003625 0.009235 0.000000
0.007315 0.009995 0.000000
0.010377 0.010768 0.000000
0.013345 0.011559 0.000000
0.016354 0.012371 0.000000
0.019466 0.013207 0.000000
0.022717 0.014073 0.000000
0.026133 0.014970 0.000000
0.029734 0.015902 0.000000
0.040900 0.018714 0.000000
0.052496 0.021537 0.000000
0.064502 0.024387 0.000000
0.076946 0.027286 0.000000
0.089842 0.030248 0.000000
0.103199 0.033282 0.000000
0.117019 0.036396 0.000000
0.131307 0.039594 0.000000
0.146062 0.042881 0.000000
0.161285 0.046260 0.000000
0.176976 0.049732 0.000000
0.193133 0.053300 0.000000
0.209758 0.056966 0.000000
0.226851 0.060731 0.000000
0.244412 0.064598 0.000000
0.262444 0.068568 0.000000
0.280951 0.072643 0.000000
0.299938 0.076825 0.000000
0.319411 0.081117 0.000000
0.339377 0.085521 0.000000
0.359847 0.090041 0.000000
0.380832 0.094680 0.000000
0.402345 0.099441 0.000000
0.424399 0.104328 0.000000
0.447013 0.109346 0.000000
0.470204 0.114499 0.000000
0.493992 0.119793 0.000000
0.517819 0.125232 0.000000
0.540405 0.130822 0.000000
0.561886 0.136569 0.000000
0.582421 0.142480 0.000000
0.602139 0.148561 0.000000
0.621144 0.154819 0.000000
0.639525 0.161261 0.000000
0.657355 0.167894 0.000000
0.674696 0.174727 0.000000
0.691602 0.181768 0.000000
0.708119 0.189025 0.000000
0.724287 0.196507 0.000000
0.740141 0.204223 0.000000
0.755711 0.212183 0.000000
0.771024 0.220395 0.000000
0.786104 0.228871 0.000000
0.800973 0.237620 0.000000
0.815649 0.246653 0.000000
0.830150 0.255982 0.000000
0.844490 0.265617 0.000000
0.858684 0.275571 0.000000
0.872743 0.285855 0.000000
0.886679 0.296483 0.000000
0.900501 0.307467 0.000000
0.914220 0.318820 0.000000
0.927843 0.330556 0.000000
0.941377 0.342689 0.000000
0.954830 0.355234 0.000000
0.968208 0.368207 0.000000
0.005528 0.014081 0.000000
0.009385 0.014823 0.000000
0.012655 0.015588 0.000000
0.015785 0.016380 0.000000
0.018919 0.017200 0.000000
0.022125 0.018051 0.000000
0.025446 0.018934 0.000000
0.028914 0.019852 0.000000
0.032550 0.020807 0.000000
0.043750 0.023688 0.000000
0.055312 0.026569 0.000000
0.067248 0.029460 0.000000
0.079600 0.032383 0.000000
0.092390 0.035353 0.000000
0.105632 0.038380 0.000000
0.119332 0.041472 0.000000
0.133496 0.044636 0.000000
0.148127 0.047877 0.000000
0.163226 0.051199 0.000000
0.178794 0.054606 0.000000
0.194832 0.058101 0.000000
0.211340 0.061686 0.000000
0.228319 0.065366 0.000000
0.245773 0.069141 0.000000
0.263702 0.073015 0.000000
0.282111 0.076991 0.000000
0.301005 0.081072 0.000000
0.320391 0.085260 0.000000
0.340276 0.089559 0.000000
0.360669 0.093973 0.000000
0.381583 0.098505 0.000000
0.403030 0.103160 0.000000
0.425024 0.107941 0.000000
0.447582 0.112853 0.000000
0.470721 0.117902 0.000000
0.494462 0.123092 0.000000
0.518219 0.128429 0.000000
0.540741 0.133919 0.000000
0.562169 0.139568 0.000000
0.582660 0.145382 0.000000
0.602342 0.151368 0.000000
0.621317 0.157534 0.000000
0.639673 0.163885 0.000000
0.657481 0.170431 0.000000
0.674805 0.177179 0.000000
0.691696 0.184136 0.000000
0.708200 0.191312 0.000000
0.724357 0.198715 0.000000
0.740201 0.206355 0.000000
0.755763 0.214240 0.000000
0.771069 0.222380 0.000000
0.786144 0.230786 0.000000
0.801007 0.239468 0.000000
0.815679 0.248436 0.000000
0.830176 0.257701 0.000000
0.844513 0.267275 0.000000
0.858704 0.277170 0.000000
0.872761 0.287397 0.000000
0.886695 0.297969 0.000000
0.900515 0.308899 0.000000
0.914232 0.320201 0.000000
0.927854 0.331887 0.000000
0.941387 0.343972 0.000000
0.954839 0.356471 0.000000
0.968215 0.369398 0.000000
0.007519 0.019153 0.000000
0.011468 0.019874 0.000000
0.014895 0.020624 0.000000
0.018164 0.021406 0.000000
0.021414 0.022220 0.000000
0.024715 0.023069 0.000000
0.028113 0.023954 0.000000
0.031640 0.024877 0.000000
0.035322 0.025839 0.000000
0.046585 0.028747 0.000000
0.058139 0.031655 0.000000
0.070024 0.034569 0.000000
0.082298 0.037506 0.000000
0.094993 0.040480 0.000000
0.108126 0.043500 0.000000
0.121712 0.046575 0.000000
0.135756 0.049711 0.000000
0.150264 0.052914 0.000000
0.165239 0.056190 0.000000
0.180684 0.059542 0.000000
0.196601 0.062974 0.000000
0.212991 0.066490 0.000000
0.229856 0.070093 0.000000
0.247199 0.073786 0.000000
0.265022 0.077574 0.000000
0.283330 0.081460 0.000000
0.302128 0.085446 0.000000
0.321424 0.089538 0.000000
0.341224 0.093738 0.000000
0.361538 0.098050 0.000000
0.382378 0.102480 0.000000
0.403756 0.107032 0.000000
0.425686 0.111709 0.000000
0.448185 0.116518 0.000000
0.471270 0.121464 0.000000
0.494961 0.126551 0.000000
0.518644 0.131787 0.000000
0.541097 0.137176 0.000000
0.562470 0.142726 0.000000
0.582915 0.148442 0.000000
0.602558 0.154333 0.000000
0.621502 0.160404 0.000000
0.639830 0.166663 0.000000
0.657617 0.173119 0.000000
0.674921 0.179778 0.000000
0.691796 0.186649 0.000000
0.708286 0.193741 0.000000
0.724432 0.201063 0.000000
0.740266 0.208623 0.000000
0.755819 0.216430 0.000000
0.771118 0.224496 0.000000
0.786186 0.232828 0.000000
0.801045 0.241439 0.000000
0.815712 0.250338 0.000000
0.830205 0.259537 0.000000
0.844538 0.269047 0.000000
0.858726 0.278879 0.000000
0.872780 0.289045 0.000000
0.886712 0.299559 0.000000
0.900531 0.310432 0.000000
0.914246 0.321679 0.000000
0.927866 0.333312 0.000000
0.941397 0.345346 0.000000
0.954848 0.357795 0.000000
0.968224 0.370675 0.000000
0.009605 0.024468 0.000000
0.013603 0.025167 0.000000
0.017147 0.025899 0.000000
0.020533 0.026665 0.000000
0.023886 0.027466 0.000000
0.027277 0.028304 0.000000
0.030750 0.029181 0.000000
0.034340 0.030098 0.000000
0.038072 0.031056 0.000000
0.049417 0.033961 0.000000
0.060980 0.036872 0.000000
0.072830 0.039790 0.000000
0.085039 0.042726 0.000000
0.097648 0.045694 0.000000
0.110681 0.048702 0.000000
0.124156 0.051757 0.000000
0.138084 0.054866 0.000000
0.152472 0.058035 0.000000
0.167325 0.061268 0.000000
0.182647 0.064570 0.000000
0.198442 0.067945 0.000000
0.214712 0.071398 0.000000
0.231461 0.074932 0.000000
0.248690 0.078551 0.000000
0.266405 0.082259 0.000000
0.284610 0.086060 0.000000
0.303309 0.089959 0.000000
0.322511 0.093959 0.000000
0.342223 0.098064 0.000000
0.362455 0.102281 0.000000
0.383218 0.106612 0.000000
0.404524 0.111063 0.000000
0.426387 0.115640 0.000000
0.448825 0.120348 0.000000
0.471853 0.125191 0.000000
0.495492 0.130177 0.000000
0.519095 0.135311 0.000000
0.541477 0.140600 0.000000
0.562790 0.146050 0.000000
0.583187 0.151668 0.000000
0.602789 0.157461 0.000000
0.621698 0.163437 0.000000
0.639999 0.169602 0.000000
0.657761 0.175965 0.000000
0.675045 0.182533 0.000000
0.691903 0.189316 0.000000
0.708379 0.196321 0.000000
0.724511 0.203557 0.000000
0.740335 0.211034 0.000000
0.755879 0.218761 0.000000
0.771170 0.226748 0.000000
0.786232 0.235005 0.000000
0.801084 0.243541 0.000000
0.815747 0.252368 0.000000
0.830235 0.261497 0.000000
0.844565 0.270938 0.000000
0.858750 0.280704 0.000000
0.872801 0.290807 0.000000
0.886730 0.301259 0.000000
0.900547 0.312072 0.000000
0.914260 0.323261 0.000000
0.927878 0.334838 0.000000
0.941409 0.346817 0.000000
0.954858 0.359214 0.000000
0.968232 0.372043 0.000000
0.011791 0.030038 0.000000
0.015809 0.030714 0.000000
0.019440 0.031425 0.000000
0.022921 0.032172 0.000000
0.026365 0.032956 0.000000
0.029838 0.033778 0.000000
0.033383 0.034641 0.000000
0.037034 0.035544 0.000000
0.040818 0.036491 0.000000
0.052254 0.039370 0.000000
0.063841 0.042264 0.000000
0.075668 0.045167 0.000000
0.087823 0.048089 0.000000
0.100354 0.051041 0.000000
0.113295 0.054028 0.000000
0.126665 0.057059 0.000000
0.140480 0.060138 0.000000
0.154750 0.063271 0.000000
0.169482 0.066462 0.000000
0.184682 0.069716 0.000000
0.200354 0.073038 0.000000
0.216504 0.076431 0.000000
0.233134 0.079900 0.000000
0.250249 0.083449 0.000000
0.267853 0.087082 0.000000
0.285951 0.090804 0.000000
0.304549 0.094619 0.000000
0.323655 0.098532 0.000000
0.343276 0.102548 0.000000
0.363422 0.106671 0.000000
0.384105 0.110907 0.000000
0.405336 0.115262 0.000000
0.427130 0.119740 0.000000
0.449503 0.124348 0.000000
0.472471 0.129091 0.000000
0.496055 0.133976 0.000000
0.519574 0.139010 0.000000
0.541880 0.144198 0.000000
0.563131 0.149548 0.000000
0.583475 0.155066 0.000000
0.603035 0.160761 0.000000
0.621908 0.166638 0.000000
0.640179 0.172707 0.000000
0.657915 0.178976 0.000000
0.675178 0.185451 0.000000
0.692017 0.192142 0.000000
0.708477 0.199058 0.000000
0.724597 0.206206 0.000000
0.740409 0.213598 0.000000
0.755944 0.221241 0.000000
0.771226 0.229146 0.000000
0.786281 0.237322 0.000000
0.801127 0.245781 0.000000
0.815784 0.254532 0.000000
0.830268 0.263587 0.000000
0.844594 0.272957 0.000000
0.858775 0.282654 0.000000
0.872823 0.292689 0.000000
0.886750 0.303076 0.000000
0.900564 0.313826 0.000000
0.914275 0.324953 0.000000
0.927892 0.336470 0.000000
0.941421 0.348392 0.000000
0.954869 0.360733 0.000000
0.968242 0.373508 0.000000
0.014082 0.035872 0.000000
0.018100 0.036526 0.000000
0.021793 0.037215 0.000000
0.025351 0.037940 0.000000
0.028872 0.038704 0.000000
0.032417 0.039506 0.000000
0.036029 0.040350 0.000000
0.039738 0.041235 0.000000
0.043572 0.042165 0.000000
0.055105 0.045000 0.000000
0.066725 0.047859 0.000000
0.078539 0.050733 0.000000
0.090648 0.053628 0.000000
0.103110 0.056552 0.000000
0.115964 0.059511 0.000000
0.129235 0.062510 0.000000
0.142941 0.065554 0.000000
0.157096 0.068648 0.000000
0.171708 0.071796 0.000000
0.186787 0.075002 0.000000
0.202338 0.078271 0.000000
0.218366 0.081606 0.000000
0.234877 0.085013 0.000000
0.251875 0.088495 0.000000
0.269366 0.092056 0.000000
0.287355 0.095702 0.000000
0.305850 0.099438 0.000000
0.324856 0.103267 0.000000
0.344383 0.107196 0.000000
0.364441 0.111230 0.000000
0.385040 0.115374 0.000000
0.406193 0.119634 0.000000
0.427915 0.124016 0.000000
0.450220 0.128526 0.000000
0.473127 0.133170 0.000000
0.496653 0.137955 0.000000
0.520082 0.142888 0.000000
0.542307 0.147976 0.000000
0.563493 0.153225 0.000000
0.583783 0.158643 0.000000
0.603297 0.164238 0.000000
0.622132 0.170017 0.000000
0.640370 0.175988 0.000000
0.658080 0.182160 0.000000
0.675320 0.188540 0.000000
0.692139 0.195137 0.000000
0.708583 0.201960 0.000000
0.724688 0.209018 0.000000
0.740488 0.216320 0.000000
0.756012 0.223876 0.000000
0.771286 0.231696 0.000000
0.786333 0.239789 0.000000
0.801173 0.248167 0.000000
0.815824 0.256839 0.000000
0.830303 0.265817 0.000000
0.844624 0.275112 0.000000
0.858802 0.284736 0.000000
0.872847 0.294700 0.000000
0.886771 0.305017 0.000000
0.900583 0.315700 0.000000
0.914292 0.326762 0.000000
0.927907 0.338217 0.000000
0.941434 0.350078 0.000000
0.954880 0.362359 0.000000
0.968252 0.375077 0.000000
0.016479 0.041980 0.000000
0.020484 0.042611 0.000000
0.024218 0.043276 0.000000
0.027836 0.043978 0.000000
0.031422 0.044719 0.000000
0.035030 0.045499 0.000000
0.038701 0.046320 0.000000
0.042465 0.047184 0.000000
0.046346 0.048092 0.000000
0.057976 0.050870 0.000000
0.069634 0.053681 0.000000
0.081443 0.056512 0.000000
0.093514 0.059367 0.000000
0.105915 0.062254 0.000000
0.118688 0.065175 0.000000
0.131865 0.068136 0.000000
0.145466 0.071139 0.000000
0.159509 0.074190 0.000000
0.174004 0.077292 0.000000
0.188962 0.080448 0.000000
0.204391 0.083663 0.000000
0.220298 0.086941 0.000000
0.236689 0.090286 0.000000
0.253569 0.093702 0.000000
0.270945 0.097194 0.000000
0.288823 0.100767 0.000000
0.307211 0.104425 0.000000
0.326116 0.108174 0.000000
0.345546 0.112018 0.000000
0.365512 0.115965 0.000000
0.386025 0.120019 0.000000
0.407098 0.124187 0.000000
0.428744 0.128474 0.000000
0.450979 0.132888 0.000000
0.473821 0.137435 0.000000
0.497287 0.142121 0.000000
0.520619 0.146954 0.000000
0.542761 0.151941 0.000000
0.563877 0.157090 0.000000
0.584109 0.162407 0.000000
0.603576 0.167901 0.000000
0.622371 0.173580 0.000000
0.640575 0.179452 0.000000
0.658256 0.185525 0.000000
0.675471 0.191807 0.000000
0.692270 0.198308 0.000000
0.708696 0.205036 0.000000
0.724786 0.212000 0.000000
0.740573 0.219211 0.000000
0.756086 0.226677 0.000000
0.771351 0.234408 0.000000
0.786389 0.242414 0.000000
0.801222 0.250707 0.000000
0.815867 0.259297 0.000000
0.830341 0.268194 0.000000
0.844658 0.277410 0.000000
0.858831 0.286957 0.000000
0.872873 0.296846 0.000000
0.886793 0.307091 0.000000
0.900603 0.317703 0.000000
0.914310 0.328696 0.000000
0.927922 0.340084 0.000000
0.941448 0.351880 0.000000
0.954893 0.364099 0.000000
0.968263 0.376756 0.000000
0.023754 0.060513 0.000000
0.027666 0.061076 0.000000
0.031436 0.061673 0.000000
0.035145 0.062305 0.000000
0.038847 0.062974 0.000000
0.042582 0.063682 0.000000
0.046378 0.064430 0.000000
0.050263 0.065220 0.000000
0.054256 0.066054 0.000000
0.066130 0.068621 0.000000
0.077903 0.071241 0.000000
0.089721 0.073896 0.000000
0.101718 0.076589 0.000000
0.113977 0.079321 0.000000
0.126555 0.082093 0.000000
0.139494 0.084907 0.000000
0.152825 0.087765 0.000000
0.166572 0.090668 0.000000
0.180753 0.093619 0.000000
0.195385 0.096620 0.000000
0.210480 0.099674 0.000000
0.226049 0.102785 0.000000
0.242103 0.105954 0.000000
0.258650 0.109188 0.000000
0.275699 0.112488 0.000000
0.293259 0.115861 0.000000
0.311339 0.119311 0.000000
0.329947 0.122843 0.000000
0.349095 0.126462 0.000000
0.368792 0.130175 0.000000
0.389050 0.133988 0.000000
0.409883 0.137907 0.000000
0.431304 0.141939 0.000000
0.453328 0.146092 0.000000
0.475973 0.150372 0.000000
0.499257 0.154786 0.000000
0.522289 0.159344 0.000000
0.544173 0.164052 0.000000
0.565076 0.168919 0.000000
0.585131 0.173953 0.000000
0.604449 0.179163 0.000000
0.623119 0.184557 0.000000
0.641218 0.190144 0.000000
0.658809 0.195933 0.000000
0.675948 0.201932 0.000000
0.692683 0.208152 0.000000
0.709053 0.214602 0.000000
0.725096 0.221291 0.000000
0.740843 0.228230 0.000000
0.756321 0.235428 0.000000
0.771555 0.242895 0.000000
0.786568 0.250642 0.000000
0.801378 0.258680 0.000000
0.816004 0.267019 0.000000
0.830461 0.275671 0.000000
0.844763 0.284647 0.000000
0.858924 0.293960 0.000000
0.872954 0.303621 0.000000
0.886865 0.313642 0.000000
0.900666 0.324037 0.000000
0.914366 0.334818 0.000000
0.927972 0.346000 0.000000
0.941492 0.357595 0.000000
0.954932 0.369619 0.000000
0.968299 0.382086 0.000000
0.031020 0.079022 0.000000
0.034804 0.079523 0.000000
0.038531 0.080056 0.000000
0.042246 0.080621 0.000000
0.045982 0.081222 0.000000
0.049768 0.081858 0.000000
0.053625 0.082533 0.000000
0.057574 0.083247 0.000000
0.061632 0.084002 0.000000
0.073662 0.086340 0.000000
0.085521 0.088743 0.000000
0.097355 0.091193 0.000000
0.109305 0.093690 0.000000
0.121463 0.096235 0.000000
0.133896 0.098827 0.000000
0.146651 0.101467 0.000000
0.159766 0.104154 0.000000
0.173271 0.106890 0.000000
0.187192 0.109675 0.000000
0.201547 0.112511 0.000000
0.216354 0.115400 0.000000
0.231629 0.118343 0.000000
0.247384 0.121344 0.000000
0.263632 0.124405 0.000000
0.280385 0.127529 0.000000
0.297654 0.130721 0.000000
0.315449 0.133985 0.000000
0.333781 0.137325 0.000000
0.352662 0.140748 0.000000
0.372103 0.144258 0.000000
0.392118 0.147862 0.000000
0.412719 0.151565 0.000000
0.433921 0.155376 0.000000
0.455739 0.159302 0.000000
0.478191 0.163349 0.000000
0.501291 0.167526 0.000000
0.524009 0.171840 0.000000
0.545635 0.176301 0.000000
0.566322 0.180917 0.000000
0.586197 0.185696 0.000000
0.605363 0.190648 0.000000
0.623904 0.195782 0.000000
0.641894 0.201107 0.000000
0.659393 0.206632 0.000000
0.676453 0.212368 0.000000
0.693120 0.218324 0.000000
0.709433 0.224511 0.000000
0.725426 0.230937 0.000000
0.741130 0.237615 0.000000
0.756571 0.244553 0.000000
0.771773 0.251763 0.000000
0.786759 0.259256 0.000000
0.801545 0.267043 0.000000
0.816150 0.275135 0.000000
0.830590 0.283543 0.000000
0.844876 0.292280 0.000000
0.859024 0.301357 0.000000
0.873043 0.310787 0.000000
0.886943 0.320582 0.000000
0.900735 0.330755 0.000000
0.914427 0.341320 0.000000
0.928027 0.352290 0.000000
0.941540 0.363679 0.000000
0.954975 0.375502 0.000000
0.968337 0.387773 0.000000
0.038235 0.097402 0.000000
0.041880 0.097848 0.000000
0.045525 0.098322 0.000000
0.049196 0.098827 0.000000
0.052915 0.099363 0.000000
0.056701 0.099933 0.000000
0.060571 0.100538 0.000000
0.064540 0.101180 0.000000
0.068623 0.101860 0.000000
0.080727 0.103974 0.000000
0.092628 0.106159 0.000000
0.104463 0.108399 0.000000
0.116372 0.110693 0.000000
0.128450 0.113040 0.000000
0.140765 0.115441 0.000000
0.153371 0.117895 0.000000
0.166310 0.120401 0.000000
0.179616 0.122960 0.000000
0.193316 0.125572 0.000000
0.207436 0.128237 0.000000
0.221995 0.130957 0.000000
0.237013 0.133732 0.000000
0.252505 0.136565 0.000000
0.268487 0.139458 0.000000
0.284974 0.142414 0.000000
0.301977 0.145435 0.000000
0.319510 0.148525 0.000000
0.337587 0.151689 0.000000
0.356219 0.154932 0.000000
0.375420 0.158258 0.000000
0.395203 0.161674 0.000000
0.415583 0.165185 0.000000
0.436574 0.168798 0.000000
0.458193 0.172521 0.000000
0.480456 0.176360 0.000000
0.503361 0.180325 0.000000
0.525768 0.184422 0.000000
0.547135 0.188660 0.000000
0.567606 0.193049 0.000000
0.587299 0.197597 0.000000
0.606311 0.202314 0.000000
0.624722 0.207210 0.000000
0.642600 0.212293 0.000000
0.660004 0.217575 0.000000
0.676983 0.223065 0.000000
0.693580 0.228773 0.000000
0.709833 0.234711 0.000000
0.725774 0.240888 0.000000
0.741433 0.247316 0.000000
0.756836 0.254006 0.000000
0.772005 0.260968 0.000000
0.786962 0.268214 0.000000
0.801723 0.275755 0.000000
0.816307 0.283604 0.000000
0.830727 0.291772 0.000000
0.844997 0.300271 0.000000
0.859130 0.309113 0.000000
0.873137 0.318312 0.000000
0.887027 0.327879 0.000000
0.900809 0.337829 0.000000
0.914493 0.348175 0.000000
0.928085 0.358930 0.000000
0.941592 0.370108 0.000000
0.955021 0.381724 0.000000
0.968378 0.393794 0.000000
0.045409 0.115678 0.000000
0.048912 0.116074 0.000000
0.052454 0.116496 0.000000
0.056052 0.116946 0.000000
0.059720 0.117424 0.000000
0.063472 0.117933 0.000000
0.067321 0.118475 0.000000
0.071278 0.119050 0.000000
0.075355 0.119660 0.000000
0.087460 0.121564 0.000000
0.099359 0.123540 0.000000
0.111173 0.125576 0.000000
0.123035 0.127670 0.000000
0.135038 0.129822 0.000000
0.147252 0.132032 0.000000
0.159731 0.134298 0.000000
0.172521 0.136622 0.000000
0.185656 0.139001 0.000000
0.199168 0.141437 0.000000
0.213084 0.143930 0.000000
0.227428 0.146479 0.000000
0.242220 0.149087 0.000000
0.257479 0.151753 0.000000
0.273224 0.154481 0.000000
0.289469 0.157271 0.000000
0.306231 0.160127 0.000000
0.323525 0.163052 0.000000
0.341365 0.166049 0.000000
0.359765 0.169123 0.000000
0.378740 0.172278 0.000000
0.398304 0.175519 0.000000
0.418473 0.178853 0.000000
0.439262 0.182285 0.000000
0.460687 0.185822 0.000000
0.482767 0.189472 0.000000
0.505466 0.193242 0.000000
0.527565 0.197141 0.000000
0.548674 0.201176 0.000000
0.568928 0.205357 0.000000
0.588438 0.209693 0.000000
0.607294 0.214194 0.000000
0.625572 0.218869 0.000000
0.643337 0.223728 0.000000
0.660643 0.228782 0.000000
0.677538 0.234041 0.000000
0.694063 0.239517 0.000000
0.710254 0.245219 0.000000
0.726142 0.251159 0.000000
0.741754 0.257348 0.000000
0.757117 0.263798 0.000000
0.772251 0.270520 0.000000
0.787177 0.277526 0.000000
0.801913 0.284828 0.000000
0.816473 0.292438 0.000000
0.830874 0.300369 0.000000
0.845127 0.308632 0.000000
0.859244 0.317241 0.000000
0.873238 0.326209 0.000000
0.887116 0.335548 0.000000
0.900888 0.345273 0.000000
0.914563 0.355396 0.000000
0.928147 0.365933 0.000000
0.941648 0.376897 0.000000
0.955070 0.388303 0.000000
0.968422 0.400166 0.000000
0.052552 0.133875 0.000000
0.055914 0.134227 0.000000
0.059343 0.134602 0.000000
0.062851 0.135002 0.000000
0.066446 0.135429 0.000000
0.070140 0.135883 0.000000
0.073943 0.136367 0.000000
0.077862 0.136881 0.000000
0.081910 0.137428 0.000000
0.093955 0.139137 0.000000
0.105812 0.140920 0.000000
0.117580 0.142764 0.000000
0.129383 0.144668 0.000000
0.141309 0.146632 0.000000
0.153428 0.148657 0.000000
0.165794 0.150741 0.000000
0.178451 0.152885 0.000000
0.191437 0.155088 0.000000
0.204785 0.157350 0.000000
0.218523 0.159672 0.000000
0.232676 0.162053 0.000000
0.247268 0.164494 0.000000
0.262320 0.166997 0.000000
0.277851 0.169562 0.000000
0.293878 0.172191 0.000000
0.310421 0.174886 0.000000
0.327494 0.177651 0.000000
0.345115 0.180487 0.000000
0.363299 0.183400 0.000000
0.382062 0.186392 0.000000
0.401419 0.189469 0.000000
0.421387 0.192636 0.000000
0.441982 0.195898 0.000000
0.463222 0.199263 0.000000
0.485124 0.202737 0.000000
0.507602 0.206327 0.000000
