luts/Rec2100_HLG/DJI_Osmo_DLogM_to_Rec2100_HLG_BT2408_DeepBlacks_Natural.cube
TITLE "OpenOSV D-Log M to Rec.2100 HLG, BT.2408 Deep Blacks + Natural - DJI Osmo 360 / Pocket 3"
LUT_3D_SIZE 5
DOMAIN_MIN 0.000000 0.000000 0.000000
DOMAIN_MAX 1.000000 1.000000 1.000000
0.000000 0.000000 0.000000
0.127143 0.029302 0.000000
0.423257 0.097547 0.000000
0.740032 0.200341 0.000000
0.968194 0.366058 0.000000
0.073910 0.188286 0.000000
0.195014 0.202361 0.000000
0.450328 0.237967 0.000000
0.743226 0.301057 0.000000
0.968632 0.429485 0.000000
0.198874 0.506550 0.000000
0.283076 0.509569 0.000000
0.502443 0.520604 0.000000
0.753183 0.547336 0.000000
0.970418 0.606315 0.000000
0.380695 0.782792 0.000000
0.431473 0.783203 0.000000
0.585062 0.784903 0.000000
0.775817 0.790124 0.000000
0.975901 0.805535 0.000000
0.640704 1.000000 0.000000
0.658042 1.000000 0.000000
0.716561 1.000000 0.000000
0.830114 1.000000 0.000000
0.993439 1.000000 0.000000
0.018116 0.000000 0.095088
0.138905 0.014523 0.157852
0.427279 0.090308 0.213211
0.740647 0.196109 0.216069
0.968340 0.363702 0.162332
0.084072 0.187352 0.192420
0.200507 0.200507 0.200507
0.453165 0.235045 0.211990
0.743796 0.298248 0.205372
0.968779 0.427481 0.146709
0.203880 0.505032 0.175080
0.286648 0.508053 0.174041
0.504474 0.519121 0.169066
0.753683 0.546013 0.149397
0.970567 0.605372 0.036710
0.383379 0.782440 0.000000
0.433843 0.782852 0.000000
0.586332 0.784556 0.000000
0.776255 0.789789 0.000000
0.976045 0.805230 0.000000
0.641609 1.000000 0.000000
0.658864 1.000000 0.000000
0.717155 1.000000 0.000000
0.830429 1.000000 0.000000
0.993553 1.000000 0.000000
0.075110 0.000000 0.394238
0.184424 0.000000 0.437869
0.443231 0.046341 0.503665
0.743261 0.177242 0.528416
0.968924 0.353629 0.512250
0.120114 0.180660 0.474879
0.222745 0.191021 0.489005
0.465178 0.222186 0.514959
0.746236 0.286203 0.525535
0.969360 0.418935 0.507526
0.223903 0.498961 0.512189
0.301434 0.501934 0.512553
0.512983 0.512983 0.512983
0.755789 0.540387 0.509138
0.971137 0.601296 0.486599
0.394395 0.780918 0.451273
0.443597 0.781333 0.450681
0.591513 0.783049 0.448183
0.778035 0.788328 0.440079
0.976607 0.803908 0.413481
0.645359 1.000000 0.000000
0.662271 1.000000 0.000000
0.719621 1.000000 0.000000
0.831742 1.000000 0.000000
0.994029 1.000000 0.000000
0.180741 0.000000 0.774249
0.264712 0.000000 0.779645
0.487830 0.000000 0.791816
0.751088 0.093474 0.800724
0.970770 0.319427 0.797583
0.202050 0.129206 0.780382
0.281649 0.138078 0.784592
0.499376 0.169931 0.794072
0.753635 0.243459 0.800470
0.971195 0.390466 0.796531
0.278606 0.477891 0.796614
0.344448 0.480657 0.796927
0.537550 0.491536 0.797716
0.762302 0.521093 0.797594
0.972941 0.587656 0.792041
0.427580 0.775953 0.786289
0.473308 0.776378 0.786147
0.607054 0.778136 0.785542
0.783558 0.783558 0.783558
0.978344 0.799586 0.777152
0.656669 0.998670 0.733417
0.672579 0.998766 0.733250
0.727128 0.999166 0.732547
0.835741 1.000000 0.730309
0.995475 1.000000 0.723580
0.351926 0.000000 1.000000
0.406118 0.000000 1.000000
0.571670 0.000000 1.000000
0.772759 0.000000 1.000000
0.976492 0.169852 1.000000
0.362774 0.000000 1.000000
0.415578 0.000000 1.000000
0.576836 0.000000 1.000000
0.774456 0.000000 1.000000
0.976893 0.281444 1.000000
0.407201 0.397244 1.000000
0.455157 0.400097 1.000000
0.598161 0.411718 1.000000
0.781340 0.445962 1.000000
0.978554 0.535757 1.000000
0.518513 0.759137 1.000000
0.552173 0.759601 1.000000
0.649010 0.761526 1.000000
0.800053 0.767490 1.000000
0.983766 0.785117 1.000000
0.688523 0.993911 1.000000
0.701905 0.994011 1.000000
0.749111 0.994429 1.000000
0.847899 0.995762 1.000000
1.000000 1.000000 1.000000
