luts/Rec2100_HLG/DJI_Osmo_DLogM_to_Rec2100_HLG_ACES2_Detailed.cube
TITLE "OpenOSV D-Log M to Rec.2100 HLG, ACES 2 Detailed (indoor) - DJI Osmo 360 / Pocket 3"
LUT_3D_SIZE 9
DOMAIN_MIN 0.000000 0.000000 0.000000
DOMAIN_MAX 1.000000 1.000000 1.000000
0.000000 0.000000 0.000000
0.034295 0.001445 0.000000
0.147664 0.008087 0.000000
0.263935 0.019130 0.000000
0.392562 0.037199 0.000000
0.539300 0.065237 0.000000
0.664161 0.105821 0.000000
0.767531 0.160723 0.000000
0.856924 0.231694 0.000000
0.005160 0.037773 0.000000
0.035469 0.038256 0.000000
0.148658 0.039745 0.000000
0.264294 0.047235 0.000000
0.392434 0.061885 0.000000
0.538933 0.085995 0.000000
0.663850 0.122255 0.000000
0.767305 0.173017 0.000000
0.856769 0.240562 0.000000
0.027795 0.156667 0.000000
0.050760 0.157013 0.000000
0.148360 0.157350 0.000000
0.260636 0.158033 0.000000
0.388382 0.162344 0.000000
0.535591 0.173506 0.000000
0.661867 0.194930 0.000000
0.766047 0.230406 0.000000
0.855940 0.283997 0.000000
0.061325 0.273907 0.000000
0.079628 0.274027 0.000000
0.159861 0.274140 0.000000
0.260695 0.273947 0.000000
0.383414 0.274565 0.000000
0.530038 0.278337 0.000000
0.658410 0.288823 0.000000
0.763860 0.310668 0.000000
0.854505 0.349415 0.000000
0.108068 0.402421 0.000000
0.121965 0.402437 0.000000
0.185579 0.402365 0.000000
0.271859 0.402045 0.000000
0.384214 0.401709 0.000000
0.525448 0.402353 0.000000
0.654037 0.406342 0.000000
0.760588 0.417844 0.000000
0.852189 0.442862 0.000000
0.169003 0.547556 0.000000
0.179053 0.547537 0.000000
0.227347 0.547405 0.000000
0.297976 0.547120 0.000000
0.396384 0.546664 0.000000
0.526685 0.546277 0.000000
0.650663 0.546924 0.000000
0.756667 0.550945 0.000000
0.848865 0.562387 0.000000
0.245315 0.669286 0.000000
0.252393 0.669268 0.000000
0.287823 0.669165 0.000000
0.343193 0.668976 0.000000
0.425567 0.668655 0.000000
0.539293 0.668203 0.000000
0.651728 0.667840 0.000000
0.753661 0.668401 0.000000
0.844965 0.671892 0.000000
0.339945 0.770261 0.000000
0.344896 0.770247 0.000000
0.370366 0.770170 0.000000
0.412198 0.770032 0.000000
0.478057 0.769797 0.000000
0.567864 0.769420 0.000000
0.661739 0.768914 0.000000
0.754524 0.768520 0.000000
0.841960 0.769080 0.000000
0.457999 0.856885 0.000000
0.461456 0.856873 0.000000
0.479534 0.856813 0.000000
0.510025 0.856707 0.000000
0.554916 0.856524 0.000000
0.614008 0.856218 0.000000
0.685036 0.855746 0.000000
0.763252 0.855136 0.000000
0.842570 0.854681 0.000000
0.001440 0.000000 0.050743
0.034822 0.000260 0.045259
0.148344 0.007003 0.033254
0.264392 0.018136 0.026965
0.392883 0.036316 0.020472
0.539505 0.064495 0.011755
0.664260 0.105238 0.000000
0.767581 0.160292 0.000000
0.856950 0.231386 0.000000
0.006631 0.036379 0.038422
0.036882 0.036882 0.036882
0.149462 0.038650 0.029690
0.264799 0.046296 0.024057
0.392777 0.061072 0.017856
0.539146 0.085313 0.009361
0.663950 0.121711 0.000000
0.767356 0.172606 0.000000
0.856795 0.240263 0.000000
0.028987 0.156087 0.014070
0.051895 0.156425 0.013741
0.149176 0.156751 0.011913
0.261187 0.157458 0.008905
0.388756 0.161813 0.004304
0.535818 0.173032 0.000000
0.661970 0.194524 0.000000
0.766098 0.230073 0.000000
0.855966 0.283738 0.000000
0.062279 0.273565 0.000000
0.080523 0.273683 0.000000
0.160532 0.273790 0.000000
0.261180 0.273599 0.000000
0.383761 0.274227 0.000000
0.530261 0.278017 0.000000
0.658512 0.288531 0.000000
0.763911 0.310412 0.000000
0.854531 0.349200 0.000000
0.108789 0.402200 0.000000
0.122648 0.402215 0.000000
0.186120 0.402141 0.000000
0.272272 0.401821 0.000000
0.384523 0.401487 0.000000
0.525656 0.402137 0.000000
0.654135 0.406137 0.000000
0.760637 0.417654 0.000000
0.852214 0.442694 0.000000
0.169520 0.547430 0.000000
0.179551 0.547412 0.000000
0.227770 0.547279 0.000000
0.298319 0.546994 0.000000
0.396653 0.546538 0.000000
0.526871 0.546153 0.000000
0.650754 0.546803 0.000000
0.756714 0.550831 0.000000
0.848890 0.562286 0.000000
0.245676 0.669230 0.000000
0.252747 0.669211 0.000000
0.288141 0.669108 0.000000
0.343468 0.668919 0.000000
0.425794 0.668599 0.000000
0.539449 0.668147 0.000000
0.651810 0.667784 0.000000
0.753705 0.668347 0.000000
0.844988 0.671841 0.000000
0.340196 0.770234 0.000000
0.345144 0.770220 0.000000
0.370600 0.770142 0.000000
0.412410 0.770005 0.000000
0.478241 0.769769 0.000000
0.567984 0.769393 0.000000
0.661808 0.768886 0.000000
0.754563 0.768493 0.000000
0.841981 0.769054 0.000000
0.458174 0.856871 0.000000
0.461629 0.856860 0.000000
0.479702 0.856800 0.000000
0.510176 0.856694 0.000000
0.555034 0.856511 0.000000
0.614092 0.856205 0.000000
0.685091 0.855733 0.000000
0.763285 0.855123 0.000000
0.842589 0.854668 0.000000
0.008161 0.000000 0.206153
0.036463 0.000000 0.203823
0.149073 0.001480 0.182947
0.265276 0.012767 0.164666
0.393666 0.031481 0.149913
0.540086 0.060419 0.135730
0.664583 0.102043 0.119658
0.767775 0.157940 0.098454
0.857070 0.229719 0.065736
0.013330 0.026351 0.201163
0.041122 0.027524 0.198513
0.151077 0.032222 0.179288
0.266019 0.041009 0.162041
0.393713 0.056552 0.147748
0.539787 0.081543 0.133828
0.664290 0.118724 0.117922
0.767554 0.170364 0.096789
0.856916 0.238646 0.064000
0.035097 0.151868 0.158473
0.057535 0.152208 0.157749
0.152768 0.152768 0.152768
0.263358 0.153906 0.144795
0.390145 0.158701 0.134940
0.536657 0.170346 0.123235
0.662370 0.192270 0.108458
0.766315 0.228256 0.087733
0.856093 0.282335 0.054517
0.067241 0.271315 0.125762
0.085145 0.271428 0.125403
0.163889 0.271555 0.123287
0.263495 0.271448 0.119472
0.385343 0.272216 0.113406
0.531243 0.276183 0.104416
0.658967 0.286903 0.091231
0.764150 0.309013 0.070981
0.854665 0.348046 0.036751
0.112575 0.400880 0.087007
0.126233 0.400894 0.086755
0.188947 0.400819 0.085378
0.274405 0.400515 0.082907
0.386095 0.400216 0.078617
0.526700 0.400924 0.071385
0.654628 0.405006 0.059347
0.760894 0.416628 0.038931
0.852351 0.441792 0.003081
0.172268 0.546751 0.022877
0.182201 0.546732 0.022649
0.230022 0.546598 0.021430
0.300148 0.546312 0.019257
0.398087 0.545860 0.015409
0.527865 0.545484 0.008688
0.651242 0.546153 0.000000
0.756966 0.550220 0.000000
0.849021 0.561741 0.000000
0.247605 0.668926 0.000000
0.254634 0.668908 0.000000
0.289841 0.668805 0.000000
0.344936 0.668616 0.000000
0.427006 0.668295 0.000000
0.540283 0.667845 0.000000
0.652247 0.667486 0.000000
0.753938 0.668058 0.000000
0.845111 0.671569 0.000000
0.341541 0.770088 0.000000
0.346472 0.770073 0.000000
0.371846 0.769996 0.000000
0.413541 0.769859 0.000000
0.479225 0.769623 0.000000
0.568626 0.769247 0.000000
0.662180 0.768742 0.000000
0.754771 0.768351 0.000000
0.842094 0.768917 0.000000
0.459110 0.856800 0.000000
0.462559 0.856789 0.000000
0.480597 0.856728 0.000000
0.510987 0.856623 0.000000
0.555663 0.856440 0.000000
0.614539 0.856134 0.000000
0.685382 0.855662 0.000000
0.763461 0.855054 0.000000
0.842689 0.854600 0.000000
0.019472 0.000000 0.356473
0.044782 0.000000 0.354734
0.150209 0.000000 0.338006
0.265522 0.003600 0.315506
0.393972 0.022728 0.294153
0.540426 0.052933 0.274012
0.664810 0.096159 0.253770
0.767911 0.153604 0.231564
0.857146 0.226635 0.204220
0.024327 0.013626 0.354714
0.049340 0.014912 0.352698
0.152906 0.021182 0.335693
0.266772 0.031424 0.313419
0.394294 0.048242 0.292321
0.540239 0.074585 0.272436
0.664546 0.113209 0.252422
0.767698 0.166224 0.230388
0.856995 0.235650 0.203138
0.045312 0.143148 0.315864
0.066729 0.143547 0.314731
0.158067 0.144782 0.307052
0.266153 0.146954 0.294656
0.391706 0.152737 0.279614
0.537500 0.165271 0.263095
0.662735 0.188046 0.244993
0.766491 0.224862 0.224045
0.856183 0.279713 0.197307
0.075643 0.266454 0.276185
0.092918 0.266573 0.275674
0.169320 0.266818 0.272584
0.266988 0.266988 0.266988
0.387496 0.268149 0.258418
0.532422 0.272564 0.246740
0.659446 0.283750 0.231787
0.764368 0.306338 0.212674
0.854772 0.345854 0.186760
0.119019 0.397885 0.238656
0.132312 0.397901 0.238366
0.193643 0.397857 0.236744
0.277807 0.397632 0.233802
0.388435 0.397471 0.228820
0.528103 0.398376 0.220961
0.655218 0.402698 0.209285
0.761164 0.414591 0.192424
0.852487 0.440049 0.167471
0.176968 0.545147 0.192116
0.186725 0.545128 0.191922
0.233823 0.545003 0.190873
0.303170 0.544737 0.188993
0.400369 0.544323 0.185692
0.529353 0.544013 0.180061
0.651930 0.544783 0.170752
0.757304 0.548991 0.155676
0.849199 0.560696 0.130905
0.250978 0.668309 0.117124
0.257933 0.668290 0.116958
0.292809 0.668189 0.116068
0.347488 0.668003 0.114478
0.429099 0.667689 0.111642
0.541704 0.667251 0.106605
0.652986 0.666913 0.097687
0.754330 0.667517 0.081788
0.845324 0.671074 0.052403
0.343932 0.769826 0.000000
0.348834 0.769811 0.000000
0.374065 0.769734 0.000000
0.415556 0.769597 0.000000
0.480977 0.769361 0.000000
0.569767 0.768986 0.000000
0.662842 0.768483 0.000000
0.755142 0.768097 0.000000
0.842295 0.768672 0.000000
0.460779 0.856672 0.000000
0.464215 0.856661 0.000000
0.482193 0.856601 0.000000
0.512425 0.856495 0.000000
0.556781 0.856312 0.000000
0.615335 0.856007 0.000000
0.685903 0.855536 0.000000
0.763776 0.854929 0.000000
0.842867 0.854479 0.000000
0.038132 0.000000 0.519791
0.060557 0.000000 0.518308
0.155853 0.000000 0.506018
0.266852 0.000000 0.484809
0.394297 0.007328 0.460250
0.540701 0.039189 0.434793
0.665025 0.085317 0.409023
0.768042 0.145661 0.382606
0.857203 0.221012 0.354102
0.042503 0.000000 0.518937
0.064631 0.000000 0.517353
0.158639 0.003815 0.504865
0.268552 0.014780 0.483591
0.395040 0.033182 0.458862
0.540711 0.061791 0.433403
0.664815 0.103066 0.407818
0.767843 0.158648 0.381616
0.857055 0.230188 0.353271
0.062094 0.127970 0.491502
0.081787 0.128483 0.490052
0.166855 0.130703 0.480821
0.270705 0.134428 0.465536
0.394082 0.141853 0.446009
0.538675 0.155974 0.424159
0.663205 0.180314 0.400939
0.766694 0.218663 0.376249
0.856260 0.274927 0.348815
0.089719 0.257448 0.446832
0.105937 0.257591 0.446121
0.178429 0.258082 0.441911
0.272794 0.258768 0.434361
0.390972 0.260656 0.422848
0.534218 0.265907 0.407445
0.660124 0.277964 0.388650
0.764640 0.301437 0.366719
0.854874 0.341833 0.340884
0.129967 0.392216 0.405048
0.142652 0.392240 0.404671
0.201644 0.392268 0.402559
0.283567 0.392204 0.398733
0.392321 0.392321 0.392321
0.530329 0.393612 0.382477
0.656093 0.398401 0.368619
0.761518 0.410805 0.350373
0.852622 0.436799 0.326898
0.185027 0.541950 0.360807
0.194484 0.541935 0.360586
0.240331 0.541830 0.359388
0.308302 0.541610 0.357239
0.404170 0.541281 0.353499
0.531721 0.541111 0.347279
0.652948 0.542088 0.337514
0.757740 0.546578 0.323056
0.849374 0.558640 0.302389
0.256730 0.666905 0.304711
0.263554 0.666887 0.304567
0.297837 0.666791 0.303794
0.351761 0.666617 0.302416
0.432523 0.666324 0.299983
0.543916 0.665923 0.295768
0.654057 0.665646 0.288672
0.754833 0.666338 0.277130
0.845547 0.670015 0.258821
0.348040 0.769213 0.216739
0.352887 0.769199 0.216623
0.377862 0.769123 0.216006
0.418983 0.768989 0.214904
0.483927 0.768760 0.212944
0.571643 0.768396 0.209471
0.663901 0.767911 0.203363
0.755714 0.767554 0.192707
0.842593 0.768171 0.174088
0.463744 0.856443 0.000000
0.467160 0.856432 0.000000
0.485029 0.856372 0.000000
0.514967 0.856267 0.000000
0.558761 0.856084 0.000000
0.616748 0.855780 0.000000
0.686828 0.855310 0.000000
0.764337 0.854707 0.000000
0.843184 0.854261 0.000000
0.067350 0.000000 0.658450
0.086370 0.000000 0.657568
0.169275 0.000000 0.651605
0.272173 0.000000 0.640697
0.395875 0.000000 0.625198
0.541212 0.013805 0.606118
0.665330 0.064921 0.583825
0.768219 0.130915 0.558752
0.857265 0.210721 0.530682
0.071061 0.000000 0.658038
0.089826 0.000000 0.657131
0.171772 0.000000 0.651115
0.273880 0.000000 0.640217
0.397015 0.006297 0.624743
0.541562 0.037875 0.605412
0.665220 0.084072 0.582995
0.768045 0.144627 0.557993
0.857124 0.220202 0.530021
0.088545 0.102576 0.648427
0.105741 0.103255 0.647468
0.181811 0.106629 0.641720
0.278931 0.112290 0.631710
0.398399 0.122126 0.617303
0.540705 0.138923 0.599102
0.663970 0.166106 0.577822
0.767000 0.207318 0.553779
0.856359 0.266218 0.526451
0.112514 0.241538 0.620399
0.127125 0.241736 0.619789
0.193616 0.242642 0.616295
0.282700 0.244137 0.610021
0.396972 0.247200 0.600084
0.537270 0.253864 0.586048
0.661253 0.267461 0.567984
0.765071 0.292537 0.546094
0.855015 0.334544 0.520016
0.148158 0.382013 0.587510
0.159896 0.382056 0.587145
0.215177 0.382219 0.585123
0.293430 0.382441 0.581459
0.399014 0.383037 0.575242
0.534109 0.385006 0.565497
0.657567 0.390624 0.551453
0.762093 0.403949 0.532657
0.852819 0.430912 0.508505
0.198723 0.536043 0.550079
0.207694 0.536035 0.549847
0.251495 0.535973 0.548593
0.317162 0.535840 0.546334
0.410750 0.535670 0.542382
0.535761 0.535761 0.535761
0.654675 0.537125 0.525303
0.758457 0.542140 0.509814
0.849638 0.554864 0.488215
0.266660 0.664288 0.501681
0.273263 0.664273 0.501519
0.306542 0.664189 0.500648
0.359173 0.664036 0.499092
0.438461 0.663785 0.496355
0.547692 0.663454 0.491668
0.655867 0.663290 0.483972
0.755654 0.664146 0.472032
0.845878 0.668041 0.454569
0.355101 0.767940 0.433592
0.359856 0.767927 0.433486
0.384377 0.767855 0.432921
0.424843 0.767728 0.431914
0.488930 0.767511 0.430134
0.574745 0.767168 0.427022
0.665600 0.766721 0.421696
0.756568 0.766420 0.412869
0.842974 0.767118 0.398776
0.468745 0.855833 0.327996
0.472122 0.855822 0.327914
0.489796 0.855763 0.327475
0.519163 0.855661 0.326692
0.562008 0.855483 0.325300
0.619031 0.855187 0.322836
0.688279 0.854732 0.318507
0.765171 0.854152 0.310987
0.843618 0.853742 0.298080
0.110086 0.000000 0.768703
0.125262 0.000000 0.768135
0.194015 0.000000 0.764786
0.285402 0.000000 0.758715
0.401739 0.000000 0.749264
0.542961 0.000000 0.736390
0.665956 0.024785 0.720559
0.768564 0.102536 0.701898
0.857385 0.191534 0.681390
0.113033 0.000000 0.768477
0.128039 0.000000 0.767903
0.196153 0.000000 0.764541
0.286962 0.000000 0.758472
0.402841 0.000000 0.749038
0.543618 0.000000 0.736184
0.666049 0.046831 0.720173
0.768438 0.117833 0.701442
0.857255 0.201639 0.681002
0.127824 0.058307 0.765922
0.141926 0.059221 0.765298
0.206561 0.063976 0.761778
0.293998 0.072034 0.755599
0.406863 0.085401 0.746066
0.544701 0.106802 0.733060
0.665455 0.139378 0.717057
0.767582 0.186191 0.698808
0.856544 0.250206 0.678904
0.147609 0.213879 0.749900
0.160067 0.214178 0.749428
0.218295 0.215707 0.746826
0.299598 0.218347 0.742248
0.407650 0.223142 0.734907
0.542773 0.232064 0.724304
0.663327 0.248314 0.710471
0.765865 0.276295 0.693899
0.855273 0.321281 0.675141
0.177248 0.364069 0.727037
0.187647 0.364149 0.726746
0.237529 0.364545 0.725158
0.310161 0.365222 0.722328
0.410642 0.366578 0.717551
0.540684 0.369646 0.710077
0.660191 0.376660 0.699389
0.763125 0.391588 0.685446
0.853172 0.420286 0.668562
0.221404 0.525259 0.701095
0.229645 0.525265 0.700918
0.270309 0.525284 0.699963
0.332322 0.525308 0.698256
0.422166 0.525420 0.695291
0.542713 0.525974 0.690373
0.657704 0.528034 0.682741
0.759726 0.534007 0.671826
0.850104 0.547954 0.657422
0.283561 0.659564 0.671161
0.289813 0.659553 0.671050
0.321476 0.659489 0.670453
0.371987 0.659377 0.669390
0.448802 0.659198 0.667518
0.554194 0.658993 0.664307
0.659028 0.659028 0.659028
0.757094 0.660176 0.650864
0.846454 0.664463 0.639095
0.367335 0.765635 0.633204
0.371934 0.765622 0.633128
0.395696 0.765557 0.632725
0.435054 0.765442 0.632007
0.497675 0.765248 0.630738
0.580103 0.764944 0.628522
0.668556 0.764562 0.624747
0.758054 0.764364 0.618564
0.843628 0.765204 0.608935
0.477422 0.854656 0.576152
0.480732 0.854646 0.576093
0.498066 0.854590 0.575775
0.526295 0.854491 0.575208
0.567546 0.854321 0.574203
0.622926 0.854039 0.572431
0.690738 0.853608 0.569346
0.766551 0.853066 0.564083
0.844289 0.852713 0.555353
0.168499 0.000000 0.863302
0.179915 0.000000 0.862939
0.234078 0.000000 0.860939
0.311504 0.000000 0.857388
0.416628 0.000000 0.851565
0.549116 0.000000 0.842915
0.667572 0.000000 0.831375
0.769365 0.042671 0.817340
0.857738 0.154078 0.800900
0.170700 0.000000 0.863175
0.182026 0.000000 0.862810
0.235822 0.000000 0.860808
0.312867 0.000000 0.857259
0.417647 0.000000 0.851442
0.549732 0.000000 0.842803
0.667864 0.000000 0.831274
0.769358 0.062163 0.817102
0.857631 0.165637 0.800635
0.182191 0.000000 0.862488
0.193055 0.000000 0.862118
0.244985 0.000000 0.860105
0.320073 0.000000 0.856565
0.423032 0.010778 0.850765
0.552720 0.040816 0.841976
0.668616 0.085423 0.829999
0.768885 0.144914 0.815400
0.857015 0.219930 0.799171
0.198567 0.164331 0.855545
0.208571 0.164798 0.855190
0.256885 0.167257 0.853286
0.327899 0.171531 0.849974
0.426798 0.178920 0.844563
0.552964 0.191541 0.836445
0.667426 0.212543 0.825418
0.767516 0.246041 0.811852
0.855864 0.296792 0.796505
0.221544 0.332806 0.839548
0.230282 0.332950 0.839307
0.273178 0.333708 0.838016
0.337981 0.335053 0.835744
0.430810 0.337528 0.831914
0.552195 0.342276 0.825863
0.665063 0.351547 0.817100
0.765138 0.369225 0.805597
0.853913 0.401028 0.791847
0.257588 0.505445 0.819805
0.264840 0.505477 0.819655
0.301127 0.505642 0.818853
0.357777 0.505940 0.817432
0.441834 0.506537 0.814974
0.554610 0.507898 0.810905
0.663131 0.511196 0.804601
0.762089 0.518924 0.795654
0.851019 0.535163 0.784121
0.311610 0.651141 0.797415
0.317343 0.651136 0.797323
0.346580 0.651109 0.796831
0.393814 0.651063 0.795958
0.466685 0.651006 0.794428
0.565277 0.651011 0.791817
0.664597 0.651385 0.787558
0.759704 0.653037 0.781073
0.847537 0.658012 0.772017
0.388225 0.761559 0.771658
0.392576 0.761549 0.771600
0.415125 0.761495 0.771291
0.452690 0.761401 0.770741
0.512611 0.761244 0.769772
0.589289 0.761006 0.768090
0.673735 0.760735 0.765256
0.760709 0.760709 0.760709
0.844821 0.761796 0.753894
0.492501 0.852578 0.739627
0.495699 0.852568 0.739588
0.512196 0.852516 0.739380
0.538334 0.852425 0.739010
0.577003 0.852268 0.738356
0.629662 0.852010 0.737210
0.695043 0.851619 0.735243
0.768996 0.851142 0.731972
0.845491 0.850885 0.726792
0.244650 0.000000 0.945273
0.252910 0.000000 0.945041
0.293784 0.000000 0.943804
0.356339 0.000000 0.941632
0.447092 0.000000 0.937979
0.564224 0.000000 0.932227
0.673003 0.000000 0.923952
0.771087 0.000000 0.913245
0.858747 0.070239 0.900580
0.246233 0.000000 0.945200
0.254451 0.000000 0.944969
0.295141 0.000000 0.943731
0.357476 0.000000 0.941561
0.447995 0.000000 0.937911
0.564768 0.000000 0.932164
0.673277 0.000000 0.923896
0.771226 0.000000 0.913195
0.858702 0.086591 0.900422
0.254570 0.000000 0.944812
0.262574 0.000000 0.944580
0.302317 0.000000 0.943343
0.363502 0.000000 0.941179
0.452793 0.000000 0.937545
0.567649 0.000000 0.931825
0.674739 0.000000 0.923593
0.771803 0.051121 0.912771
0.858299 0.158022 0.899422
0.268566 0.060706 0.943608
0.276201 0.061552 0.943365
0.314283 0.066011 0.942071
0.373347 0.073699 0.939818
0.460171 0.086617 0.936039
0.571297 0.107506 0.930093
0.675621 0.139564 0.921523
0.771140 0.185933 0.910402
0.857352 0.249628 0.897411
0.285733 0.276752 0.933457
0.292699 0.277000 0.933262
0.327733 0.278322 0.932227
0.382870 0.280665 0.930421
0.465280 0.284819 0.927372
0.571985 0.292198 0.922487
0.674256 0.305245 0.915254
0.769267 0.327847 0.905540
0.855618 0.365482 0.893784
0.312842 0.469244 0.918220
0.318915 0.469317 0.918091
0.349788 0.469711 0.917406
0.399356 0.470422 0.916199
0.475203 0.471743 0.914120
0.574516 0.474303 0.910673
0.672922 0.479466 0.905303
0.766657 0.490013 0.897635
0.852957 0.510667 0.887757
0.356585 0.636129 0.900259
0.361625 0.636135 0.900179
0.387556 0.636167 0.899750
0.430145 0.636230 0.898993
0.497158 0.636368 0.897670
0.583719 0.636711 0.895418
0.674401 0.637640 0.891753
0.764546 0.640138 0.886196
0.849687 0.646315 0.878519
0.423059 0.754474 0.880240
0.427045 0.754467 0.880191
0.447791 0.754431 0.879926
0.482636 0.754370 0.879457
0.536606 0.754271 0.878631
0.604707 0.754137 0.877203
0.682769 0.754041 0.874810
0.765516 0.754293 0.871006
0.847092 0.755787 0.865409
0.517775 0.849012 0.857768
0.520596 0.849003 0.857736
0.534970 0.848958 0.857568
0.558020 0.848879 0.857269
0.592769 0.848743 0.856743
0.641146 0.848522 0.855824
0.702557 0.848194 0.854259
0.773374 0.847821 0.851689
0.847719 0.847719 0.847719
