luts/Rec2100_HLG/DJI_Osmo_DLogM_to_Rec2100_HLG_BT2408_DeepBlacks_Punchy.cube
TITLE "OpenOSV D-Log M to Rec.2100 HLG, BT.2408 Deep Blacks + Punchy - DJI Osmo 360 / Pocket 3"
LUT_3D_SIZE 65
DOMAIN_MIN 0.000000 0.000000 0.000000
DOMAIN_MAX 1.000000 1.000000 1.000000
0.000000 0.000000 0.000000
0.004901 0.000163 0.000000
0.009865 0.000331 0.000000
0.015028 0.000509 0.000000
0.020420 0.000698 0.000000
0.026056 0.000900 0.000000
0.031947 0.001117 0.000000
0.038103 0.001348 0.000000
0.044530 0.001597 0.000000
0.063922 0.002390 0.000000
0.083138 0.003247 0.000000
0.102087 0.004170 0.000000
0.120812 0.005162 0.000000
0.139359 0.006230 0.000000
0.157771 0.007380 0.000000
0.176092 0.008616 0.000000
0.194368 0.009945 0.000000
0.212641 0.011372 0.000000
0.230952 0.012905 0.000000
0.249342 0.014548 0.000000
0.267851 0.016308 0.000000
0.286516 0.018192 0.000000
0.305375 0.020208 0.000000
0.324462 0.022360 0.000000
0.343813 0.024657 0.000000
0.363463 0.027105 0.000000
0.383443 0.029711 0.000000
0.403789 0.032482 0.000000
0.424531 0.035425 0.000000
0.445703 0.038546 0.000000
0.467336 0.041853 0.000000
0.489462 0.045351 0.000000
0.511858 0.049046 0.000000
0.533274 0.052944 0.000000
0.553688 0.057050 0.000000
0.573248 0.061370 0.000000
0.592071 0.065908 0.000000
0.610256 0.070668 0.000000
0.627881 0.075655 0.000000
0.645015 0.080871 0.000000
0.661715 0.086321 0.000000
0.678029 0.092007 0.000000
0.693998 0.097931 0.000000
0.709660 0.104097 0.000000
0.725044 0.110505 0.000000
0.740179 0.117159 0.000000
0.755089 0.124061 0.000000
0.769795 0.131213 0.000000
0.784316 0.138616 0.000000
0.798668 0.146274 0.000000
0.812866 0.154190 0.000000
0.826923 0.162366 0.000000
0.840852 0.170807 0.000000
0.854663 0.179516 0.000000
0.868365 0.188497 0.000000
0.881968 0.197758 0.000000
0.895478 0.207302 0.000000
0.908902 0.217136 0.000000
0.922247 0.227269 0.000000
0.935519 0.237707 0.000000
0.948722 0.248460 0.000000
0.961861 0.259537 0.000000
0.974940 0.270948 0.000000
0.987962 0.282704 0.000000
1.000000 0.294816 0.000000
0.000633 0.005512 0.000000
0.005151 0.005609 0.000000
0.010225 0.005588 0.000000
0.015486 0.005571 0.000000
0.020935 0.005597 0.000000
0.026601 0.005666 0.000000
0.032507 0.005774 0.000000
0.038666 0.005916 0.000000
0.045089 0.006089 0.000000
0.064451 0.006723 0.000000
0.083626 0.007480 0.000000
0.102533 0.008332 0.000000
0.121218 0.009272 0.000000
0.139727 0.010297 0.000000
0.158104 0.011411 0.000000
0.176393 0.012615 0.000000
0.194639 0.013914 0.000000
0.212884 0.015313 0.000000
0.231171 0.016816 0.000000
0.249538 0.018430 0.000000
0.268025 0.020160 0.000000
0.286670 0.022013 0.000000
0.305510 0.023994 0.000000
0.324581 0.026111 0.000000
0.343916 0.028369 0.000000
0.363551 0.030776 0.000000
0.383518 0.033338 0.000000
0.403851 0.036063 0.000000
0.424581 0.038957 0.000000
0.445742 0.042025 0.000000
0.467364 0.045276 0.000000
0.489481 0.048716 0.000000
0.511869 0.052349 0.000000
0.533276 0.056183 0.000000
0.553685 0.060222 0.000000
0.573239 0.064473 0.000000
0.592059 0.068939 0.000000
0.610240 0.073625 0.000000
0.627863 0.078537 0.000000
0.644996 0.083676 0.000000
0.661694 0.089047 0.000000
0.678007 0.094654 0.000000
0.693977 0.100498 0.000000
0.709638 0.106583 0.000000
0.725023 0.112911 0.000000
0.740158 0.119485 0.000000
0.755069 0.126307 0.000000
0.769775 0.133379 0.000000
0.784296 0.140705 0.000000
0.798649 0.148287 0.000000
0.812848 0.156127 0.000000
0.826906 0.164230 0.000000
0.840836 0.172599 0.000000
0.854648 0.181238 0.000000
0.868351 0.190152 0.000000
0.881954 0.199347 0.000000
0.895465 0.208828 0.000000
0.908890 0.218601 0.000000
0.922236 0.228675 0.000000
0.935508 0.239057 0.000000
0.948712 0.249755 0.000000
0.961851 0.260780 0.000000
0.974931 0.272140 0.000000
0.987954 0.283848 0.000000
1.000000 0.295914 0.000000
0.001283 0.011078 0.000000
0.005484 0.011219 0.000000
0.010357 0.011269 0.000000
0.015604 0.011257 0.000000
0.021110 0.011226 0.000000
0.026845 0.011206 0.000000
0.032809 0.011214 0.000000
0.039012 0.011255 0.000000
0.045467 0.011332 0.000000
0.064867 0.011732 0.000000
0.084037 0.012320 0.000000
0.102923 0.013046 0.000000
0.121581 0.013888 0.000000
0.140061 0.014833 0.000000
0.158408 0.015879 0.000000
0.176670 0.017024 0.000000
0.194890 0.018270 0.000000
0.213110 0.019619 0.000000
0.231373 0.021076 0.000000
0.249718 0.022645 0.000000
0.268186 0.024330 0.000000
0.286812 0.026138 0.000000
0.305635 0.028074 0.000000
0.324689 0.030144 0.000000
0.344009 0.032355 0.000000
0.363629 0.034712 0.000000
0.383583 0.037222 0.000000
0.403904 0.039893 0.000000
0.424623 0.042729 0.000000
0.445772 0.045739 0.000000
0.467385 0.048928 0.000000
0.489493 0.052302 0.000000
0.511872 0.055869 0.000000
0.533273 0.059633 0.000000
0.553675 0.063600 0.000000
0.573225 0.067776 0.000000
0.592042 0.072165 0.000000
0.610220 0.076773 0.000000
0.627842 0.081603 0.000000
0.644973 0.086661 0.000000
0.661671 0.091949 0.000000
0.677983 0.097471 0.000000
0.693952 0.103231 0.000000
0.709613 0.109231 0.000000
0.724998 0.115474 0.000000
0.740135 0.121963 0.000000
0.755046 0.128701 0.000000
0.769753 0.135690 0.000000
0.784275 0.142934 0.000000
0.798628 0.150434 0.000000
0.812828 0.158196 0.000000
0.826888 0.166221 0.000000
0.840818 0.174514 0.000000
0.854631 0.183079 0.000000
0.868335 0.191922 0.000000
0.881939 0.201047 0.000000
0.895451 0.210461 0.000000
0.908877 0.220169 0.000000
0.922224 0.230180 0.000000
0.935497 0.240502 0.000000
0.948701 0.251142 0.000000
0.961841 0.262111 0.000000
0.974921 0.273418 0.000000
0.987945 0.285074 0.000000
1.000000 0.297091 0.000000
0.001970 0.016844 0.000000
0.005993 0.016997 0.000000
0.010649 0.017091 0.000000
0.015755 0.017127 0.000000
0.021205 0.017120 0.000000
0.026941 0.017093 0.000000
0.032936 0.017065 0.000000
0.039180 0.017050 0.000000
0.045674 0.017059 0.000000
0.065153 0.017251 0.000000
0.084353 0.017661 0.000000
0.103241 0.018240 0.000000
0.121887 0.018961 0.000000
0.140348 0.019804 0.000000
0.158675 0.020761 0.000000
0.176914 0.021829 0.000000
0.195112 0.023004 0.000000
0.213311 0.024289 0.000000
0.231553 0.025684 0.000000
0.249879 0.027195 0.000000
0.268328 0.028824 0.000000
0.286937 0.030575 0.000000
0.305744 0.032456 0.000000
0.324782 0.034469 0.000000
0.344088 0.036623 0.000000
0.363696 0.038922 0.000000
0.383637 0.041372 0.000000
0.403946 0.043981 0.000000
0.424654 0.046753 0.000000
0.445793 0.049697 0.000000
0.467397 0.052818 0.000000
0.489496 0.056121 0.000000
0.511867 0.059615 0.000000
0.533261 0.063303 0.000000
0.553659 0.067192 0.000000
0.573206 0.071288 0.000000
0.592019 0.075596 0.000000
0.610196 0.080120 0.000000
0.627816 0.084865 0.000000
0.644946 0.089835 0.000000
0.661643 0.095036 0.000000
0.677955 0.100469 0.000000
0.693924 0.106139 0.000000
0.709586 0.112050 0.000000
0.724972 0.118203 0.000000
0.740108 0.124603 0.000000
0.755020 0.131252 0.000000
0.769728 0.138153 0.000000
0.784251 0.145310 0.000000
0.798606 0.152725 0.000000
0.812807 0.160403 0.000000
0.826867 0.168346 0.000000
0.840799 0.176559 0.000000
0.854613 0.185046 0.000000
0.868318 0.193813 0.000000
0.881923 0.202864 0.000000
0.895435 0.212207 0.000000
0.908863 0.221846 0.000000
0.922210 0.231791 0.000000
0.935484 0.242048 0.000000
0.948689 0.252627 0.000000
0.961830 0.263536 0.000000
0.974911 0.274786 0.000000
0.987935 0.286388 0.000000
1.000000 0.298352 0.000000
0.002701 0.022840 0.000000
0.006606 0.022995 0.000000
0.011091 0.023111 0.000000
0.016038 0.023182 0.000000
0.021373 0.023211 0.000000
0.027043 0.023209 0.000000
0.033013 0.023186 0.000000
0.039259 0.023158 0.000000
0.045772 0.023137 0.000000
0.065323 0.023185 0.000000
0.084569 0.023434 0.000000
0.103477 0.023867 0.000000
0.122127 0.024458 0.000000
0.140581 0.025188 0.000000
0.158895 0.026044 0.000000
0.177119 0.027020 0.000000
0.195299 0.028112 0.000000
0.213481 0.029320 0.000000
0.231706 0.030642 0.000000
0.250016 0.032083 0.000000
0.268448 0.033645 0.000000
0.287042 0.035330 0.000000
0.305834 0.037145 0.000000
0.324859 0.039094 0.000000
0.344152 0.041182 0.000000
0.363746 0.043414 0.000000
0.383676 0.045797 0.000000
0.403974 0.048336 0.000000
0.424672 0.051038 0.000000
0.445802 0.053909 0.000000
0.467397 0.056955 0.000000
0.489488 0.060182 0.000000
0.511852 0.063596 0.000000
0.533242 0.067204 0.000000
0.553635 0.071010 0.000000
0.573179 0.075020 0.000000
0.591990 0.079241 0.000000
0.610165 0.083676 0.000000
0.627784 0.088330 0.000000
0.644914 0.093209 0.000000
0.661611 0.098316 0.000000
0.677924 0.103656 0.000000
0.693893 0.109232 0.000000
0.709556 0.115048 0.000000
0.724942 0.121107 0.000000
0.740080 0.127413 0.000000
0.754993 0.133968 0.000000
0.769702 0.140777 0.000000
0.784226 0.147842 0.000000
0.798582 0.155168 0.000000
0.812784 0.162757 0.000000
0.826845 0.170613 0.000000
0.840778 0.178742 0.000000
0.854593 0.187146 0.000000
0.868299 0.195833 0.000000
0.881906 0.204807 0.000000
0.895419 0.214073 0.000000
0.908847 0.223640 0.000000
0.922196 0.233514 0.000000
0.935471 0.243704 0.000000
0.948677 0.254217 0.000000
0.961819 0.265063 0.000000
0.974900 0.276252 0.000000
0.987925 0.287796 0.000000
1.000000 0.299704 0.000000
0.003479 0.029080 0.000000
0.007299 0.029234 0.000000
0.011649 0.029361 0.000000
0.016452 0.029454 0.000000
0.021658 0.029512 0.000000
0.027227 0.029537 0.000000
0.033126 0.029536 0.000000
0.039333 0.029518 0.000000
0.045830 0.029493 0.000000
0.065405 0.029464 0.000000
0.084695 0.029589 0.000000
0.103632 0.029889 0.000000
0.122295 0.030353 0.000000
0.140752 0.030965 0.000000
0.159062 0.031714 0.000000
0.177277 0.032590 0.000000
0.195446 0.033590 0.000000
0.213615 0.034710 0.000000
0.231827 0.035951 0.000000
0.250122 0.037313 0.000000
0.268542 0.038798 0.000000
0.287122 0.040409 0.000000
0.305901 0.042150 0.000000
0.324914 0.044025 0.000000
0.344196 0.046039 0.000000
0.363779 0.048198 0.000000
0.383699 0.050506 0.000000
0.403987 0.052969 0.000000
0.424676 0.055594 0.000000
0.445798 0.058385 0.000000
0.467384 0.061350 0.000000
0.489468 0.064494 0.000000
0.511826 0.067824 0.000000
0.533212 0.071344 0.000000
0.553603 0.075062 0.000000
0.573145 0.078981 0.000000
0.591955 0.083109 0.000000
0.610129 0.087450 0.000000
0.627748 0.092009 0.000000
0.644877 0.096791 0.000000
0.661575 0.101801 0.000000
0.677888 0.107042 0.000000
0.693858 0.112519 0.000000
0.709522 0.118235 0.000000
0.724909 0.124195 0.000000
0.740048 0.130402 0.000000
0.754962 0.136859 0.000000
0.769673 0.143571 0.000000
0.784198 0.150540 0.000000
0.798555 0.157770 0.000000
0.812759 0.165266 0.000000
0.826822 0.173031 0.000000
0.840756 0.181071 0.000000
0.854572 0.189388 0.000000
0.868280 0.197990 0.000000
0.881887 0.206881 0.000000
0.895402 0.216068 0.000000
0.908831 0.225558 0.000000
0.922180 0.235357 0.000000
0.935456 0.245474 0.000000
0.948663 0.255918 0.000000
0.961806 0.266697 0.000000
0.974888 0.277822 0.000000
0.987914 0.289303 0.000000
1.000000 0.301153 0.000000
0.004310 0.035572 0.000000
0.008064 0.035723 0.000000
0.012304 0.035855 0.000000
0.016982 0.035961 0.000000
0.022061 0.036039 0.000000
0.027517 0.036088 0.000000
0.033323 0.036111 0.000000
0.039460 0.036112 0.000000
0.045908 0.036097 0.000000
0.065440 0.036044 0.000000
0.084748 0.036084 0.000000
0.103711 0.036274 0.000000
0.122393 0.036621 0.000000
0.140859 0.037119 0.000000
0.159171 0.037758 0.000000
0.177384 0.038531 0.000000
0.195547 0.039432 0.000000
0.213708 0.040459 0.000000
0.231910 0.041610 0.000000
0.250195 0.042885 0.000000
0.268604 0.044286 0.000000
0.287174 0.045815 0.000000
0.305943 0.047475 0.000000
0.324946 0.049269 0.000000
0.344217 0.051203 0.000000
0.363792 0.053280 0.000000
0.383702 0.055506 0.000000
0.403982 0.057887 0.000000
0.424663 0.060428 0.000000
0.445777 0.063134 0.000000
0.467357 0.066012 0.000000
0.489433 0.069068 0.000000
0.511787 0.072306 0.000000
0.533171 0.075734 0.000000
0.553561 0.079358 0.000000
0.573102 0.083181 0.000000
0.591911 0.087212 0.000000
0.610086 0.091453 0.000000
0.627705 0.095912 0.000000
0.644835 0.100592 0.000000
0.661533 0.105498 0.000000
0.677847 0.110636 0.000000
0.693819 0.116009 0.000000
0.709484 0.121621 0.000000
0.724873 0.127477 0.000000
0.740013 0.133580 0.000000
0.754929 0.139934 0.000000
0.769641 0.146543 0.000000
0.784168 0.153411 0.000000
0.798526 0.160542 0.000000
0.812731 0.167940 0.000000
0.826796 0.175609 0.000000
0.840732 0.183554 0.000000
0.854549 0.191780 0.000000
0.868258 0.200293 0.000000
0.881866 0.209097 0.000000
0.895383 0.218200 0.000000
0.908813 0.227607 0.000000
0.922164 0.237328 0.000000
0.935441 0.247368 0.000000
0.948649 0.257738 0.000000
0.961792 0.268446 0.000000
0.974876 0.279503 0.000000
0.987902 0.290918 0.000000
1.000000 0.302704 0.000000
0.005199 0.042323 0.000000
0.008897 0.042470 0.000000
0.013046 0.042602 0.000000
0.017614 0.042716 0.000000
0.022577 0.042807 0.000000
0.027919 0.042875 0.000000
0.033622 0.042917 0.000000
0.039669 0.042938 0.000000
0.046047 0.042940 0.000000
0.065468 0.042895 0.000000
0.084757 0.042887 0.000000
0.103729 0.042993 0.000000
0.122425 0.043240 0.000000
0.140903 0.043631 0.000000
0.159222 0.044164 0.000000
0.177436 0.044833 0.000000
0.195598 0.045633 0.000000
0.213755 0.046562 0.000000
0.231952 0.047619 0.000000
0.250230 0.048802 0.000000
0.268632 0.050112 0.000000
0.287194 0.051552 0.000000
0.305955 0.053124 0.000000
0.324949 0.054832 0.000000
0.344213 0.056678 0.000000
0.363780 0.058668 0.000000
0.383683 0.060807 0.000000
0.403956 0.063099 0.000000
0.424630 0.065550 0.000000
0.445738 0.068165 0.000000
0.467312 0.070950 0.000000
0.489383 0.073911 0.000000
0.511734 0.077053 0.000000
0.533117 0.080384 0.000000
0.553507 0.083907 0.000000
0.573048 0.087630 0.000000
0.591859 0.091557 0.000000
0.610034 0.095695 0.000000
0.627654 0.100047 0.000000
0.644786 0.104621 0.000000
0.661486 0.109419 0.000000
0.677802 0.114448 0.000000
0.693775 0.119712 0.000000
0.709441 0.125215 0.000000
0.724832 0.130962 0.000000
0.739974 0.136956 0.000000
0.754892 0.143202 0.000000
0.769606 0.149704 0.000000
0.784134 0.156466 0.000000
0.798495 0.163492 0.000000
0.812701 0.170787 0.000000
0.826768 0.178356 0.000000
0.840705 0.186202 0.000000
0.854524 0.194331 0.000000
0.868235 0.202750 0.000000
0.881845 0.211462 0.000000
0.895362 0.220476 0.000000
0.908794 0.229797 0.000000
0.922146 0.239433 0.000000
0.935424 0.249393 0.000000
0.948633 0.259685 0.000000
0.961778 0.270318 0.000000
0.974862 0.281302 0.000000
0.987889 0.292647 0.000000
1.000000 0.304366 0.000000
0.006149 0.049334 0.000000
0.009800 0.049476 0.000000
0.013871 0.049608 0.000000
0.018342 0.049725 0.000000
0.023199 0.049825 0.000000
0.028431 0.049905 0.000000
0.034027 0.049964 0.000000
0.039977 0.050002 0.000000
0.046268 0.050020 0.000000
0.065524 0.050002 0.000000
0.084748 0.049974 0.000000
0.103706 0.050021 0.000000
0.122405 0.050187 0.000000
0.140890 0.050484 0.000000
0.159216 0.050918 0.000000
0.177434 0.051486 0.000000
0.195598 0.052186 0.000000
0.213754 0.053016 0.000000
0.231949 0.053975 0.000000
0.250224 0.055062 0.000000
0.268621 0.056278 0.000000
0.287178 0.057624 0.000000
0.305933 0.059103 0.000000
0.324923 0.060718 0.000000
0.344181 0.062471 0.000000
0.363742 0.064369 0.000000
0.383640 0.066413 0.000000
0.403907 0.068611 0.000000
0.424576 0.070966 0.000000
0.445678 0.073484 0.000000
0.467248 0.076171 0.000000
0.489314 0.079033 0.000000
0.511665 0.082074 0.000000
0.533049 0.085301 0.000000
0.553441 0.088720 0.000000
0.572984 0.092336 0.000000
0.591797 0.096156 0.000000
0.609974 0.100184 0.000000
0.627596 0.104426 0.000000
0.644730 0.108887 0.000000
0.661432 0.113573 0.000000
0.677750 0.118489 0.000000
0.693726 0.123638 0.000000
0.709394 0.129027 0.000000
0.724787 0.134660 0.000000
0.739931 0.140540 0.000000
0.754851 0.146673 0.000000
0.769567 0.153063 0.000000
0.784098 0.159714 0.000000
0.798460 0.166631 0.000000
0.812669 0.173818 0.000000
0.826737 0.181280 0.000000
0.840676 0.189023 0.000000
0.854497 0.197051 0.000000
0.868209 0.205370 0.000000
0.881821 0.213985 0.000000
0.895340 0.222905 0.000000
0.908773 0.232135 0.000000
0.922126 0.241683 0.000000
0.935406 0.251557 0.000000
0.948616 0.261766 0.000000
0.961762 0.272319 0.000000
0.974847 0.283226 0.000000
0.987876 0.294497 0.000000
1.000000 0.306144 0.000000
0.009165 0.070283 0.000000
0.012707 0.070410 0.000000
0.016604 0.070532 0.000000
0.020855 0.070648 0.000000
0.025459 0.070756 0.000000
0.030418 0.070852 0.000000
0.035732 0.070935 0.000000
0.041400 0.071004 0.000000
0.047419 0.071059 0.000000
0.066029 0.071132 0.000000
0.084861 0.071128 0.000000
0.103608 0.071116 0.000000
0.122205 0.071150 0.000000
0.140646 0.071263 0.000000
0.158957 0.071476 0.000000
0.177173 0.071801 0.000000
0.195340 0.072245 0.000000
0.213500 0.072810 0.000000
0.231697 0.073498 0.000000
0.249974 0.074313 0.000000
0.268370 0.075254 0.000000
0.286926 0.076325 0.000000
0.305678 0.077527 0.000000
0.324663 0.078864 0.000000
0.343916 0.080338 0.000000
0.363472 0.081953 0.000000
0.383364 0.083713 0.000000
0.403625 0.085623 0.000000
0.424288 0.087688 0.000000
0.445386 0.089911 0.000000
0.466949 0.092299 0.000000
0.489011 0.094857 0.000000
0.511368 0.097590 0.000000
0.532771 0.100505 0.000000
0.553178 0.103606 0.000000
0.572736 0.106901 0.000000
0.591562 0.110394 0.000000
0.609751 0.114092 0.000000
0.627385 0.118000 0.000000
0.644530 0.122125 0.000000
0.661243 0.126471 0.000000
0.677571 0.131045 0.000000
0.693556 0.135851 0.000000
0.709233 0.140896 0.000000
0.724635 0.146185 0.000000
0.739788 0.151722 0.000000
0.754716 0.157513 0.000000
0.769439 0.163564 0.000000
0.783978 0.169879 0.000000
0.798347 0.176463 0.000000
0.812563 0.183322 0.000000
0.826637 0.190462 0.000000
0.840583 0.197887 0.000000
0.854409 0.205605 0.000000
0.868127 0.213620 0.000000
0.881744 0.221939 0.000000
0.895268 0.230570 0.000000
0.908706 0.239519 0.000000
0.922064 0.248794 0.000000
0.935347 0.258404 0.000000
0.948562 0.268356 0.000000
0.961711 0.278661 0.000000
0.974800 0.289328 0.000000
0.987831 0.300368 0.000000
1.000000 0.311792 0.000000
0.012390 0.090759 0.000000
0.015848 0.090871 0.000000
0.019620 0.090982 0.000000
0.023712 0.091089 0.000000
0.028129 0.091192 0.000000
0.032879 0.091289 0.000000
0.037966 0.091378 0.000000
0.043395 0.091458 0.000000
0.049169 0.091527 0.000000
0.067102 0.091659 0.000000
0.085403 0.091704 0.000000
0.103769 0.091706 0.000000
0.122107 0.091707 0.000000
0.140381 0.091741 0.000000
0.158585 0.091836 0.000000
0.176738 0.092009 0.000000
0.194868 0.092274 0.000000
0.213008 0.092640 0.000000
0.231197 0.093114 0.000000
0.249472 0.093701 0.000000
0.267870 0.094406 0.000000
0.286430 0.095232 0.000000
0.305188 0.096183 0.000000
0.324179 0.097263 0.000000
0.343439 0.098475 0.000000
0.363001 0.099823 0.000000
0.382899 0.101311 0.000000
0.403166 0.102944 0.000000
0.423834 0.104727 0.000000
0.444937 0.106664 0.000000
0.466505 0.108761 0.000000
0.488572 0.111023 0.000000
0.510951 0.113456 0.000000
0.532388 0.116066 0.000000
0.552825 0.118857 0.000000
0.572409 0.121838 0.000000
0.591258 0.125012 0.000000
0.609469 0.128387 0.000000
0.627123 0.131969 0.000000
0.644285 0.135764 0.000000
0.661013 0.139778 0.000000
0.677356 0.144017 0.000000
0.693355 0.148487 0.000000
0.709045 0.153193 0.000000
0.724459 0.158144 0.000000
0.739623 0.163343 0.000000
0.754561 0.168796 0.000000
0.769295 0.174511 0.000000
0.783842 0.180492 0.000000
0.798220 0.186746 0.000000
0.812444 0.193278 0.000000
0.826526 0.200095 0.000000
0.840479 0.207203 0.000000
0.854312 0.214607 0.000000
0.868037 0.222316 0.000000
0.881659 0.230335 0.000000
0.895189 0.238673 0.000000
0.908632 0.247335 0.000000
0.921995 0.256332 0.000000
0.935283 0.265670 0.000000
0.948502 0.275359 0.000000
0.961656 0.285408 0.000000
0.974748 0.295828 0.000000
0.987783 0.306628 0.000000
1.000000 0.317820 0.000000
0.015816 0.110713 0.000000
0.019200 0.110812 0.000000
0.022870 0.110911 0.000000
0.026834 0.111008 0.000000
0.031102 0.111104 0.000000
0.035682 0.111195 0.000000
0.040582 0.111282 0.000000
0.045809 0.111362 0.000000
0.051369 0.111436 0.000000
0.068674 0.111595 0.000000
0.086420 0.111674 0.000000
0.104332 0.111701 0.000000
0.122317 0.111705 0.000000
0.140323 0.111714 0.000000
0.158333 0.111751 0.000000
0.176347 0.111838 0.000000
0.194380 0.111989 0.000000
0.212454 0.112218 0.000000
0.230600 0.112535 0.000000
0.248849 0.112947 0.000000
0.267233 0.113461 0.000000
0.285787 0.114085 0.000000
0.304545 0.114822 0.000000
0.323540 0.115677 0.000000
0.342806 0.116657 0.000000
0.362377 0.117764 0.000000
0.382285 0.119005 0.000000
0.402563 0.120383 0.000000
0.423243 0.121905 0.000000
0.444357 0.123575 0.000000
0.465937 0.125399 0.000000
0.488015 0.127382 0.000000
0.510426 0.129531 0.000000
0.531911 0.131850 0.000000
0.552390 0.134347 0.000000
0.572011 0.137027 0.000000
0.590892 0.139897 0.000000
0.609132 0.142962 0.000000
0.626811 0.146231 0.000000
0.643996 0.149708 0.000000
0.660745 0.153401 0.000000
0.677107 0.157316 0.000000
0.693124 0.161460 0.000000
0.708830 0.165839 0.000000
0.724259 0.170460 0.000000
0.739436 0.175329 0.000000
0.754387 0.180454 0.000000
0.769133 0.185839 0.000000
0.783691 0.191493 0.000000
0.798080 0.197421 0.000000
0.812313 0.203630 0.000000
0.826404 0.210127 0.000000
0.840365 0.216919 0.000000
0.854206 0.224012 0.000000
0.867938 0.231414 0.000000
0.881567 0.239132 0.000000
0.895103 0.247174 0.000000
0.908552 0.255548 0.000000
0.921921 0.264262 0.000000
0.935214 0.273325 0.000000
0.948438 0.282745 0.000000
0.961595 0.292533 0.000000
0.974692 0.302699 0.000000
0.987731 0.313252 0.000000
1.000000 0.324206 0.000000
0.019452 0.130238 0.000000
0.022767 0.130325 0.000000
0.026346 0.130413 0.000000
0.030200 0.130500 0.000000
0.034338 0.130586 0.000000
0.038772 0.130670 0.000000
0.043510 0.130751 0.000000
0.048562 0.130828 0.000000
0.053934 0.130900 0.000000
0.070666 0.131067 0.000000
0.087873 0.131166 0.000000
0.105311 0.131212 0.000000
0.122894 0.131228 0.000000
0.140573 0.131232 0.000000
0.158322 0.131245 0.000000
0.176132 0.131285 0.000000
0.194009 0.131367 0.000000
0.211967 0.131505 0.000000
0.230027 0.131710 0.000000
0.248214 0.131993 0.000000
0.266556 0.132360 0.000000
0.285082 0.132822 0.000000
0.303824 0.133383 0.000000
0.322811 0.134050 0.000000
0.342076 0.134830 0.000000
0.361650 0.135728 0.000000
0.381565 0.136750 0.000000
0.401853 0.137900 0.000000
0.422544 0.139186 0.000000
0.443671 0.140612 0.000000
0.465265 0.142185 0.000000
0.487358 0.143910 0.000000
0.509807 0.145793 0.000000
0.531350 0.147841 0.000000
0.551881 0.150060 0.000000
0.571546 0.152457 0.000000
0.590467 0.155038 0.000000
0.608742 0.157810 0.000000
0.626452 0.160779 0.000000
0.643665 0.163953 0.000000
0.660440 0.167339 0.000000
0.676825 0.170943 0.000000
0.692863 0.174773 0.000000
0.708588 0.178836 0.000000
0.724034 0.183138 0.000000
0.739228 0.187688 0.000000
0.754194 0.192491 0.000000
0.768953 0.197555 0.000000
0.783524 0.202888 0.000000
0.797925 0.208496 0.000000
0.812169 0.214387 0.000000
0.826270 0.220568 0.000000
0.840240 0.227046 0.000000
0.854090 0.233829 0.000000
0.867830 0.240926 0.000000
0.881467 0.248342 0.000000
0.895010 0.256088 0.000000
0.908465 0.264171 0.000000
0.921840 0.272599 0.000000
0.935139 0.281383 0.000000
0.948368 0.290530 0.000000
0.961531 0.300052 0.000000
0.974632 0.309958 0.000000
0.987675 0.320259 0.000000
1.000000 0.330966 0.000000
0.023307 0.149419 0.000000
0.026553 0.149495 0.000000
0.030047 0.149572 0.000000
0.033799 0.149650 0.000000
0.037822 0.149727 0.000000
0.042125 0.149803 0.000000
0.046718 0.149877 0.000000
0.051611 0.149949 0.000000
0.056812 0.150017 0.000000
0.073018 0.150181 0.000000
0.089713 0.150288 0.000000
0.106678 0.150347 0.000000
0.123843 0.150372 0.000000
0.141162 0.150379 0.000000
0.158606 0.150383 0.000000
0.176165 0.150399 0.000000
0.193838 0.150440 0.000000
0.211633 0.150519 0.000000
0.229565 0.150647 0.000000
0.247653 0.150836 0.000000
0.265920 0.151093 0.000000
0.284391 0.151428 0.000000
0.303092 0.151848 0.000000
0.322053 0.152362 0.000000
0.341302 0.152974 0.000000
0.360868 0.153693 0.000000
0.380781 0.154525 0.000000
0.401072 0.155476 0.000000
0.421771 0.156552 0.000000
0.442908 0.157759 0.000000
0.464514 0.159104 0.000000
0.486621 0.160593 0.000000
0.509109 0.162233 0.000000
0.530718 0.164030 0.000000
0.551306 0.165991 0.000000
0.571022 0.168123 0.000000
