luts/Rec2100_HLG/DJI_Osmo_DLogM_to_Rec2100_HLG_BT2408_Neutral.cube
TITLE "OpenOSV D-Log M to Rec.2100 HLG, BT.2408 Neutral - DJI Osmo 360 / Pocket 3"
LUT_3D_SIZE 9
DOMAIN_MIN 0.000000 0.000000 0.000000
DOMAIN_MAX 1.000000 1.000000 1.000000
0.000000 0.000000 0.000000
0.079182 0.018249 0.000000
0.199586 0.045998 0.000000
0.315924 0.072810 0.000000
0.454860 0.104830 0.000000
0.607901 0.145417 0.000000
0.735780 0.198198 0.000000
0.851708 0.267707 0.000000
0.961898 0.359852 0.000000
0.034434 0.087720 0.000000
0.086345 0.089598 0.000000
0.202535 0.099048 0.000000
0.317795 0.114000 0.000000
0.456161 0.136690 0.000000
0.608548 0.169826 0.000000
0.736097 0.216742 0.000000
0.851874 0.281712 0.000000
0.961988 0.370390 0.000000
0.086794 0.221106 0.000000
0.117486 0.221858 0.000000
0.217642 0.225840 0.000000
0.327629 0.232786 0.000000
0.463066 0.244699 0.000000
0.611975 0.264640 0.000000
0.737785 0.296935 0.000000
0.852759 0.347210 0.000000
0.962466 0.422353 0.000000
0.137385 0.349987 0.000000
0.158570 0.350463 0.000000
0.242301 0.352997 0.000000
0.344503 0.357481 0.000000
0.475155 0.365350 0.000000
0.617938 0.378995 0.000000
0.740760 0.402211 0.000000
0.854330 0.440634 0.000000
0.963319 0.501974 0.000000
0.197804 0.503877 0.000000
0.213064 0.504202 0.000000
0.281001 0.505935 0.000000
0.372739 0.508991 0.000000
0.496008 0.514319 0.000000
0.628115 0.523457 0.000000
0.745954 0.538696 0.000000
0.857100 0.563044 0.000000
0.964830 0.599670 0.000000
0.274388 0.651592 0.000000
0.285585 0.651734 0.000000
0.339299 0.652496 0.000000
0.418445 0.653849 0.000000
0.529596 0.656239 0.000000
0.644962 0.660429 0.000000
0.754868 0.667675 0.000000
0.861944 0.679927 0.000000
0.967498 0.699911 0.000000
0.373980 0.775896 0.000000
0.382271 0.775967 0.000000
0.423906 0.776348 0.000000
0.489560 0.777026 0.000000
0.577339 0.778230 0.000000
0.671586 0.780361 0.000000
0.769758 0.784103 0.000000
0.870279 0.790597 0.000000
0.972165 0.801636 0.000000
0.505090 0.890166 0.000000
0.511083 0.890204 0.000000
0.540137 0.890405 0.000000
0.582591 0.890763 0.000000
0.639844 0.891402 0.000000
0.711062 0.892537 0.000000
0.793606 0.894545 0.000000
0.884259 0.898076 0.000000
0.980208 0.904213 0.000000
0.639382 0.999515 0.000000
0.642235 0.999535 0.000000
0.656779 0.999645 0.000000
0.680142 0.999839 0.000000
0.715511 1.000000 0.000000
0.765218 1.000000 0.000000
0.829596 1.000000 0.000000
0.906792 1.000000 0.000000
0.993726 1.000000 0.000000
0.017641 0.000000 0.092592
0.081123 0.008481 0.092189
0.200365 0.043067 0.089997
0.316416 0.070994 0.085942
0.455201 0.103577 0.078179
0.608071 0.144517 0.061944
0.735864 0.197538 0.000000
0.851751 0.267219 0.000000
0.961922 0.359490 0.000000
0.038689 0.086218 0.088551
0.088129 0.088129 0.088129
0.203302 0.097721 0.085833
0.318284 0.112849 0.081571
0.456502 0.135731 0.073347
0.608718 0.169056 0.055722
0.736180 0.216139 0.000000
0.851917 0.281248 0.000000
0.962011 0.370037 0.000000
0.088569 0.220515 0.062625
0.118803 0.221269 0.062027
0.218356 0.225262 0.058720
0.328104 0.232225 0.052293
0.463402 0.244165 0.038216
0.612141 0.264146 0.000000
0.737867 0.296495 0.000000
0.852802 0.346834 0.000000
0.962490 0.422044 0.000000
0.138513 0.349614 0.000000
0.159549 0.350090 0.000000
0.242942 0.352627 0.000000
0.344955 0.357115 0.000000
0.475482 0.364992 0.000000
0.618099 0.378651 0.000000
0.740841 0.401886 0.000000
0.854372 0.440337 0.000000
0.963342 0.501716 0.000000
0.198590 0.503621 0.000000
0.213793 0.503947 0.000000
0.281554 0.505683 0.000000
0.373156 0.508742 0.000000
0.496321 0.514078 0.000000
0.628267 0.523228 0.000000
0.746033 0.538485 0.000000
0.857143 0.562860 0.000000
0.964854 0.599521 0.000000
0.274955 0.651480 0.000000
0.286129 0.651623 0.000000
0.339757 0.652385 0.000000
0.418817 0.653738 0.000000
0.529860 0.656130 0.000000
0.645100 0.660323 0.000000
0.754943 0.667573 0.000000
0.861985 0.679831 0.000000
0.967521 0.699825 0.000000
0.374396 0.775840 0.000000
0.382678 0.775911 0.000000
0.424273 0.776292 0.000000
0.489878 0.776970 0.000000
0.577541 0.778175 0.000000
0.671705 0.780306 0.000000
0.769827 0.784050 0.000000
0.870318 0.790545 0.000000
0.972188 0.801588 0.000000
0.505392 0.890137 0.000000
0.511375 0.890174 0.000000
0.540386 0.890375 0.000000
0.582787 0.890734 0.000000
0.639987 0.891373 0.000000
0.711157 0.892508 0.000000
0.793666 0.894516 0.000000
0.884296 0.898048 0.000000
0.980229 0.904185 0.000000
0.639524 0.999499 0.000000
0.642375 0.999519 0.000000
0.656908 0.999629 0.000000
0.680256 0.999823 0.000000
0.715604 1.000000 0.000000
0.765289 1.000000 0.000000
0.829645 1.000000 0.000000
0.906824 1.000000 0.000000
0.993746 1.000000 0.000000
0.044465 0.000000 0.233389
0.090813 0.000000 0.233229
0.204480 0.021379 0.232372
0.319037 0.060353 0.230831
0.457028 0.096595 0.228055
0.608979 0.139597 0.223012
0.736309 0.193968 0.213710
0.851984 0.264591 0.196006
0.962048 0.357540 0.159582
0.056239 0.077691 0.231815
0.097122 0.079806 0.231654
0.207359 0.090287 0.230791
0.320890 0.106476 0.229240
0.458323 0.130481 0.226444
0.609623 0.164870 0.221364
0.736625 0.212881 0.211990
0.852150 0.278752 0.194130
0.962137 0.368144 0.157271
0.097521 0.217323 0.223202
0.125619 0.218088 0.223035
0.222138 0.222138 0.222138
0.330633 0.229196 0.220526
0.465196 0.241285 0.217618
0.613029 0.261487 0.212327
0.738307 0.294129 0.202535
0.853034 0.344813 0.183758
0.962615 0.420384 0.144274
0.144402 0.347610 0.206920
0.164687 0.348088 0.206740
0.246347 0.350640 0.205772
0.347361 0.355153 0.204031
0.477231 0.363073 0.200885
0.618957 0.376800 0.195140
0.741274 0.400143 0.184439
0.854602 0.438747 0.163597
0.963467 0.500326 0.117524
0.202741 0.502246 0.174102
0.217655 0.502575 0.173887
0.284497 0.504323 0.172735
0.375382 0.507406 0.170657
0.497997 0.512782 0.166883
0.629079 0.521996 0.159922
0.746453 0.537355 0.146673
0.857369 0.561874 0.119413
0.964977 0.598718 0.036156
0.277968 0.650880 0.089345
0.289026 0.651023 0.088927
0.342200 0.651787 0.086653
0.420801 0.653145 0.082433
0.531264 0.655545 0.074305
0.645839 0.659751 0.056976
0.755343 0.667025 0.000000
0.862205 0.679319 0.000000
0.967643 0.699368 0.000000
0.376614 0.775541 0.000000
0.384848 0.775612 0.000000
0.426231 0.775994 0.000000
0.491575 0.776673 0.000000
0.578618 0.777880 0.000000
0.672342 0.780014 0.000000
0.770195 0.783764 0.000000
0.870528 0.790270 0.000000
0.972306 0.801329 0.000000
0.507002 0.889979 0.000000
0.512931 0.890017 0.000000
0.541710 0.890218 0.000000
0.583832 0.890577 0.000000
0.640747 0.891216 0.000000
0.711668 0.892352 0.000000
0.793989 0.894362 0.000000
0.884490 0.897897 0.000000
0.980343 0.904040 0.000000
0.640286 0.999413 0.000000
0.643125 0.999434 0.000000
0.657600 0.999543 0.000000
0.680863 0.999738 0.000000
0.716102 1.000000 0.000000
0.765666 1.000000 0.000000
0.829908 1.000000 0.000000
0.906995 1.000000 0.000000
0.993851 1.000000 0.000000
0.070383 0.000000 0.369429
0.105942 0.000000 0.369329
0.211633 0.000000 0.368788
0.323669 0.033840 0.367819
0.460273 0.082663 0.366083
0.610590 0.130346 0.362963
0.737101 0.187420 0.357323
0.852400 0.259828 0.347025
0.962272 0.354031 0.327832
0.078355 0.059486 0.368437
0.111397 0.062222 0.368336
0.214416 0.075196 0.367794
0.325495 0.094021 0.366822
0.461559 0.120532 0.365082
0.611228 0.157114 0.361953
0.737416 0.206932 0.356297
0.852565 0.274236 0.345968
0.962361 0.364736 0.326714
0.111745 0.211499 0.363079
0.136956 0.212285 0.362977
0.228740 0.216443 0.362426
0.335104 0.223681 0.361441
0.468385 0.236054 0.359674
0.614604 0.256667 0.356497
0.739091 0.289852 0.350754
0.853447 0.341173 0.340257
0.962839 0.417404 0.320660
0.154365 0.343999 0.353304
0.173489 0.344482 0.353198
0.252316 0.347060 0.352633
0.351620 0.351620 0.351620
0.480339 0.359617 0.349803
0.620481 0.373472 0.346536
0.742045 0.397011 0.340625
0.855011 0.435892 0.329806
0.963690 0.497824 0.309547
0.209953 0.499763 0.335140
0.224389 0.500096 0.335029
0.289681 0.501869 0.334433
0.379326 0.504994 0.333364
0.500975 0.510441 0.331448
0.630519 0.519774 0.327998
0.747202 0.535317 0.321746
0.857772 0.560098 0.310269
0.965198 0.597274 0.288643
0.283271 0.649802 0.299984
0.294130 0.649946 0.299859
0.346522 0.650716 0.299193
0.424323 0.652082 0.297998
0.533746 0.654495 0.295853
0.647151 0.658726 0.291983
0.756055 0.666040 0.284942
0.862597 0.678400 0.271916
0.967861 0.698547 0.246954
0.380546 0.775005 0.223874
0.388696 0.775077 0.223707
0.429709 0.775459 0.222813
0.494594 0.776141 0.221206
0.580525 0.777351 0.218307
0.673474 0.779492 0.213033
0.770851 0.783252 0.203275
0.870902 0.789776 0.184574
0.972519 0.800865 0.145311
0.509841 0.889697 0.000000
0.515679 0.889734 0.000000
0.544052 0.889936 0.000000
0.585685 0.890295 0.000000
0.642096 0.890936 0.000000
0.712577 0.892073 0.000000
0.794563 0.894087 0.000000
0.884836 0.897627 0.000000
0.980545 0.903778 0.000000
0.641639 0.999260 0.000000
0.644457 0.999281 0.000000
0.658829 0.999390 0.000000
0.681942 0.999585 0.000000
0.716989 0.999933 0.000000
0.766339 1.000000 0.000000
0.830378 1.000000 0.000000
0.907301 1.000000 0.000000
0.994039 1.000000 0.000000
0.101336 0.000000 0.530212
0.128604 0.000000 0.530149
0.223839 0.000000 0.529811
0.331778 0.000000 0.529206
0.466011 0.048722 0.528121
0.613431 0.111940 0.526166
0.738507 0.175120 0.522622
0.853139 0.251101 0.516113
0.962672 0.347676 0.503867
0.107027 0.000000 0.529592
0.133134 0.000000 0.529529
0.226472 0.034569 0.529190
0.333560 0.066185 0.528583
0.467281 0.100342 0.527494
0.614059 0.142216 0.525532
0.738819 0.195861 0.521976
0.853303 0.265982 0.515443
0.962762 0.358571 0.503149
0.133425 0.200680 0.526239
0.155152 0.201508 0.526175
0.240077 0.205884 0.525830
0.342943 0.213480 0.525211
0.474025 0.226411 0.524101
0.617382 0.247828 0.522102
0.740481 0.282055 0.518475
0.854182 0.334574 0.511811
0.963238 0.412027 0.499257
0.170716 0.337455 0.520087
0.188185 0.337948 0.520021
0.262638 0.340575 0.519663
0.359098 0.345220 0.519023
0.485841 0.353363 0.517874
0.623171 0.367453 0.515803
0.743413 0.391354 0.512046
0.855740 0.430747 0.505133
0.964087 0.493325 0.492194
0.222251 0.495281 0.508547
0.235935 0.495617 0.508476
0.298715 0.497413 0.508094
0.386269 0.500604 0.507411
0.506185 0.506185 0.506185
0.633063 0.515737 0.503974
0.748531 0.531618 0.499956
0.858489 0.556883 0.492648
0.965592 0.594667 0.479323
0.292503 0.647862 0.486236
0.303031 0.648008 0.486159
0.354108 0.648785 0.485749
0.430541 0.650166 0.485014
0.538094 0.652606 0.483698
0.649470 0.656881 0.481341
0.757321 0.664270 0.477103
0.863295 0.676748 0.469440
0.968249 0.697071 0.455435
0.387467 0.774045 0.443345
0.395474 0.774116 0.443261
0.435850 0.774501 0.442810
0.499938 0.775186 0.442004
0.583882 0.776403 0.440560
0.675478 0.778555 0.437971
0.772016 0.782335 0.433308
0.871569 0.788892 0.424856
0.972897 0.800034 0.409329
0.514803 0.889191 0.354062
0.520483 0.889229 0.353957
0.548159 0.889431 0.353392
0.588947 0.889792 0.352382
0.644482 0.890434 0.350569
0.714189 0.891575 0.347309
0.795584 0.893594 0.341411
0.885453 0.897143 0.330618
0.980907 0.903312 0.310413
0.644031 0.998987 0.000000
0.646811 0.999007 0.000000
0.661002 0.999117 0.000000
0.683854 0.999312 0.000000
0.718562 0.999660 0.000000
0.767533 1.000000 0.000000
0.831214 1.000000 0.000000
0.907845 1.000000 0.000000
0.994375 1.000000 0.000000
0.140571 0.000000 0.674026
0.161338 0.000000 0.673998
0.244121 0.000000 0.673847
0.345786 0.000000 0.673577
0.476085 0.000000 0.673093
0.618395 0.067586 0.672227
0.740991 0.150679 0.670670
0.854452 0.234710 0.667854
0.963385 0.336029 0.662715
0.144727 0.000000 0.673749
0.164972 0.000000 0.673721
0.246537 0.000000 0.673569
0.347496 0.000000 0.673299
0.477329 0.045889 0.672815
0.619006 0.110737 0.671947
0.741298 0.174353 0.670387
0.854615 0.250566 0.667568
0.963474 0.347290 0.662420
0.165207 0.179749 0.672259
0.183202 0.180673 0.672231
0.259091 0.185541 0.672078
0.356512 0.193936 0.671806
0.483932 0.208085 0.671317
0.622239 0.231205 0.670442
0.742938 0.267567 0.668869
0.855487 0.322454 0.666026
0.963949 0.402248 0.660832
0.196558 0.325443 0.669566
0.211907 0.325954 0.669538
0.280124 0.328677 0.669383
0.372079 0.333488 0.669106
0.495512 0.341910 0.668610
0.627875 0.356453 0.667722
0.745830 0.381045 0.666125
0.857034 0.421402 0.663236
0.964794 0.485187 0.657960
0.242666 0.487176 0.664655
0.255258 0.487518 0.664625
0.314200 0.489343 0.664466
0.398365 0.492587 0.664181
0.515126 0.498327 0.663672
0.637517 0.508292 0.662759
0.750880 0.524818 0.661116
0.859763 0.550994 0.658145
0.966293 0.589914 0.652714
0.308300 0.644345 0.655534
0.318306 0.644493 0.655503
0.367265 0.645286 0.655335
0.441426 0.646694 0.655036
0.545604 0.649181 0.654500
0.653538 0.653538 0.653538
0.759558 0.661063 0.651808
0.864536 0.673760 0.648677
0.968939 0.694406 0.642946
0.399526 0.772316 0.637993
0.407297 0.772389 0.637958
0.446605 0.772777 0.637773
0.509189 0.773469 0.637443
0.589723 0.774697 0.636851
0.679000 0.776870 0.635790
0.774078 0.780685 0.633878
0.872754 0.787302 0.630414
0.973570 0.798540 0.624056
0.523333 0.888286 0.601622
0.528753 0.888324 0.601580
0.555266 0.888527 0.601353
0.594628 0.888889 0.600948
0.648663 0.889534 0.600222
0.717031 0.890681 0.598919
0.797392 0.892710 0.596567
0.886549 0.896277 0.592289
0.981551 0.902475 0.584386
0.648223 0.998497 0.509458
0.650939 0.998518 0.509387
0.664819 0.998627 0.509008
0.687217 0.998823 0.508328
0.721336 0.999172 0.507108
0.769647 0.999794 0.504908
0.832697 1.000000 0.500911
0.908812 1.000000 0.493620
0.994972 1.000000 0.480321
0.191593 0.000000 0.796785
0.207310 0.000000 0.796771
0.276663 0.000000 0.796695
0.369480 0.000000 0.796559
0.493563 0.000000 0.796316
0.626930 0.000000 0.795882
0.745341 0.092117 0.795103
0.856772 0.202164 0.793705
0.964650 0.314161 0.791181
0.194662 0.000000 0.796646
0.210150 0.000000 0.796631
0.278798 0.000000 0.796555
0.371081 0.000000 0.796419
0.494763 0.000000 0.796176
0.627512 0.000000 0.795742
0.745642 0.127202 0.794963
0.856933 0.220374 0.793563
0.964739 0.326177 0.791037
0.210335 0.134504 0.795898
0.224746 0.135736 0.795884
0.289958 0.142152 0.795807
0.379537 0.152946 0.795671
0.501135 0.170530 0.795427
0.630596 0.198084 0.794990
0.747242 0.239528 0.794208
0.857793 0.299597 0.792803
0.965210 0.384168 0.790266
0.235759 0.302811 0.794554
0.248701 0.303360 0.794540
0.308897 0.306285 0.794463
0.394196 0.311441 0.794325
0.512063 0.320443 0.794079
0.635979 0.335917 0.793640
0.750066 0.361907 0.792851
0.859321 0.404180 0.791435
0.966049 0.470306 0.788879
0.275380 0.472358 0.792129
0.286538 0.472711 0.792115
0.340102 0.474593 0.792037
0.419097 0.477937 0.791897
0.530058 0.483851 0.791648
0.645204 0.494235 0.791202
0.754999 0.511993 0.790403
0.862016 0.539970 0.788967
0.967538 0.581101 0.786375
0.334659 0.637886 0.787716
0.343899 0.638040 0.787701
0.389655 0.638862 0.787621
0.460222 0.640321 0.787478
0.558277 0.642898 0.787223
0.660580 0.647409 0.786765
0.763484 0.655191 0.785946
0.866729 0.668296 0.784474
0.970166 0.689546 0.781815
0.420201 0.769188 0.779554
0.427596 0.769262 0.779538
0.465192 0.769657 0.779454
0.524604 0.770360 0.779305
0.599701 0.771610 0.779037
0.685123 0.773821 0.778559
0.777701 0.777701 0.777701
0.874849 0.784427 0.776159
0.974765 0.795842 0.773373
0.537621 0.886657 0.763982
0.542631 0.886695 0.763965
0.567295 0.886900 0.763874
0.604343 0.887266 0.763711
0.655896 0.887917 0.763419
0.721997 0.889074 0.762897
0.800576 0.891121 0.761960
0.888490 0.894720 0.760276
0.982694 0.900971 0.757228
0.655473 0.997619 0.732280
0.658082 0.997640 0.732260
0.671438 0.997750 0.732151
0.693069 0.997947 0.731956
0.726186 0.998298 0.731608
0.773360 0.998923 0.730984
0.835315 1.000000 0.729864
0.910527 1.000000 0.727846
0.996033 1.000000 0.724187
0.258785 0.000000 0.910324
0.270628 0.000000 0.910316
0.326809 0.000000 0.910276
0.408384 0.000000 0.910204
0.522403 0.000000 0.910075
0.641224 0.000000 0.909846
0.752856 0.000000 0.909435
0.860841 0.124423 0.908698
0.966888 0.270754 0.907375
0.261066 0.000000 0.910250
0.272810 0.000000 0.910242
0.328619 0.000000 0.910202
0.409833 0.000000 0.910130
0.523446 0.000000 0.910002
0.641762 0.000000 0.909772
0.753145 0.000000 0.909360
0.860999 0.152236 0.908624
0.966975 0.284610 0.907300
0.272952 0.000000 0.909854
0.284205 0.000000 0.909847
0.338139 0.000000 0.909806
0.417505 0.000000 0.909734
0.528929 0.060759 0.909605
0.644612 0.117679 0.909375
0.754679 0.178843 0.908963
0.861840 0.253711 0.908224
0.967441 0.349566 0.906898
0.292992 0.257498 0.909145
0.303503 0.258144 0.909137
0.354513 0.261574 0.909097
0.430874 0.267594 0.909024
0.538325 0.278019 0.908895
0.649594 0.295722 0.908664
0.757389 0.324943 0.908250
0.863333 0.371446 0.907508
0.968270 0.442492 0.906177
0.325724 0.444672 0.907871
0.335211 0.445046 0.907864
0.382009 0.447045 0.907823
0.453766 0.450594 0.907750
0.553966 0.456862 0.907620
0.658159 0.467845 0.907387
0.762127 0.486842 0.906970
0.865969 0.518418 0.906223
0.969740 0.564194 0.904882
0.377172 0.625739 0.905574
0.385394 0.625904 0.905567
0.426724 0.626784 0.905525
0.492002 0.628345 0.905452
0.578888 0.631099 0.905320
0.672502 0.635913 0.905083
0.770288 0.644199 0.904661
0.870581 0.658104 0.903905
0.972336 0.680526 0.902546
0.454787 0.763462 0.901398
0.461628 0.763538 0.901390
0.496654 0.763946 0.901348
0.549204 0.764672 0.901272
0.616241 0.765963 0.901137
0.695560 0.768243 0.900896
0.783994 0.772245 0.900463
0.878531 0.779175 0.899689
0.976881 0.790919 0.898298
0.560600 0.883711 0.893690
0.565013 0.883750 0.893681
0.586946 0.883958 0.893637
0.620478 0.884330 0.893558
0.668124 0.884992 0.893417
0.730536 0.886168 0.893165
0.806125 0.888248 0.892713
0.891905 0.891905 0.891905
0.984718 0.898253 0.890451
0.667729 0.996041 0.879040
0.670167 0.996062 0.879031
0.682680 0.996174 0.878983
0.703065 0.996372 0.878897
0.734531 0.996726 0.878744
0.779805 0.997357 0.878470
0.839897 0.998477 0.877980
0.913549 1.000000 0.877102
0.997912 1.000000 0.875522
0.347860 0.000000 1.000000
0.356758 0.000000 1.000000
0.401050 0.000000 1.000000
0.469909 0.000000 1.000000
0.564666 0.000000 1.000000
0.664213 0.000000 1.000000
0.765537 0.000000 1.000000
0.867885 0.000000 1.000000
0.970815 0.167250 1.000000
0.349560 0.000000 1.000000
0.358416 0.000000 1.000000
0.402526 0.000000 1.000000
0.471169 0.000000 1.000000
0.565490 0.000000 1.000000
0.664686 0.000000 1.000000
0.765805 0.000000 1.000000
0.868036 0.000000 1.000000
0.970900 0.188858 1.000000
0.358524 0.000000 1.000000
0.367164 0.000000 1.000000
0.410334 0.000000 1.000000
0.477857 0.000000 1.000000
0.569837 0.000000 1.000000
0.667195 0.000000 1.000000
0.767236 0.000000 1.000000
0.868845 0.137963 1.000000
0.971356 0.277238 1.000000
0.374007 0.144810 1.000000
0.382297 0.145956 1.000000
0.423929 0.151940 1.000000
0.489580 0.162084 1.000000
0.577352 0.178772 1.000000
0.671594 0.205222 1.000000
0.769763 0.245464 1.000000
0.870281 0.304363 1.000000
0.972167 0.387897 1.000000
0.400166 0.390382 1.000000
0.407925 0.390808 1.000000
0.447178 0.393082 1.000000
0.509674 0.397114 1.000000
0.590032 0.404212 1.000000
0.679188 0.416586 1.000000
0.774188 0.437813 1.000000
0.872817 0.473355 1.000000
0.973606 0.529346 1.000000
0.443052 0.601758 1.000000
0.450072 0.601946 1.000000
0.485932 0.602952 1.000000
0.541018 0.604734 1.000000
0.610655 0.607873 1.000000
0.691995 0.613345 1.000000
0.781828 0.622718 1.000000
0.877258 0.638321 1.000000
0.976147 0.663191 1.000000
0.510550 0.752757 1.000000
0.516365 0.752838 1.000000
0.544638 0.753271 1.000000
0.586149 0.754043 1.000000
0.642435 0.755412 1.000000
0.712805 0.757830 1.000000
0.794707 0.762069 1.000000
0.884924 0.769397 1.000000
0.980596 0.781778 1.000000
0.595473 0.878327 1.000000
0.599112 0.878367 1.000000
0.617426 0.878582 1.000000
0.646101 0.878965 1.000000
0.688074 0.879647 1.000000
0.744836 0.880858 1.000000
0.815624 0.883001 1.000000
0.897844 0.886765 1.000000
0.988276 0.893295 1.000000
0.687721 0.993189 1.000000
0.689902 0.993210 1.000000
0.701148 0.993323 1.000000
0.719634 0.993525 1.000000
0.748528 0.993884 1.000000
0.790765 0.994525 1.000000
0.847797 0.995663 1.000000
0.918821 0.997678 1.000000
1.000000 1.000000 1.000000
