luts/Rec2100_HLG/DJI_Osmo_DLogM_to_Rec2100_HLG_ACES2_Detailed.cube
TITLE "OpenOSV D-Log M to Rec.2100 HLG, ACES 2 Detailed (indoor) - DJI Osmo 360 / Pocket 3"
LUT_3D_SIZE 65
DOMAIN_MIN 0.000000 0.000000 0.000000
DOMAIN_MAX 1.000000 1.000000 1.000000
0.000000 0.000000 0.000000
0.004190 0.000167 0.000000
0.008134 0.000327 0.000000
0.012132 0.000491 0.000000
0.016244 0.000662 0.000000
0.020500 0.000841 0.000000
0.024918 0.001031 0.000000
0.029513 0.001232 0.000000
0.034295 0.001445 0.000000
0.048701 0.002114 0.000000
0.063009 0.002821 0.000000
0.077199 0.003569 0.000000
0.091318 0.004363 0.000000
0.105399 0.005208 0.000000
0.119469 0.006107 0.000000
0.133551 0.007065 0.000000
0.147664 0.008087 0.000000
0.161829 0.009178 0.000000
0.176064 0.010341 0.000000
0.190386 0.011582 0.000000
0.204814 0.012906 0.000000
0.219365 0.014317 0.000000
0.234057 0.015821 0.000000
0.248908 0.017424 0.000000
0.263935 0.019130 0.000000
0.279156 0.020945 0.000000
0.294587 0.022875 0.000000
0.310247 0.024926 0.000000
0.326152 0.027104 0.000000
0.342319 0.029414 0.000000
0.358765 0.031863 0.000000
0.375507 0.034456 0.000000
0.392562 0.037199 0.000000
0.409946 0.040099 0.000000
0.427675 0.043161 0.000000
0.445766 0.046391 0.000000
0.464233 0.049793 0.000000
0.483093 0.053374 0.000000
0.502350 0.057139 0.000000
0.521224 0.061091 0.000000
0.539300 0.065237 0.000000
0.556677 0.069580 0.000000
0.573437 0.074125 0.000000
0.589647 0.078875 0.000000
0.605365 0.083833 0.000000
0.620637 0.089004 0.000000
0.635505 0.094390 0.000000
0.650004 0.099995 0.000000
0.664161 0.105821 0.000000
0.678004 0.111871 0.000000
0.691552 0.118147 0.000000
0.704825 0.124652 0.000000
0.717838 0.131390 0.000000
0.730605 0.138363 0.000000
0.743137 0.145574 0.000000
0.755443 0.153026 0.000000
0.767531 0.160723 0.000000
0.779408 0.168669 0.000000
0.791078 0.176869 0.000000
0.802547 0.185327 0.000000
0.813815 0.194048 0.000000
0.824887 0.203039 0.000000
0.835762 0.212305 0.000000
0.846441 0.221854 0.000000
0.856924 0.231694 0.000000
0.000601 0.004664 0.000000
0.004369 0.004736 0.000000
0.008376 0.004722 0.000000
0.012442 0.004713 0.000000
0.016596 0.004738 0.000000
0.020875 0.004795 0.000000
0.025304 0.004882 0.000000
0.029903 0.004995 0.000000
0.034685 0.005132 0.000000
0.049073 0.005631 0.000000
0.063357 0.006222 0.000000
0.077521 0.006883 0.000000
0.091614 0.007607 0.000000
0.105670 0.008393 0.000000
0.119717 0.009242 0.000000
0.133777 0.010155 0.000000
0.147870 0.011136 0.000000
0.162016 0.012188 0.000000
0.176232 0.013315 0.000000
0.190538 0.014521 0.000000
0.204950 0.015810 0.000000
0.219487 0.017187 0.000000
0.234165 0.018657 0.000000
0.249003 0.020225 0.000000
0.264018 0.021896 0.000000
0.279228 0.023676 0.000000
0.294648 0.025571 0.000000
0.310298 0.027585 0.000000
0.326194 0.029724 0.000000
0.342352 0.031995 0.000000
0.358790 0.034403 0.000000
0.375525 0.036955 0.000000
0.392573 0.039655 0.000000
0.409950 0.042511 0.000000
0.427673 0.045527 0.000000
0.445757 0.048709 0.000000
0.464219 0.052064 0.000000
0.483074 0.055595 0.000000
0.502327 0.059309 0.000000
0.521199 0.063210 0.000000
0.539273 0.067303 0.000000
0.556649 0.071592 0.000000
0.573408 0.076082 0.000000
0.589618 0.080777 0.000000
0.605335 0.085680 0.000000
0.620608 0.090795 0.000000
0.635476 0.096126 0.000000
0.649975 0.101674 0.000000
0.664133 0.107445 0.000000
0.677976 0.113439 0.000000
0.691525 0.119661 0.000000
0.704799 0.126112 0.000000
0.717813 0.132796 0.000000
0.730581 0.139717 0.000000
0.743114 0.146876 0.000000
0.755420 0.154278 0.000000
0.767510 0.161926 0.000000
0.779387 0.169824 0.000000
0.791059 0.177978 0.000000
0.802528 0.186390 0.000000
0.813797 0.195068 0.000000
0.824870 0.204017 0.000000
0.835746 0.213242 0.000000
0.846426 0.222753 0.000000
0.856909 0.232554 0.000000
0.001173 0.009043 0.000000
0.004637 0.009146 0.000000
0.008473 0.009180 0.000000
0.012513 0.009173 0.000000
0.016698 0.009153 0.000000
0.021022 0.009142 0.000000
0.025492 0.009152 0.000000
0.030124 0.009185 0.000000
0.034930 0.009245 0.000000
0.049354 0.009550 0.000000
0.063642 0.009994 0.000000
0.077797 0.010541 0.000000
0.091875 0.011172 0.000000
0.105915 0.011880 0.000000
0.119944 0.012662 0.000000
0.133986 0.013516 0.000000
0.148061 0.014443 0.000000
0.162190 0.015446 0.000000
0.176390 0.016526 0.000000
0.190680 0.017688 0.000000
0.205077 0.018935 0.000000
0.219600 0.020272 0.000000
0.234266 0.021701 0.000000
0.249091 0.023229 0.000000
0.264095 0.024861 0.000000
0.279293 0.026600 0.000000
0.294703 0.028454 0.000000
0.310343 0.030426 0.000000
0.326230 0.032523 0.000000
0.342379 0.034751 0.000000
0.358810 0.037115 0.000000
0.375537 0.039621 0.000000
0.392577 0.042275 0.000000
0.409948 0.045082 0.000000
0.427665 0.048049 0.000000
0.445744 0.051181 0.000000
0.464200 0.054484 0.000000
0.483050 0.057962 0.000000
0.502299 0.061622 0.000000
0.521169 0.065467 0.000000
0.539242 0.069504 0.000000
0.556617 0.073737 0.000000
0.573375 0.078169 0.000000
0.589585 0.082805 0.000000
0.605302 0.087650 0.000000
0.620575 0.092706 0.000000
0.635444 0.097977 0.000000
0.649943 0.103467 0.000000
0.664102 0.109178 0.000000
0.677946 0.115114 0.000000
0.691496 0.121277 0.000000
0.704771 0.127671 0.000000
0.717786 0.134299 0.000000
0.730555 0.141164 0.000000
0.743088 0.148268 0.000000
0.755396 0.155617 0.000000
0.767487 0.163213 0.000000
0.779365 0.171061 0.000000
0.791038 0.179164 0.000000
0.802508 0.187529 0.000000
0.813778 0.196160 0.000000
0.824851 0.205064 0.000000
0.835728 0.214247 0.000000
0.846409 0.223715 0.000000
0.856893 0.233477 0.000000
0.001759 0.013471 0.000000
0.005045 0.013581 0.000000
0.008702 0.013646 0.000000
0.012626 0.013671 0.000000
0.016761 0.013667 0.000000
0.021077 0.013649 0.000000
0.025564 0.013632 0.000000
0.030221 0.013624 0.000000
0.035055 0.013633 0.000000
0.049540 0.013778 0.000000
0.063856 0.014079 0.000000
0.078019 0.014505 0.000000
0.092095 0.015034 0.000000
0.106126 0.015654 0.000000
0.120143 0.016359 0.000000
0.134171 0.017144 0.000000
0.148232 0.018009 0.000000
0.162346 0.018954 0.000000
0.176532 0.019980 0.000000
0.190809 0.021091 0.000000
0.205193 0.022290 0.000000
0.219703 0.023578 0.000000
0.234356 0.024962 0.000000
0.249170 0.026444 0.000000
0.264162 0.028030 0.000000
0.279350 0.029725 0.000000
0.294751 0.031533 0.000000
0.310381 0.033459 0.000000
0.326259 0.035510 0.000000
0.342400 0.037690 0.000000
0.358823 0.040006 0.000000
0.375542 0.042462 0.000000
0.392576 0.045066 0.000000
0.409940 0.047822 0.000000
0.427651 0.050736 0.000000
0.445725 0.053813 0.000000
0.464176 0.057061 0.000000
0.483021 0.060482 0.000000
0.502265 0.064085 0.000000
0.521134 0.067872 0.000000
0.539206 0.071849 0.000000
0.556580 0.076021 0.000000
0.573338 0.080392 0.000000
0.589548 0.084967 0.000000
0.605266 0.089749 0.000000
0.620539 0.094742 0.000000
0.635409 0.099951 0.000000
0.649909 0.105378 0.000000
0.664069 0.111027 0.000000
0.677914 0.116901 0.000000
0.691465 0.123003 0.000000
0.704741 0.129336 0.000000
0.717757 0.135904 0.000000
0.730527 0.142709 0.000000
0.743061 0.149756 0.000000
0.755370 0.157048 0.000000
0.767462 0.164589 0.000000
0.779342 0.172383 0.000000
0.791015 0.180434 0.000000
0.802486 0.188748 0.000000
0.813758 0.197330 0.000000
0.824832 0.206186 0.000000
0.835709 0.215322 0.000000
0.846391 0.224746 0.000000
0.856876 0.234465 0.000000
0.002370 0.018012 0.000000
0.005532 0.018123 0.000000
0.009045 0.018204 0.000000
0.012843 0.018252 0.000000
0.016887 0.018272 0.000000
0.021149 0.018270 0.000000
0.025612 0.018256 0.000000
0.030266 0.018238 0.000000
0.035110 0.018224 0.000000
0.049645 0.018262 0.000000
0.064000 0.018441 0.000000
0.078183 0.018753 0.000000
0.092267 0.019179 0.000000
0.106297 0.019707 0.000000
0.120309 0.020328 0.000000
0.134329 0.021038 0.000000
0.148380 0.021833 0.000000
0.162482 0.022714 0.000000
0.176657 0.023681 0.000000
0.190921 0.024735 0.000000
0.205293 0.025878 0.000000
0.219792 0.027114 0.000000
0.234434 0.028446 0.000000
0.249237 0.029878 0.000000
0.264219 0.031414 0.000000
0.279397 0.033058 0.000000
0.294788 0.034816 0.000000
0.310410 0.036692 0.000000
0.326279 0.038692 0.000000
0.342413 0.040821 0.000000
0.358828 0.043084 0.000000
0.375540 0.045487 0.000000
0.392568 0.048037 0.000000
0.409926 0.050737 0.000000
0.427631 0.053594 0.000000
0.445698 0.056614 0.000000
0.464145 0.059803 0.000000
0.482985 0.063165 0.000000
0.502226 0.066705 0.000000
0.521093 0.070430 0.000000
0.539165 0.074345 0.000000
0.556539 0.078453 0.000000
0.573297 0.082759 0.000000
0.589507 0.087268 0.000000
0.605226 0.091985 0.000000
0.620500 0.096912 0.000000
0.635370 0.102055 0.000000
0.649871 0.107416 0.000000
0.664032 0.112999 0.000000
0.677878 0.118807 0.000000
0.691431 0.124844 0.000000
0.704708 0.131113 0.000000
0.717725 0.137617 0.000000
0.730496 0.144361 0.000000
0.743032 0.151346 0.000000
0.755342 0.158578 0.000000
0.767435 0.166060 0.000000
0.779316 0.173797 0.000000
0.790990 0.181792 0.000000
0.802463 0.190052 0.000000
0.813735 0.198581 0.000000
0.824810 0.207387 0.000000
0.835689 0.216474 0.000000
0.846372 0.225850 0.000000
0.856858 0.235523 0.000000
0.003012 0.022695 0.000000
0.006080 0.022805 0.000000
0.009476 0.022894 0.000000
0.013159 0.022958 0.000000
0.017102 0.022997 0.000000
0.021286 0.023015 0.000000
0.025694 0.023014 0.000000
0.030316 0.023002 0.000000
0.035146 0.022986 0.000000
0.049693 0.022967 0.000000
0.064081 0.023054 0.000000
0.078290 0.023265 0.000000
0.092389 0.023594 0.000000
0.106426 0.024030 0.000000
0.120438 0.024566 0.000000
0.134454 0.025197 0.000000
0.148499 0.025919 0.000000
0.162594 0.026731 0.000000
0.176759 0.027632 0.000000
0.191013 0.028624 0.000000
0.205376 0.029708 0.000000
0.219864 0.030886 0.000000
0.234497 0.032161 0.000000
0.249290 0.033538 0.000000
0.264263 0.035019 0.000000
0.279432 0.036609 0.000000
0.294815 0.038312 0.000000
0.310428 0.040134 0.000000
0.326290 0.042078 0.000000
0.342416 0.044152 0.000000
0.358823 0.046359 0.000000
0.375529 0.048705 0.000000
0.392550 0.051196 0.000000
0.409902 0.053837 0.000000
0.427602 0.056634 0.000000
0.445665 0.059593 0.000000
0.464106 0.062718 0.000000
0.482942 0.066016 0.000000
0.502179 0.069493 0.000000
0.521046 0.073152 0.000000
0.539118 0.076999 0.000000
0.556492 0.081039 0.000000
0.573251 0.085277 0.000000
0.589462 0.089718 0.000000
0.605181 0.094365 0.000000
0.620456 0.099223 0.000000
0.635328 0.104295 0.000000
0.649830 0.109586 0.000000
0.663993 0.115100 0.000000
0.677840 0.120839 0.000000
0.691393 0.126807 0.000000
0.704672 0.133008 0.000000
0.717691 0.139446 0.000000
0.730463 0.146123 0.000000
0.743001 0.153044 0.000000
0.755312 0.160212 0.000000
0.767406 0.167632 0.000000
0.779288 0.175308 0.000000
0.790964 0.183244 0.000000
0.802438 0.191447 0.000000
0.813711 0.199921 0.000000
0.824787 0.208672 0.000000
0.835667 0.217707 0.000000
0.846351 0.227033 0.000000
0.856838 0.236657 0.000000
0.003688 0.027542 0.000000
0.006680 0.027649 0.000000
0.009979 0.027742 0.000000
0.013560 0.027815 0.000000
0.017406 0.027869 0.000000
0.021503 0.027903 0.000000
0.025841 0.027918 0.000000
0.030410 0.027919 0.000000
0.035202 0.027909 0.000000
0.049714 0.027872 0.000000
0.064115 0.027897 0.000000
0.078346 0.028027 0.000000
0.092462 0.028267 0.000000
0.106510 0.028617 0.000000
0.120528 0.029069 0.000000
0.134545 0.029620 0.000000
0.148587 0.030266 0.000000
0.162677 0.031006 0.000000
0.176836 0.031838 0.000000
0.191083 0.032764 0.000000
0.205438 0.033783 0.000000
0.219918 0.034899 0.000000
0.234542 0.036114 0.000000
0.249327 0.037430 0.000000
0.264292 0.038852 0.000000
0.279453 0.040384 0.000000
0.294828 0.042028 0.000000
0.310434 0.043791 0.000000
0.326288 0.045677 0.000000
0.342407 0.047691 0.000000
0.358808 0.049837 0.000000
0.375508 0.052122 0.000000
0.392523 0.054551 0.000000
0.409870 0.057129 0.000000
0.427564 0.059862 0.000000
0.445622 0.062756 0.000000
0.464059 0.065815 0.000000
0.482891 0.069046 0.000000
0.502124 0.072454 0.000000
0.520992 0.076043 0.000000
0.539064 0.079820 0.000000
0.556439 0.083789 0.000000
0.573199 0.087955 0.000000
0.589411 0.092323 0.000000
0.605132 0.096897 0.000000
0.620408 0.101681 0.000000
0.635281 0.106680 0.000000
0.649785 0.111898 0.000000
0.663949 0.117338 0.000000
0.677798 0.123004 0.000000
0.691353 0.128900 0.000000
0.704633 0.135029 0.000000
0.717654 0.141396 0.000000
0.730428 0.148004 0.000000
0.742967 0.154856 0.000000
0.755280 0.161957 0.000000
0.767375 0.169311 0.000000
0.779259 0.176923 0.000000
0.790936 0.184797 0.000000
0.802410 0.192938 0.000000
0.813686 0.201353 0.000000
0.824763 0.210047 0.000000
0.835644 0.219026 0.000000
0.846328 0.228299 0.000000
0.856817 0.237871 0.000000
0.004403 0.032564 0.000000
0.007331 0.032669 0.000000
0.010548 0.032762 0.000000
0.014038 0.032842 0.000000
0.017792 0.032905 0.000000
0.021803 0.032951 0.000000
0.026063 0.032981 0.000000
0.030565 0.032995 0.000000
0.035304 0.032996 0.000000
0.049734 0.032965 0.000000
0.064121 0.032955 0.000000
0.078361 0.033024 0.000000
0.092491 0.033190 0.000000
0.106551 0.033460 0.000000
0.120576 0.033833 0.000000
0.134597 0.034305 0.000000
0.148640 0.034875 0.000000
0.162729 0.035541 0.000000
0.176884 0.036302 0.000000
0.191127 0.037158 0.000000
0.205476 0.038110 0.000000
0.219950 0.039160 0.000000
0.234567 0.040311 0.000000
0.249346 0.041563 0.000000
0.264303 0.042922 0.000000
0.279457 0.044391 0.000000
0.294825 0.045973 0.000000
0.310425 0.047673 0.000000
0.326273 0.049496 0.000000
0.342386 0.051446 0.000000
0.358781 0.053529 0.000000
0.375475 0.055749 0.000000
0.392485 0.058112 0.000000
0.409826 0.060623 0.000000
0.427516 0.063288 0.000000
0.445569 0.066113 0.000000
0.464003 0.069102 0.000000
0.482831 0.072262 0.000000
0.502061 0.075597 0.000000
0.520930 0.079114 0.000000
0.539003 0.082816 0.000000
0.556379 0.086710 0.000000
0.573141 0.090801 0.000000
0.589355 0.095092 0.000000
0.605077 0.099589 0.000000
0.620355 0.104296 0.000000
0.635230 0.109218 0.000000
0.649736 0.114358 0.000000
0.663902 0.119720 0.000000
0.677752 0.125310 0.000000
0.691309 0.131129 0.000000
0.704591 0.137183 0.000000
0.717613 0.143475 0.000000
0.730389 0.150009 0.000000
0.742930 0.156789 0.000000
0.755244 0.163819 0.000000
0.767341 0.171104 0.000000
0.779227 0.178647 0.000000
0.790905 0.186455 0.000000
0.802381 0.194532 0.000000
0.813658 0.202884 0.000000
0.824736 0.211517 0.000000
0.835618 0.220438 0.000000
0.846304 0.229653 0.000000
0.856794 0.239171 0.000000
0.005160 0.037773 0.000000
0.008032 0.037874 0.000000
0.011177 0.037967 0.000000
0.014587 0.038050 0.000000
0.018257 0.038120 0.000000
0.022183 0.038175 0.000000
0.026363 0.038216 0.000000
0.030793 0.038243 0.000000
0.035469 0.038256 0.000000
0.049778 0.038243 0.000000
0.064118 0.038219 0.000000
0.078349 0.038246 0.000000
0.092485 0.038353 0.000000
0.106553 0.038554 0.000000
0.120586 0.038853 0.000000
0.134612 0.039250 0.000000
0.148658 0.039745 0.000000
0.162747 0.040337 0.000000
0.176902 0.041025 0.000000
0.191141 0.041810 0.000000
0.205487 0.042693 0.000000
0.219956 0.043674 0.000000
0.234569 0.044757 0.000000
0.249342 0.045943 0.000000
0.264294 0.047235 0.000000
0.279443 0.048637 0.000000
0.294805 0.050153 0.000000
0.310399 0.051787 0.000000
0.326241 0.053543 0.000000
0.342349 0.055426 0.000000
0.358739 0.057441 0.000000
0.375429 0.059592 0.000000
0.392434 0.061885 0.000000
0.409771 0.064326 0.000000
0.427456 0.066920 0.000000
0.445506 0.069672 0.000000
0.463935 0.072587 0.000000
0.482760 0.075672 0.000000
0.501987 0.078931 0.000000
0.520858 0.082371 0.000000
0.538933 0.085995 0.000000
0.556312 0.089811 0.000000
0.573076 0.093821 0.000000
0.589292 0.098032 0.000000
0.605016 0.102448 0.000000
0.620297 0.107074 0.000000
0.635174 0.111915 0.000000
0.649682 0.116973 0.000000
0.663850 0.122255 0.000000
0.677702 0.127764 0.000000
0.691262 0.133503 0.000000
0.704546 0.139477 0.000000
0.717570 0.145691 0.000000
0.730347 0.152147 0.000000
0.742890 0.158851 0.000000
0.755206 0.165806 0.000000
0.767305 0.173017 0.000000
0.779192 0.180489 0.000000
0.790872 0.188226 0.000000
0.802350 0.196235 0.000000
0.813628 0.204521 0.000000
0.824708 0.213089 0.000000
0.835591 0.221948 0.000000
0.846278 0.231103 0.000000
0.856769 0.240562 0.000000
0.007524 0.053346 0.000000
0.010267 0.053438 0.000000
0.013249 0.053526 0.000000
0.016471 0.053609 0.000000
0.019938 0.053686 0.000000
0.023653 0.053755 0.000000
0.027619 0.053815 0.000000
0.031839 0.053865 0.000000
0.036315 0.053904 0.000000
0.050156 0.053959 0.000000
0.064217 0.053955 0.000000
0.078302 0.053941 0.000000
0.092370 0.053956 0.000000
0.106414 0.054024 0.000000
0.120443 0.054164 0.000000
0.134474 0.054384 0.000000
0.148526 0.054691 0.000000
0.162620 0.055088 0.000000
0.176778 0.055579 0.000000
0.191018 0.056165 0.000000
0.205362 0.056848 0.000000
0.219827 0.057630 0.000000
0.234434 0.058512 0.000000
0.249201 0.059499 0.000000
0.264145 0.060592 0.000000
0.279285 0.061794 0.000000
0.294638 0.063109 0.000000
0.310222 0.064541 0.000000
0.326054 0.066094 0.000000
0.342153 0.067771 0.000000
0.358533 0.069579 0.000000
0.375213 0.071520 0.000000
0.392209 0.073601 0.000000
0.409537 0.075826 0.000000
0.427214 0.078201 0.000000
0.445256 0.080731 0.000000
0.463678 0.083422 0.000000
0.482496 0.086278 0.000000
0.501719 0.089306 0.000000
0.520602 0.092511 0.000000
0.538689 0.095898 0.000000
0.556079 0.099474 0.000000
0.572852 0.103242 0.000000
0.589078 0.107209 0.000000
0.604812 0.111379 0.000000
0.620101 0.115758 0.000000
0.634987 0.120350 0.000000
0.649503 0.125161 0.000000
0.663679 0.130195 0.000000
0.677539 0.135457 0.000000
0.691106 0.140951 0.000000
0.704397 0.146682 0.000000
0.717428 0.152654 0.000000
0.730212 0.158873 0.000000
0.742761 0.165342 0.000000
0.755084 0.172066 0.000000
0.767188 0.179051 0.000000
0.779081 0.186301 0.000000
0.790766 0.193822 0.000000
0.802249 0.201619 0.000000
0.813532 0.209699 0.000000
0.824616 0.218067 0.000000
0.835504 0.226731 0.000000
0.846195 0.235697 0.000000
0.856690 0.244974 0.000000
0.010007 0.068653 0.000000
0.012653 0.068735 0.000000
0.015516 0.068816 0.000000
0.018601 0.068894 0.000000
0.021916 0.068970 0.000000
0.025466 0.069041 0.000000
0.029259 0.069107 0.000000
0.033300 0.069166 0.000000
0.037595 0.069218 0.000000
0.050945 0.069319 0.000000
0.064625 0.069354 0.000000
0.078440 0.069355 0.000000
0.092327 0.069351 0.000000
0.106255 0.069366 0.000000
0.120213 0.069422 0.000000
0.134201 0.069534 0.000000
0.148230 0.069713 0.000000
0.162313 0.069967 0.000000
0.176464 0.070302 0.000000
0.190703 0.070724 0.000000
0.205047 0.071236 0.000000
0.219513 0.071841 0.000000
0.234120 0.072544 0.000000
0.248887 0.073346 0.000000
0.263831 0.074251 0.000000
0.278971 0.075264 0.000000
0.294323 0.076386 0.000000
0.309906 0.077622 0.000000
0.325737 0.078977 0.000000
0.341833 0.080453 0.000000
0.358212 0.082057 0.000000
0.374889 0.083791 0.000000
0.391883 0.085662 0.000000
0.409209 0.087674 0.000000
0.426884 0.089832 0.000000
0.444924 0.092142 0.000000
0.463344 0.094609 0.000000
0.482160 0.097239 0.000000
0.501384 0.100037 0.000000
0.520287 0.103009 0.000000
0.538393 0.106160 0.000000
0.555799 0.109496 0.000000
0.572588 0.113023 0.000000
0.588828 0.116747 0.000000
0.604575 0.120672 0.000000
0.619877 0.124804 0.000000
0.634774 0.129149 0.000000
0.649301 0.133711 0.000000
0.663486 0.138497 0.000000
0.677357 0.143511 0.000000
0.690932 0.148758 0.000000
0.704232 0.154243 0.000000
0.717271 0.159972 0.000000
0.730063 0.165949 0.000000
0.742620 0.172180 0.000000
0.754949 0.178670 0.000000
0.767060 0.185424 0.000000
0.778959 0.192447 0.000000
0.790651 0.199746 0.000000
0.802139 0.207326 0.000000
0.813427 0.215193 0.000000
0.824517 0.223355 0.000000
0.835410 0.231818 0.000000
0.846106 0.240589 0.000000
0.856604 0.249676 0.000000
0.012609 0.083686 0.000000
0.015175 0.083759 0.000000
0.017942 0.083832 0.000000
0.020918 0.083905 0.000000
0.024110 0.083976 0.000000
0.027527 0.084045 0.000000
0.031177 0.084110 0.000000
0.035066 0.084172 0.000000
0.039203 0.084228 0.000000
0.052096 0.084353 0.000000
0.065378 0.084419 0.000000
0.078867 0.084442 0.000000
0.092501 0.084445 0.000000
0.106239 0.084447 0.000000
0.120058 0.084466 0.000000
0.133949 0.084518 0.000000
0.147909 0.084617 0.000000
0.161945 0.084773 0.000000
0.176066 0.084996 0.000000
0.190284 0.085291 0.000000
0.204616 0.085665 0.000000
0.219076 0.086124 0.000000
0.233680 0.086672 0.000000
0.248446 0.087313 0.000000
0.263391 0.088051 0.000000
0.278533 0.088890 0.000000
0.293887 0.089835 0.000000
0.309473 0.090890 0.000000
0.325307 0.092058 0.000000
0.341406 0.093344 0.000000
0.357788 0.094753 0.000000
0.374468 0.096289 0.000000
0.391465 0.097958 0.000000
0.408793 0.099764 0.000000
0.426471 0.101712 0.000000
0.444513 0.103809 0.000000
0.462936 0.106059 0.000000
0.481755 0.108467 0.000000
0.500983 0.111041 0.000000
0.519915 0.113784 0.000000
0.538046 0.116705 0.000000
0.555475 0.119807 0.000000
0.572284 0.123097 0.000000
0.588542 0.126581 0.000000
0.604306 0.130264 0.000000
0.619623 0.134153 0.000000
0.634535 0.138253 0.000000
0.649075 0.142569 0.000000
0.663273 0.147109 0.000000
0.677155 0.151876 0.000000
0.690741 0.156877 0.000000
0.704051 0.162118 0.000000
0.717100 0.167603 0.000000
0.729901 0.173339 0.000000
0.742466 0.179330 0.000000
0.754803 0.185583 0.000000
0.766922 0.192104 0.000000
0.778828 0.198898 0.000000
0.790526 0.205971 0.000000
0.802021 0.213330 0.000000
0.813315 0.220981 0.000000
0.824410 0.228931 0.000000
0.835308 0.237187 0.000000
0.846009 0.245757 0.000000
0.856512 0.254649 0.000000
0.015343 0.098513 0.000000
0.017840 0.098578 0.000000
0.020525 0.098645 0.000000
0.023407 0.098711 0.000000
0.026495 0.098776 0.000000
0.029798 0.098841 0.000000
0.033324 0.098903 0.000000
0.037082 0.098963 0.000000
0.041079 0.099020 0.000000
0.053555 0.099154 0.000000
0.066449 0.099238 0.000000
0.079597 0.099280 0.000000
0.092942 0.099295 0.000000
0.106443 0.099298 0.000000
0.120073 0.099304 0.000000
0.133815 0.099327 0.000000
0.147662 0.099379 0.000000
0.161612 0.099471 0.000000
0.175669 0.099614 0.000000
0.189842 0.099816 0.000000
0.204140 0.100084 0.000000
0.218577 0.100426 0.000000
0.233167 0.100845 0.000000
0.247924 0.101349 0.000000
0.262864 0.101943 0.000000
0.278004 0.102630 0.000000
0.293359 0.103416 0.000000
0.308947 0.104305 0.000000
0.324785 0.105302 0.000000
0.340889 0.106412 0.000000
0.357275 0.107640 0.000000
0.373961 0.108989 0.000000
0.390963 0.110467 0.000000
0.408298 0.112077 0.000000
0.425981 0.113825 0.000000
0.444030 0.115716 0.000000
0.462458 0.117757 0.000000
0.481283 0.119952 0.000000
0.500518 0.122308 0.000000
0.519486 0.124831 0.000000
0.537648 0.127526 0.000000
0.555106 0.130400 0.000000
0.571940 0.133459 0.000000
0.588221 0.136709 0.000000
0.604005 0.140155 0.000000
0.619341 0.143805 0.000000
0.634269 0.147664 0.000000
0.648825 0.151738 0.000000
0.663038 0.156034 0.000000
0.676933 0.160557 0.000000
0.690532 0.165314 0.000000
0.703854 0.170311 0.000000
0.716913 0.175553 0.000000
0.729725 0.181047 0.000000
0.742299 0.186799 0.000000
0.754645 0.192814 0.000000
0.766772 0.199099 0.000000
0.778686 0.205661 0.000000
0.790392 0.212506 0.000000
0.801893 0.219640 0.000000
0.813194 0.227071 0.000000
0.824295 0.234805 0.000000
0.835199 0.242851 0.000000
0.845905 0.251214 0.000000
0.856414 0.259905 0.000000
0.018221 0.113185 0.000000
0.020653 0.113244 0.000000
0.023264 0.113303 0.000000
0.026063 0.113363 0.000000
0.029059 0.113423 0.000000
0.032260 0.113482 0.000000
0.035676 0.113541 0.000000
0.039316 0.113597 0.000000
0.043189 0.113652 0.000000
0.055282 0.113787 0.000000
0.067806 0.113879 0.000000
0.080614 0.113934 0.000000
0.093656 0.113960 0.000000
0.106894 0.113969 0.000000
0.120301 0.113973 0.000000
0.133858 0.113981 0.000000
0.147553 0.114006 0.000000
0.161382 0.114059 0.000000
0.175343 0.114148 0.000000
0.189440 0.114282 0.000000
0.203681 0.114470 0.000000
0.218074 0.114719 0.000000
0.232631 0.115036 0.000000
0.247365 0.115427 0.000000
0.262290 0.115897 0.000000
0.277419 0.116453 0.000000
0.292769 0.117100 0.000000
0.308355 0.117842 0.000000
0.324194 0.118685 0.000000
0.340300 0.119634 0.000000
0.356691 0.120695 0.000000
0.373382 0.121872 0.000000
0.390391 0.123170 0.000000
0.407733 0.124596 0.000000
0.425424 0.126155 0.000000
0.443480 0.127852 0.000000
0.461916 0.129694 0.000000
