luts/Rec2100_HLG/DJI_Osmo_DLogM_to_Rec2100_HLG_ACES2_Bright.cube
TITLE "OpenOSV D-Log M to Rec.2100 HLG, ACES 2 Bright (outdoor) - DJI Osmo 360 / Pocket 3"
LUT_3D_SIZE 65
DOMAIN_MIN 0.000000 0.000000 0.000000
DOMAIN_MAX 1.000000 1.000000 1.000000
0.000000 0.000000 0.000000
0.006594 0.000264 0.000000
0.012758 0.000517 0.000000
0.018958 0.000776 0.000000
0.025281 0.001047 0.000000
0.031767 0.001331 0.000000
0.038438 0.001633 0.000000
0.045309 0.001952 0.000000
0.052391 0.002291 0.000000
0.073308 0.003358 0.000000
0.093519 0.004490 0.000000
0.113077 0.005688 0.000000
0.132123 0.006961 0.000000
0.150766 0.008315 0.000000
0.169099 0.009755 0.000000
0.187196 0.011288 0.000000
0.205127 0.012920 0.000000
0.222949 0.014657 0.000000
0.240715 0.016505 0.000000
0.258474 0.018468 0.000000
0.276267 0.020555 0.000000
0.294136 0.022770 0.000000
0.312117 0.025119 0.000000
0.330244 0.027609 0.000000
0.348548 0.030245 0.000000
0.367061 0.033034 0.000000
0.385810 0.035980 0.000000
0.404822 0.039091 0.000000
0.424122 0.042371 0.000000
0.443736 0.045826 0.000000
0.463687 0.049461 0.000000
0.483997 0.053281 0.000000
0.504649 0.057291 0.000000
0.524663 0.061494 0.000000
0.543722 0.065896 0.000000
0.561956 0.070499 0.000000
0.579470 0.075308 0.000000
0.596351 0.080325 0.000000
0.612670 0.085555 0.000000
0.628487 0.090999 0.000000
0.643852 0.096660 0.000000
0.658807 0.102541 0.000000
0.673388 0.108644 0.000000
0.687627 0.114972 0.000000
0.701549 0.121526 0.000000
0.715177 0.128310 0.000000
0.728531 0.135326 0.000000
0.741626 0.142576 0.000000
0.754476 0.150064 0.000000
0.767094 0.157792 0.000000
0.779489 0.165766 0.000000
0.791669 0.173988 0.000000
0.803642 0.182463 0.000000
0.815413 0.191197 0.000000
0.826986 0.200195 0.000000
0.838364 0.209463 0.000000
0.849550 0.219008 0.000000
0.860545 0.228839 0.000000
0.871349 0.238961 0.000000
0.881963 0.249386 0.000000
0.892385 0.260121 0.000000
0.902614 0.271178 0.000000
0.912650 0.282566 0.000000
0.922488 0.294297 0.000000
0.932128 0.306383 0.000000
0.000949 0.007336 0.000000
0.006872 0.007448 0.000000
0.013127 0.007426 0.000000
0.019424 0.007416 0.000000
0.025803 0.007458 0.000000
0.032317 0.007553 0.000000
0.038998 0.007695 0.000000
0.045868 0.007878 0.000000
0.052941 0.008100 0.000000
0.073814 0.008904 0.000000
0.093975 0.009855 0.000000
0.113483 0.010916 0.000000
0.132483 0.012077 0.000000
0.151085 0.013335 0.000000
0.169379 0.014690 0.000000
0.187443 0.016145 0.000000
0.205342 0.017703 0.000000
0.223136 0.019369 0.000000
0.240877 0.021147 0.000000
0.258612 0.023042 0.000000
0.276384 0.025059 0.000000
0.294234 0.027204 0.000000
0.312196 0.029483 0.000000
0.330306 0.031900 0.000000
0.348595 0.034463 0.000000
0.367094 0.037176 0.000000
0.385830 0.040046 0.000000
0.404830 0.043077 0.000000
0.424119 0.046276 0.000000
0.443723 0.049648 0.000000
0.463665 0.053197 0.000000
0.483966 0.056930 0.000000
0.504611 0.060851 0.000000
0.524621 0.064964 0.000000
0.543677 0.069273 0.000000
0.561910 0.073784 0.000000
0.579423 0.078499 0.000000
0.596303 0.083422 0.000000
0.612622 0.088557 0.000000
0.628440 0.093906 0.000000
0.643805 0.099472 0.000000
0.658761 0.105259 0.000000
0.673344 0.111269 0.000000
0.687584 0.117503 0.000000
0.701508 0.123966 0.000000
0.715137 0.130660 0.000000
0.728492 0.137587 0.000000
0.741588 0.144750 0.000000
0.754440 0.152153 0.000000
0.767060 0.159799 0.000000
0.779456 0.167692 0.000000
0.791638 0.175836 0.000000
0.803612 0.184236 0.000000
0.815385 0.192896 0.000000
0.826959 0.201824 0.000000
0.838338 0.211024 0.000000
0.849526 0.220503 0.000000
0.860522 0.230270 0.000000
0.871327 0.240333 0.000000
0.881942 0.250699 0.000000
0.892365 0.261378 0.000000
0.902596 0.272381 0.000000
0.912632 0.283718 0.000000
0.922471 0.295400 0.000000
0.932111 0.307439 0.000000
0.001852 0.014163 0.000000
0.007295 0.014320 0.000000
0.013275 0.014372 0.000000
0.019521 0.014361 0.000000
0.025939 0.014335 0.000000
0.032511 0.014325 0.000000
0.039246 0.014347 0.000000
0.046158 0.014409 0.000000
0.053261 0.014512 0.000000
0.074167 0.015018 0.000000
0.094320 0.015743 0.000000
0.113805 0.016626 0.000000
0.132776 0.017641 0.000000
0.151349 0.018774 0.000000
0.169614 0.020019 0.000000
0.187650 0.021374 0.000000
0.205523 0.022840 0.000000
0.223293 0.024418 0.000000
0.241011 0.026112 0.000000
0.258725 0.027925 0.000000
0.276478 0.029862 0.000000
0.294310 0.031927 0.000000
0.312256 0.034125 0.000000
0.330351 0.036462 0.000000
0.348626 0.038943 0.000000
0.367111 0.041573 0.000000
0.385835 0.044358 0.000000
0.404823 0.047304 0.000000
0.424103 0.050415 0.000000
0.443697 0.053697 0.000000
0.463630 0.057156 0.000000
0.483924 0.060796 0.000000
0.504562 0.064623 0.000000
0.524570 0.068641 0.000000
0.543625 0.072854 0.000000
0.561856 0.077266 0.000000
0.579369 0.081883 0.000000
0.596249 0.086707 0.000000
0.612569 0.091742 0.000000
0.628387 0.096992 0.000000
0.643754 0.102459 0.000000
0.658711 0.108146 0.000000
0.673295 0.114057 0.000000
0.687537 0.120195 0.000000
0.701462 0.126561 0.000000
0.715094 0.133160 0.000000
0.728450 0.139994 0.000000
0.741548 0.147066 0.000000
0.754402 0.154380 0.000000
0.767023 0.161939 0.000000
0.779421 0.169747 0.000000
0.791605 0.177808 0.000000
0.803581 0.186128 0.000000
0.815354 0.194711 0.000000
0.826930 0.203564 0.000000
0.838311 0.212692 0.000000
0.849499 0.222102 0.000000
0.860497 0.231802 0.000000
0.871303 0.241800 0.000000
0.881919 0.252104 0.000000
0.892343 0.262724 0.000000
0.902575 0.273670 0.000000
0.912612 0.284952 0.000000
0.922452 0.296582 0.000000
0.932094 0.308571 0.000000
0.002778 0.021000 0.000000
0.007936 0.021166 0.000000
0.013633 0.021263 0.000000
0.019693 0.021298 0.000000
0.026024 0.021293 0.000000
0.032574 0.021270 0.000000
0.039323 0.021251 0.000000
0.046262 0.021249 0.000000
0.053396 0.021275 0.000000
0.074370 0.021540 0.000000
0.094548 0.022047 0.000000
0.114034 0.022746 0.000000
0.132994 0.023602 0.000000
0.151549 0.024597 0.000000
0.169795 0.025718 0.000000
0.187810 0.026959 0.000000
0.205663 0.028320 0.000000
0.223413 0.029798 0.000000
0.241113 0.031397 0.000000
0.258809 0.033118 0.000000
0.276546 0.034964 0.000000
0.294361 0.036940 0.000000
0.312293 0.039050 0.000000
0.330374 0.041298 0.000000
0.348636 0.043690 0.000000
0.367110 0.046230 0.000000
0.385822 0.048924 0.000000
0.404801 0.051778 0.000000
0.424071 0.054796 0.000000
0.443657 0.057983 0.000000
0.463582 0.061346 0.000000
0.483869 0.064888 0.000000
0.504501 0.068616 0.000000
0.524508 0.072533 0.000000
0.543562 0.076644 0.000000
0.561793 0.080954 0.000000
0.579307 0.085468 0.000000
0.596188 0.090188 0.000000
0.612509 0.095119 0.000000
0.628329 0.100264 0.000000
0.643697 0.105627 0.000000
0.658656 0.111211 0.000000
0.673242 0.117019 0.000000
0.687486 0.123054 0.000000
0.701413 0.129320 0.000000
0.715046 0.135819 0.000000
0.728404 0.142555 0.000000
0.741504 0.149532 0.000000
0.754360 0.156751 0.000000
0.766983 0.164219 0.000000
0.779383 0.171937 0.000000
0.791568 0.179912 0.000000
0.803546 0.188148 0.000000
0.815322 0.196649 0.000000
0.826899 0.205422 0.000000
0.838281 0.214474 0.000000
0.849471 0.223810 0.000000
0.860470 0.233439 0.000000
0.871278 0.243369 0.000000
0.881895 0.253607 0.000000
0.892320 0.264164 0.000000
0.902553 0.275050 0.000000
0.912591 0.286274 0.000000
0.922433 0.297848 0.000000
0.932075 0.309783 0.000000
0.003744 0.027939 0.000000
0.008704 0.028105 0.000000
0.014170 0.028223 0.000000
0.020031 0.028293 0.000000
0.026215 0.028320 0.000000
0.032673 0.028318 0.000000
0.039374 0.028300 0.000000
0.046297 0.028281 0.000000
0.053434 0.028272 0.000000
0.074452 0.028375 0.000000
0.094667 0.028700 0.000000
0.114169 0.029226 0.000000
0.133132 0.029925 0.000000
0.151681 0.030776 0.000000
0.169916 0.031766 0.000000
0.187918 0.032886 0.000000
0.205757 0.034133 0.000000
0.223492 0.035504 0.000000
0.241177 0.036999 0.000000
0.258859 0.038619 0.000000
0.276582 0.040368 0.000000
0.294385 0.042247 0.000000
0.312304 0.044261 0.000000
0.330373 0.046414 0.000000
0.348624 0.048710 0.000000
0.367088 0.051154 0.000000
0.385791 0.053751 0.000000
0.404760 0.056507 0.000000
0.424022 0.059426 0.000000
0.443601 0.062513 0.000000
0.463519 0.065774 0.000000
0.483799 0.069213 0.000000
0.504427 0.072837 0.000000
0.524434 0.076648 0.000000
0.543489 0.080654 0.000000
0.561721 0.084856 0.000000
0.579236 0.089262 0.000000
0.596119 0.093873 0.000000
0.612442 0.098695 0.000000
0.628263 0.103731 0.000000
0.643634 0.108985 0.000000
0.658595 0.114461 0.000000
0.673183 0.120161 0.000000
0.687429 0.126090 0.000000
0.701359 0.132250 0.000000
0.714994 0.138645 0.000000
0.728355 0.145279 0.000000
0.741457 0.152155 0.000000
0.754315 0.159276 0.000000
0.766940 0.166647 0.000000
0.779342 0.174272 0.000000
0.791529 0.182155 0.000000
0.803509 0.190301 0.000000
0.815286 0.198717 0.000000
0.826865 0.207407 0.000000
0.838249 0.216377 0.000000
0.849441 0.225636 0.000000
0.860441 0.235190 0.000000
0.871250 0.245047 0.000000
0.881869 0.255216 0.000000
0.892296 0.265706 0.000000
0.902529 0.276527 0.000000
0.912569 0.287689 0.000000
0.922411 0.299204 0.000000
0.932054 0.311082 0.000000
0.004757 0.035022 0.000000
0.009566 0.035183 0.000000
0.014846 0.035311 0.000000
0.020523 0.035401 0.000000
0.026547 0.035455 0.000000
0.032878 0.035478 0.000000
0.039488 0.035478 0.000000
0.046352 0.035464 0.000000
0.053455 0.035448 0.000000
0.074458 0.035463 0.000000
0.094696 0.035650 0.000000
0.114218 0.036026 0.000000
0.133191 0.036578 0.000000
0.151743 0.037289 0.000000
0.169975 0.038147 0.000000
0.187971 0.039143 0.000000
0.205801 0.040271 0.000000
0.223526 0.041528 0.000000
0.241200 0.042914 0.000000
0.258872 0.044428 0.000000
0.276584 0.046072 0.000000
0.294376 0.047849 0.000000
0.312285 0.049761 0.000000
0.330345 0.051812 0.000000
0.348587 0.054007 0.000000
0.367042 0.056350 0.000000
0.385737 0.058845 0.000000
0.404699 0.061497 0.000000
0.423954 0.064311 0.000000
0.443526 0.067293 0.000000
0.463438 0.070448 0.000000
0.483712 0.073779 0.000000
0.504337 0.077294 0.000000
0.524346 0.080995 0.000000
0.543403 0.084890 0.000000
0.561638 0.088981 0.000000
0.579155 0.093273 0.000000
0.596041 0.097771 0.000000
0.612367 0.102480 0.000000
0.628191 0.107402 0.000000
0.643564 0.112543 0.000000
0.658528 0.117905 0.000000
0.673119 0.123493 0.000000
0.687368 0.129311 0.000000
0.701300 0.135361 0.000000
0.714938 0.141647 0.000000
0.728301 0.148173 0.000000
0.741406 0.154944 0.000000
0.754266 0.161962 0.000000
0.766893 0.169231 0.000000
0.779298 0.176757 0.000000
0.791487 0.184544 0.000000
0.803469 0.192598 0.000000
0.815248 0.200922 0.000000
0.826829 0.209524 0.000000
0.838215 0.218409 0.000000
0.849408 0.227586 0.000000
0.860410 0.237060 0.000000
0.871221 0.246840 0.000000
0.881841 0.256935 0.000000
0.892269 0.267354 0.000000
0.902504 0.278107 0.000000
0.912545 0.289204 0.000000
0.922388 0.300655 0.000000
0.932032 0.312473 0.000000
0.005826 0.042269 0.000000
0.010511 0.042425 0.000000
0.015635 0.042556 0.000000
0.021149 0.042658 0.000000
0.027017 0.042731 0.000000
0.033211 0.042775 0.000000
0.039706 0.042794 0.000000
0.046481 0.042796 0.000000
0.053518 0.042785 0.000000
0.074435 0.042765 0.000000
0.094663 0.042858 0.000000
0.114196 0.043113 0.000000
0.133179 0.043534 0.000000
0.151737 0.044115 0.000000
0.169971 0.044845 0.000000
0.187965 0.045717 0.000000
0.205792 0.046725 0.000000
0.223512 0.047866 0.000000
0.241180 0.049139 0.000000
0.258844 0.050542 0.000000
0.276549 0.052078 0.000000
0.294333 0.053747 0.000000
0.312235 0.055552 0.000000
0.330287 0.057497 0.000000
0.348523 0.059586 0.000000
0.366970 0.061822 0.000000
0.385659 0.064209 0.000000
0.404615 0.066754 0.000000
0.423864 0.069459 0.000000
0.443431 0.072331 0.000000
0.463338 0.075374 0.000000
0.483608 0.078594 0.000000
0.504230 0.081995 0.000000
0.524243 0.085582 0.000000
0.543305 0.089360 0.000000
0.561543 0.093335 0.000000
0.579064 0.097510 0.000000
0.595954 0.101891 0.000000
0.612283 0.106481 0.000000
0.628110 0.111285 0.000000
0.643487 0.116308 0.000000
0.658454 0.121553 0.000000
0.673048 0.127024 0.000000
0.687300 0.132725 0.000000
0.701235 0.138660 0.000000
0.714877 0.144833 0.000000
0.728243 0.151247 0.000000
0.741350 0.157907 0.000000
0.754213 0.164817 0.000000
0.766843 0.171981 0.000000
0.779250 0.179403 0.000000
0.791442 0.187089 0.000000
0.803426 0.195044 0.000000
0.815207 0.203273 0.000000
0.826790 0.211782 0.000000
0.838178 0.220578 0.000000
0.849373 0.229667 0.000000
0.860377 0.239057 0.000000
0.871189 0.248757 0.000000
0.881811 0.258774 0.000000
0.892240 0.269117 0.000000
0.902477 0.279797 0.000000
0.912519 0.290824 0.000000
0.922363 0.302209 0.000000
0.932009 0.313963 0.000000
0.006955 0.049696 0.000000
0.011534 0.049845 0.000000
0.016525 0.049976 0.000000
0.021894 0.050084 0.000000
0.027616 0.050169 0.000000
0.033672 0.050228 0.000000
0.040042 0.050265 0.000000
0.046710 0.050282 0.000000
0.053660 0.050284 0.000000
0.074424 0.050261 0.000000
0.094601 0.050297 0.000000
0.114122 0.050459 0.000000
0.133107 0.050771 0.000000
0.151670 0.051233 0.000000
0.169908 0.051843 0.000000
0.187904 0.052596 0.000000
0.205729 0.053486 0.000000
0.223448 0.054511 0.000000
0.241112 0.055669 0.000000
0.258773 0.056959 0.000000
0.276473 0.058383 0.000000
0.294253 0.059941 0.000000
0.312150 0.061636 0.000000
0.330197 0.063471 0.000000
0.348427 0.065449 0.000000
0.366870 0.067574 0.000000
0.385554 0.069850 0.000000
0.404506 0.072282 0.000000
0.423751 0.074875 0.000000
0.443314 0.077632 0.000000
0.463217 0.080560 0.000000
0.483484 0.083663 0.000000
0.504105 0.086946 0.000000
0.524125 0.090415 0.000000
0.543191 0.094073 0.000000
0.561435 0.097927 0.000000
0.578961 0.101981 0.000000
0.595855 0.106240 0.000000
0.612189 0.110708 0.000000
0.628021 0.115389 0.000000
0.643402 0.120289 0.000000
0.658373 0.125412 0.000000
0.672971 0.130761 0.000000
0.687227 0.136342 0.000000
0.701165 0.142157 0.000000
0.714810 0.148211 0.000000
0.728179 0.154509 0.000000
0.741290 0.161054 0.000000
0.754156 0.167851 0.000000
0.766789 0.174904 0.000000
0.779198 0.182218 0.000000
0.791393 0.189798 0.000000
0.803379 0.197649 0.000000
0.815163 0.205778 0.000000
0.826748 0.214190 0.000000
0.838138 0.222891 0.000000
0.849335 0.231888 0.000000
0.860341 0.241190 0.000000
0.871155 0.250804 0.000000
0.881778 0.260738 0.000000
0.892209 0.271002 0.000000
0.902447 0.281605 0.000000
0.912491 0.292558 0.000000
0.922337 0.303872 0.000000
0.931983 0.315557 0.000000
0.008150 0.057311 0.000000
0.012636 0.057453 0.000000
0.017510 0.057581 0.000000
0.022748 0.057692 0.000000
0.028335 0.057783 0.000000
0.034257 0.057854 0.000000
0.040501 0.057904 0.000000
0.047053 0.057935 0.000000
0.053900 0.057950 0.000000
0.074459 0.057941 0.000000
0.094539 0.057947 0.000000
0.114021 0.058044 0.000000
0.132993 0.058267 0.000000
0.151553 0.058627 0.000000
0.169791 0.059128 0.000000
0.187789 0.059767 0.000000
0.205616 0.060543 0.000000
0.223334 0.061454 0.000000
0.240998 0.062498 0.000000
0.258657 0.063675 0.000000
0.276356 0.064986 0.000000
0.294133 0.066431 0.000000
0.312028 0.068013 0.000000
0.330072 0.069735 0.000000
0.348300 0.071599 0.000000
0.366740 0.073610 0.000000
0.385421 0.075771 0.000000
0.404370 0.078088 0.000000
0.423612 0.080563 0.000000
0.443172 0.083203 0.000000
0.463074 0.086011 0.000000
0.483338 0.088994 0.000000
0.503960 0.092155 0.000000
0.523988 0.095501 0.000000
0.543062 0.099036 0.000000
0.561313 0.102765 0.000000
0.578846 0.106693 0.000000
0.595746 0.110826 0.000000
0.612085 0.115167 0.000000
0.627922 0.119722 0.000000
0.643308 0.124496 0.000000
0.658284 0.129492 0.000000
0.672886 0.134715 0.000000
0.687146 0.140170 0.000000
0.701089 0.145861 0.000000
0.714737 0.151792 0.000000
0.728111 0.157968 0.000000
0.741225 0.164393 0.000000
0.754094 0.171072 0.000000
0.766730 0.178009 0.000000
0.779142 0.185210 0.000000
0.791340 0.192679 0.000000
0.803329 0.200422 0.000000
0.815115 0.208446 0.000000
0.826703 0.216755 0.000000
0.838096 0.225356 0.000000
0.849295 0.234257 0.000000
0.860302 0.243465 0.000000
0.871118 0.252989 0.000000
0.881743 0.262836 0.000000
0.892176 0.273015 0.000000
0.902416 0.283537 0.000000
0.912461 0.294412 0.000000
0.922308 0.305650 0.000000
0.931956 0.317263 0.000000
0.011878 0.079581 0.000000
0.016144 0.079703 0.000000
0.020744 0.079818 0.000000
0.025674 0.079924 0.000000
0.030931 0.080020 0.000000
0.036512 0.080103 0.000000
0.042414 0.080174 0.000000
0.048633 0.080230 0.000000
0.055164 0.080272 0.000000
0.074974 0.080326 0.000000
0.094583 0.080328 0.000000
0.113788 0.080341 0.000000
0.132603 0.080413 0.000000
0.151078 0.080572 0.000000
0.169272 0.080834 0.000000
0.187247 0.081211 0.000000
0.205064 0.081707 0.000000
0.222780 0.082326 0.000000
0.240444 0.083070 0.000000
0.258105 0.083941 0.000000
0.275806 0.084941 0.000000
0.293586 0.086071 0.000000
0.311482 0.087336 0.000000
0.329529 0.088736 0.000000
0.347758 0.090276 0.000000
0.366199 0.091958 0.000000
0.384881 0.093788 0.000000
0.403831 0.095768 0.000000
0.423074 0.097904 0.000000
0.442635 0.100199 0.000000
0.462537 0.102660 0.000000
0.482803 0.105291 0.000000
0.503433 0.108097 0.000000
0.523498 0.111083 0.000000
0.542606 0.114255 0.000000
0.560886 0.117618 0.000000
0.578446 0.121177 0.000000
0.595370 0.124938 0.000000
0.611731 0.128906 0.000000
0.627589 0.133087 0.000000
0.642994 0.137485 0.000000
0.657987 0.142106 0.000000
0.672606 0.146955 0.000000
0.686881 0.152037 0.000000
0.700839 0.157358 0.000000
0.714501 0.162921 0.000000
0.727887 0.168733 0.000000
0.741013 0.174799 0.000000
0.753893 0.181123 0.000000
0.766540 0.187712 0.000000
0.778963 0.194570 0.000000
0.791170 0.201704 0.000000
0.803168 0.209119 0.000000
0.814963 0.216821 0.000000
0.826558 0.224817 0.000000
0.837958 0.233114 0.000000
0.849164 0.241720 0.000000
0.860178 0.250641 0.000000
0.871001 0.259885 0.000000
0.881632 0.269463 0.000000
0.892070 0.279381 0.000000
0.902315 0.289651 0.000000
0.912364 0.300283 0.000000
0.922216 0.311286 0.000000
0.931869 0.322673 0.000000
0.015778 0.100821 0.000000
0.019872 0.100925 0.000000
0.024267 0.101026 0.000000
0.028964 0.101122 0.000000
0.033967 0.101211 0.000000
0.039279 0.101293 0.000000
0.044900 0.101367 0.000000
0.050833 0.101431 0.000000
0.057076 0.101484 0.000000
0.076118 0.101579 0.000000
0.095133 0.101607 0.000000
0.113908 0.101611 0.000000
0.132423 0.101631 0.000000
0.150692 0.101695 0.000000
0.168747 0.101826 0.000000
0.186632 0.102038 0.000000
0.204391 0.102344 0.000000
0.222071 0.102752 0.000000
0.239714 0.103268 0.000000
0.257365 0.103897 0.000000
0.275062 0.104643 0.000000
0.292843 0.105510 0.000000
0.310744 0.106502 0.000000
0.328797 0.107622 0.000000
0.347034 0.108875 0.000000
0.365483 0.110264 0.000000
0.384174 0.111793 0.000000
0.403133 0.113468 0.000000
0.422386 0.115293 0.000000
0.441956 0.117272 0.000000
0.461868 0.119411 0.000000
0.482142 0.121714 0.000000
0.502789 0.124188 0.000000
0.522907 0.126838 0.000000
0.542060 0.129669 0.000000
0.560381 0.132687 0.000000
0.577976 0.135898 0.000000
0.594933 0.139307 0.000000
0.611323 0.142921 0.000000
0.627207 0.146745 0.000000
0.642636 0.150785 0.000000
0.657652 0.155047 0.000000
0.672291 0.159536 0.000000
0.686585 0.164259 0.000000
0.700560 0.169221 0.000000
0.714238 0.174427 0.000000
0.727639 0.179885 0.000000
0.740779 0.185599 0.000000
0.753673 0.191576 0.000000
0.766332 0.197821 0.000000
0.778766 0.204340 0.000000
0.790984 0.211141 0.000000
0.802992 0.218228 0.000000
0.814796 0.225610 0.000000
0.826401 0.233292 0.000000
0.837809 0.241282 0.000000
0.849023 0.249588 0.000000
0.860044 0.258218 0.000000
0.870874 0.267179 0.000000
0.881511 0.276481 0.000000
0.891955 0.286132 0.000000
0.902206 0.296143 0.000000
0.912261 0.306524 0.000000
0.922118 0.317285 0.000000
0.931774 0.328437 0.000000
0.019846 0.121152 0.000000
0.023794 0.121241 0.000000
0.028018 0.121328 0.000000
0.032523 0.121413 0.000000
0.037316 0.121494 0.000000
0.042403 0.121569 0.000000
0.047787 0.121639 0.000000
0.053472 0.121703 0.000000
0.059462 0.121758 0.000000
0.077788 0.121871 0.000000
0.096194 0.121918 0.000000
0.114477 0.121931 0.000000
0.132607 0.121936 0.000000
0.150582 0.121958 0.000000
0.168417 0.122019 0.000000
0.186139 0.122134 0.000000
0.203780 0.122318 0.000000
0.221375 0.122581 0.000000
0.238961 0.122932 0.000000
0.256572 0.123378 0.000000
0.274243 0.123926 0.000000
0.292010 0.124581 0.000000
0.309904 0.125349 0.000000
0.327956 0.126234 0.000000
0.346196 0.127242 0.000000
0.364652 0.128378 0.000000
0.383352 0.129645 0.000000
0.402322 0.131050 0.000000
0.421586 0.132597 0.000000
0.441169 0.134291 0.000000
0.461093 0.136139 0.000000
0.481381 0.138145 0.000000
0.502047 0.140315 0.000000
0.522228 0.142655 0.000000
0.541438 0.145171 0.000000
0.559807 0.147870 0.000000
0.577446 0.150756 0.000000
0.594441 0.153837 0.000000
0.610866 0.157118 0.000000
0.626782 0.160606 0.000000
0.642239 0.164308 0.000000
0.657281 0.168229 0.000000
0.671944 0.172376 0.000000
0.686260 0.176756 0.000000
0.700254 0.181374 0.000000
0.713951 0.186238 0.000000
0.727369 0.191353 0.000000
0.740525 0.196727 0.000000
0.753434 0.202365 0.000000
0.766107 0.208274 0.000000
0.778554 0.214462 0.000000
0.790783 0.220935 0.000000
0.802803 0.227699 0.000000
0.814617 0.234763 0.000000
0.826231 0.242133 0.000000
0.837649 0.249817 0.000000
0.848871 0.257823 0.000000
0.859900 0.266159 0.000000
0.870737 0.274834 0.000000
0.881381 0.283857 0.000000
0.891832 0.293237 0.000000
0.902089 0.302984 0.000000
0.912149 0.313108 0.000000
0.922011 0.323620 0.000000
0.931673 0.334531 0.000000
0.024096 0.140776 0.000000
0.027911 0.140853 0.000000
0.031983 0.140928 0.000000
0.036320 0.141002 0.000000
0.040931 0.141073 0.000000
0.045820 0.141141 0.000000
0.050995 0.141205 0.000000
0.056462 0.141264 0.000000
0.062224 0.141317 0.000000
0.079890 0.141433 0.000000
0.097704 0.141491 0.000000
0.115478 0.141512 0.000000
0.133184 0.141514 0.000000
0.150813 0.141519 0.000000
0.168370 0.141543 0.000000
0.185872 0.141601 0.000000
0.203341 0.141706 0.000000
0.220804 0.141871 0.000000
0.238288 0.142104 0.000000
0.255824 0.142415 0.000000
0.273441 0.142812 0.000000
0.291168 0.143301 0.000000
0.309036 0.143889 0.000000
0.327072 0.144581 0.000000
0.345303 0.145384 0.000000
0.363758 0.146304 0.000000
0.382460 0.147346 0.000000
0.401435 0.148516 0.000000
0.420708 0.149818 0.000000
0.440302 0.151260 0.000000
0.460238 0.152847 0.000000
0.480540 0.154585 0.000000
0.501225 0.156480 0.000000
0.521477 0.158538 0.000000
0.540748 0.160765 0.000000
0.559173 0.163168 0.000000
0.576860 0.165754 0.000000
0.593899 0.168529 0.000000
0.610363 0.171500 0.000000
0.626314 0.174674 0.000000
0.641804 0.178057 0.000000
0.656875 0.181656 0.000000
0.671565 0.185479 0.000000
0.685905 0.189532 0.000000
0.699922 0.193822 0.000000
0.713640 0.198356 0.000000
0.727077 0.203142 0.000000
0.740251 0.208186 0.000000
0.753176 0.213496 0.000000
0.765863 0.219079 0.000000
0.778324 0.224942 0.000000
0.790567 0.231093 0.000000
0.802599 0.237539 0.000000
0.814425 0.244289 0.000000
0.826049 0.251349 0.000000
0.837476 0.258727 0.000000
0.848708 0.266434 0.000000
0.859746 0.274476 0.000000
0.870591 0.282863 0.000000
0.881242 0.291604 0.000000
0.891700 0.300709 0.000000
0.901963 0.310187 0.000000
0.912030 0.320050 0.000000
0.921898 0.330307 0.000000
0.931565 0.340970 0.000000
0.028536 0.159850 0.000000
0.032226 0.159915 0.000000
0.036159 0.159980 0.000000
0.040343 0.160044 0.000000
0.044787 0.160106 0.000000
0.049498 0.160166 0.000000
0.054484 0.160223 0.000000
0.059751 0.160276 0.000000
0.065306 0.160326 0.000000
0.082360 0.160437 0.000000
0.099606 0.160498 0.000000
0.116876 0.160523 0.000000
0.134143 0.160527 0.000000
0.151396 0.160524 0.000000
0.168638 0.160527 0.000000
0.185878 0.160551 0.000000
0.203133 0.160606 0.000000
0.220421 0.160704 0.000000
0.237766 0.160855 0.000000
0.255191 0.161068 0.000000
0.272721 0.161350 0.000000
0.290383 0.161710 0.000000
0.308200 0.162154 0.000000
0.326200 0.162691 0.000000
0.344406 0.163325 0.000000
0.362844 0.164064 0.000000
0.381537 0.164914 0.000000
0.400510 0.165881 0.000000
0.419784 0.166971 0.000000
0.439383 0.168191 0.000000
0.459328 0.169547 0.000000
0.479640 0.171045 0.000000
0.500340 0.172691 0.000000
0.520667 0.174493 0.000000
0.540003 0.176458 0.000000
0.558486 0.178591 0.000000
0.576226 0.180900 0.000000
