luts/Rec2100_HLG/DJI_Osmo_DLogM_to_Rec2100_HLG_BT2408_Neutral.cube
TITLE "OpenOSV D-Log M to Rec.2100 HLG, BT.2408 Neutral - DJI Osmo 360 / Pocket 3"
LUT_3D_SIZE 65
DOMAIN_MIN 0.000000 0.000000 0.000000
DOMAIN_MAX 1.000000 1.000000 1.000000
0.000000 0.000000 0.000000
0.024491 0.005644 0.000000
0.035281 0.008131 0.000000
0.044024 0.010146 0.000000
0.051804 0.011939 0.000000
0.059036 0.013606 0.000000
0.065932 0.015195 0.000000
0.072619 0.016736 0.000000
0.079182 0.018249 0.000000
0.097270 0.022418 0.000000
0.113650 0.026192 0.000000
0.128960 0.029721 0.000000
0.143612 0.033098 0.000000
0.157855 0.036380 0.000000
0.171857 0.039607 0.000000
0.185737 0.042806 0.000000
0.199586 0.045998 0.000000
0.213477 0.049199 0.000000
0.227467 0.052424 0.000000
0.241607 0.055682 0.000000
0.255940 0.058986 0.000000
0.270504 0.062342 0.000000
0.285334 0.065760 0.000000
0.300464 0.069247 0.000000
0.315924 0.072810 0.000000
0.331743 0.076456 0.000000
0.347949 0.080191 0.000000
0.364571 0.084022 0.000000
0.381635 0.087954 0.000000
0.399169 0.091995 0.000000
0.417200 0.096151 0.000000
0.435754 0.100427 0.000000
0.454860 0.104830 0.000000
0.474544 0.109367 0.000000
0.494834 0.114043 0.000000
0.515333 0.118866 0.000000
0.535071 0.123842 0.000000
0.554113 0.128978 0.000000
0.572551 0.134281 0.000000
0.590459 0.139758 0.000000
0.607901 0.145417 0.000000
0.624932 0.151266 0.000000
0.641596 0.157311 0.000000
0.657934 0.163562 0.000000
0.673980 0.170027 0.000000
0.689763 0.176713 0.000000
0.705309 0.183631 0.000000
0.720642 0.190790 0.000000
0.735780 0.198198 0.000000
0.750743 0.205866 0.000000
0.765546 0.213803 0.000000
0.780203 0.222021 0.000000
0.794728 0.230530 0.000000
0.809130 0.239341 0.000000
0.823422 0.248466 0.000000
0.837612 0.257917 0.000000
0.851708 0.267707 0.000000
0.865718 0.277848 0.000000
0.879650 0.288353 0.000000
0.893508 0.299237 0.000000
0.907300 0.310514 0.000000
0.921031 0.322198 0.000000
0.934704 0.334305 0.000000
0.948325 0.346851 0.000000
0.961898 0.359852 0.000000
0.010650 0.027132 0.000000
0.026707 0.027713 0.000000
0.036854 0.028324 0.000000
0.045294 0.028967 0.000000
0.052888 0.029643 0.000000
0.059989 0.030353 0.000000
0.066786 0.031097 0.000000
0.073396 0.031879 0.000000
0.079895 0.032698 0.000000
0.097852 0.035195 0.000000
0.114148 0.037712 0.000000
0.129399 0.040243 0.000000
0.144006 0.042797 0.000000
0.158214 0.045384 0.000000
0.172186 0.048009 0.000000
0.186042 0.050681 0.000000
0.199870 0.053404 0.000000
0.213743 0.056185 0.000000
0.227717 0.059029 0.000000
0.241842 0.061941 0.000000
0.256161 0.064927 0.000000
0.270713 0.067991 0.000000
0.285533 0.071138 0.000000
0.300653 0.074373 0.000000
0.316103 0.077701 0.000000
0.331913 0.081127 0.000000
0.348112 0.084657 0.000000
0.364726 0.088294 0.000000
0.381784 0.092044 0.000000
0.399311 0.095913 0.000000
0.417336 0.099906 0.000000
0.435884 0.104028 0.000000
0.454984 0.108284 0.000000
0.474663 0.112682 0.000000
0.494949 0.117226 0.000000
0.515437 0.121923 0.000000
0.535164 0.126779 0.000000
0.554197 0.131801 0.000000
0.572626 0.136995 0.000000
0.590527 0.142367 0.000000
0.607963 0.147927 0.000000
0.624988 0.153680 0.000000
0.641648 0.159634 0.000000
0.657981 0.165797 0.000000
0.674023 0.172178 0.000000
0.689802 0.178784 0.000000
0.705345 0.185625 0.000000
0.720675 0.192709 0.000000
0.735811 0.200046 0.000000
0.750771 0.207646 0.000000
0.765572 0.215518 0.000000
0.780227 0.223673 0.000000
0.794749 0.232121 0.000000
0.809151 0.240874 0.000000
0.823441 0.249943 0.000000
0.837629 0.259341 0.000000
0.851724 0.269078 0.000000
0.865733 0.279169 0.000000
0.879663 0.289627 0.000000
0.893521 0.300465 0.000000
0.907312 0.311697 0.000000
0.921041 0.323338 0.000000
0.934714 0.335404 0.000000
0.948335 0.347911 0.000000
0.961907 0.360874 0.000000
0.015343 0.039085 0.000000
0.028900 0.039491 0.000000
0.038473 0.039922 0.000000
0.046621 0.040381 0.000000
0.054028 0.040868 0.000000
0.060997 0.041386 0.000000
0.067693 0.041935 0.000000
0.074222 0.042518 0.000000
0.080655 0.043135 0.000000
0.098473 0.045058 0.000000
0.114681 0.047050 0.000000
0.129870 0.049102 0.000000
0.144429 0.051216 0.000000
0.158599 0.053396 0.000000
0.172540 0.055645 0.000000
0.186370 0.057966 0.000000
0.200175 0.060361 0.000000
0.214028 0.062835 0.000000
0.227984 0.065390 0.000000
0.242094 0.068031 0.000000
0.256399 0.070760 0.000000
0.270938 0.073581 0.000000
0.285746 0.076499 0.000000
0.300855 0.079516 0.000000
0.316296 0.082637 0.000000
0.332097 0.085867 0.000000
0.348287 0.089209 0.000000
0.364894 0.092668 0.000000
0.381944 0.096248 0.000000
0.399464 0.099954 0.000000
0.417482 0.103791 0.000000
0.436024 0.107765 0.000000
0.455118 0.111879 0.000000
0.474792 0.116141 0.000000
0.495072 0.120555 0.000000
0.515548 0.125127 0.000000
0.535264 0.129863 0.000000
0.554287 0.134770 0.000000
0.572707 0.139853 0.000000
0.590600 0.145121 0.000000
0.608030 0.150578 0.000000
0.625049 0.156234 0.000000
0.641703 0.162094 0.000000
0.658032 0.168167 0.000000
0.674069 0.174461 0.000000
0.689844 0.180984 0.000000
0.705384 0.187745 0.000000
0.720710 0.194752 0.000000
0.735843 0.202015 0.000000
0.750801 0.209543 0.000000
0.765599 0.217346 0.000000
0.780253 0.225435 0.000000
0.794773 0.233820 0.000000
0.809172 0.242511 0.000000
0.823461 0.251522 0.000000
0.837647 0.260862 0.000000
0.851741 0.270545 0.000000
0.865749 0.280583 0.000000
0.879678 0.290990 0.000000
0.893534 0.301779 0.000000
0.907325 0.312964 0.000000
0.921053 0.324560 0.000000
0.934725 0.336582 0.000000
0.948345 0.349046 0.000000
0.961916 0.361969 0.000000
0.019145 0.048771 0.000000
0.031086 0.049097 0.000000
0.040141 0.049444 0.000000
0.048007 0.049815 0.000000
0.055228 0.050211 0.000000
0.062062 0.050634 0.000000
0.068655 0.051084 0.000000
0.075101 0.051563 0.000000
0.081463 0.052074 0.000000
0.099137 0.053677 0.000000
0.115251 0.055360 0.000000
0.130374 0.057114 0.000000
0.144882 0.058942 0.000000
0.159012 0.060845 0.000000
0.172920 0.062828 0.000000
0.186721 0.064892 0.000000
0.200503 0.067041 0.000000
0.214334 0.069276 0.000000
0.228272 0.071602 0.000000
0.242364 0.074021 0.000000
0.256655 0.076537 0.000000
0.271180 0.079153 0.000000
0.285976 0.081872 0.000000
0.301073 0.084698 0.000000
0.316503 0.087635 0.000000
0.332294 0.090687 0.000000
0.348475 0.093857 0.000000
0.365073 0.097151 0.000000
0.382115 0.100571 0.000000
0.399628 0.104124 0.000000
0.417639 0.107813 0.000000
0.436175 0.111643 0.000000
0.455262 0.115620 0.000000
0.474930 0.119749 0.000000
0.495205 0.124034 0.000000
0.515669 0.128482 0.000000
0.535372 0.133099 0.000000
0.554384 0.137891 0.000000
0.572795 0.142863 0.000000
0.590679 0.148024 0.000000
0.608101 0.153378 0.000000
0.625114 0.158934 0.000000
0.641762 0.164698 0.000000
0.658086 0.170679 0.000000
0.674119 0.176883 0.000000
0.689890 0.183320 0.000000
0.705426 0.189998 0.000000
0.720748 0.196925 0.000000
0.735878 0.204110 0.000000
0.750834 0.211564 0.000000
0.765629 0.219295 0.000000
0.780280 0.227315 0.000000
0.794798 0.235632 0.000000
0.809196 0.244260 0.000000
0.823482 0.253208 0.000000
0.837667 0.262488 0.000000
0.851759 0.272113 0.000000
0.865766 0.282096 0.000000
0.879694 0.292449 0.000000
0.893549 0.303185 0.000000
0.907338 0.314320 0.000000
0.921066 0.325868 0.000000
0.934737 0.337844 0.000000
0.948355 0.350263 0.000000
0.961926 0.363142 0.000000
0.022528 0.057390 0.000000
0.033277 0.057667 0.000000
0.041860 0.057963 0.000000
0.049454 0.058280 0.000000
0.056490 0.058618 0.000000
0.063188 0.058980 0.000000
0.069674 0.059367 0.000000
0.076033 0.059780 0.000000
0.082324 0.060221 0.000000
0.099845 0.061613 0.000000
0.115861 0.063084 0.000000
0.130913 0.064629 0.000000
0.145368 0.066250 0.000000
0.159454 0.067949 0.000000
0.173327 0.069730 0.000000
0.187098 0.071596 0.000000
0.200854 0.073549 0.000000
0.214662 0.075592 0.000000
0.228580 0.077729 0.000000
0.242655 0.079963 0.000000
0.256929 0.082298 0.000000
0.271440 0.084736 0.000000
0.286222 0.087281 0.000000
0.301307 0.089937 0.000000
0.316726 0.092709 0.000000
0.332507 0.095598 0.000000
0.348678 0.098611 0.000000
0.365266 0.101751 0.000000
0.382300 0.105022 0.000000
0.399804 0.108428 0.000000
0.417808 0.111976 0.000000
0.436336 0.115668 0.000000
0.455417 0.119511 0.000000
0.475078 0.123510 0.000000
0.495347 0.127669 0.000000
0.515798 0.131995 0.000000
0.535488 0.136493 0.000000
0.554488 0.141170 0.000000
0.572888 0.146031 0.000000
0.590764 0.151082 0.000000
0.608178 0.156332 0.000000
0.625184 0.161786 0.000000
0.641826 0.167453 0.000000
0.658144 0.173338 0.000000
0.674172 0.179451 0.000000
0.689939 0.185799 0.000000
0.705470 0.192390 0.000000
0.720789 0.199234 0.000000
0.735916 0.206339 0.000000
0.750868 0.213715 0.000000
0.765661 0.221372 0.000000
0.780309 0.229318 0.000000
0.794825 0.237566 0.000000
0.809221 0.246125 0.000000
0.823505 0.255008 0.000000
0.837689 0.264225 0.000000
0.851779 0.273789 0.000000
0.865784 0.283713 0.000000
0.879710 0.294009 0.000000
0.893565 0.304691 0.000000
0.907352 0.315773 0.000000
0.921079 0.327269 0.000000
0.934749 0.339195 0.000000
0.948367 0.351567 0.000000
0.961937 0.364400 0.000000
0.025673 0.065401 0.000000
0.035481 0.065644 0.000000
0.043633 0.065905 0.000000
0.050963 0.066183 0.000000
0.057817 0.066482 0.000000
0.064376 0.066801 0.000000
0.070754 0.067143 0.000000
0.077024 0.067509 0.000000
0.083240 0.067899 0.000000
0.100601 0.069136 0.000000
0.116514 0.070451 0.000000
0.131491 0.071838 0.000000
0.145889 0.073299 0.000000
0.159929 0.074839 0.000000
0.173764 0.076459 0.000000
0.187503 0.078164 0.000000
0.201231 0.079957 0.000000
0.215015 0.081841 0.000000
0.228912 0.083819 0.000000
0.242967 0.085894 0.000000
0.257224 0.088072 0.000000
0.271719 0.090354 0.000000
0.286487 0.092745 0.000000
0.301559 0.095249 0.000000
0.316965 0.097870 0.000000
0.332734 0.100612 0.000000
0.348895 0.103479 0.000000
0.365474 0.106475 0.000000
0.382498 0.109605 0.000000
0.399994 0.112874 0.000000
0.417989 0.116285 0.000000
0.436510 0.119845 0.000000
0.455583 0.123558 0.000000
0.475238 0.127430 0.000000
0.495500 0.131465 0.000000
0.515936 0.135670 0.000000
0.535612 0.140050 0.000000
0.554600 0.144612 0.000000
0.572989 0.149361 0.000000
0.590856 0.154304 0.000000
0.608261 0.159447 0.000000
0.625259 0.164799 0.000000
0.641894 0.170365 0.000000
0.658207 0.176153 0.000000
0.674229 0.182171 0.000000
0.689991 0.188427 0.000000
0.705518 0.194930 0.000000
0.720834 0.201688 0.000000
0.735957 0.208710 0.000000
0.750905 0.216005 0.000000
0.765695 0.223582 0.000000
0.780341 0.231453 0.000000
0.794854 0.239627 0.000000
0.809247 0.248116 0.000000
0.823530 0.256930 0.000000
0.837711 0.266080 0.000000
0.851800 0.275580 0.000000
0.865803 0.285441 0.000000
0.879728 0.295677 0.000000
0.893581 0.306301 0.000000
0.907368 0.317326 0.000000
0.921093 0.328769 0.000000
0.934762 0.340642 0.000000
0.948379 0.352963 0.000000
0.961948 0.365747 0.000000
0.028672 0.073041 0.000000
0.037708 0.073259 0.000000
0.045462 0.073492 0.000000
0.052538 0.073742 0.000000
0.059209 0.074010 0.000000
0.065630 0.074297 0.000000
0.071896 0.074605 0.000000
0.078075 0.074934 0.000000
0.084213 0.075286 0.000000
0.101408 0.076404 0.000000
0.117211 0.077595 0.000000
0.132109 0.078856 0.000000
0.146446 0.080190 0.000000
0.160438 0.081600 0.000000
0.174232 0.083088 0.000000
0.187937 0.084660 0.000000
0.201635 0.086318 0.000000
0.215394 0.088066 0.000000
0.229267 0.089907 0.000000
0.243302 0.091845 0.000000
0.257541 0.093884 0.000000
0.272019 0.096029 0.000000
0.286771 0.098282 0.000000
0.301829 0.100648 0.000000
0.317222 0.103132 0.000000
0.332979 0.105738 0.000000
0.349128 0.108469 0.000000
0.365697 0.111331 0.000000
0.382711 0.114328 0.000000
0.400198 0.117465 0.000000
0.418184 0.120747 0.000000
0.436696 0.124179 0.000000
0.455762 0.127767 0.000000
0.475409 0.131514 0.000000
0.495664 0.135428 0.000000
0.516085 0.139514 0.000000
0.535746 0.143777 0.000000
0.554720 0.148224 0.000000
0.573098 0.152860 0.000000
0.590954 0.157694 0.000000
0.608350 0.162730 0.000000
0.625340 0.167977 0.000000
0.641968 0.173441 0.000000
0.658274 0.179130 0.000000
0.674291 0.185051 0.000000
0.690047 0.191213 0.000000
0.705570 0.197624 0.000000
0.720881 0.204293 0.000000
0.736000 0.211228 0.000000
0.750945 0.218439 0.000000
0.765732 0.225935 0.000000
0.780375 0.233727 0.000000
0.794886 0.241824 0.000000
0.809276 0.250238 0.000000
0.823557 0.258980 0.000000
0.837736 0.268060 0.000000
0.851823 0.277492 0.000000
0.865825 0.287288 0.000000
0.879748 0.297460 0.000000
0.893599 0.308022 0.000000
0.907385 0.318988 0.000000
0.921109 0.330373 0.000000
0.934777 0.342191 0.000000
0.948392 0.354458 0.000000
0.961960 0.367190 0.000000
0.031580 0.080449 0.000000
0.039964 0.080647 0.000000
0.047350 0.080859 0.000000
0.054180 0.081087 0.000000
0.060671 0.081330 0.000000
0.066951 0.081592 0.000000
0.073105 0.081872 0.000000
0.079189 0.082172 0.000000
0.085247 0.082493 0.000000
0.102268 0.083514 0.000000
0.117956 0.084606 0.000000
0.132771 0.085764 0.000000
0.147043 0.086992 0.000000
0.160983 0.088293 0.000000
0.174734 0.089671 0.000000
0.188402 0.091129 0.000000
0.202069 0.092671 0.000000
0.215800 0.094301 0.000000
0.229649 0.096023 0.000000
0.243662 0.097840 0.000000
0.257881 0.099757 0.000000
0.272341 0.101777 0.000000
0.287077 0.103906 0.000000
0.302119 0.106147 0.000000
0.317498 0.108505 0.000000
0.333242 0.110985 0.000000
0.349379 0.113590 0.000000
0.365936 0.116326 0.000000
0.382940 0.119198 0.000000
0.400416 0.122210 0.000000
0.418393 0.125368 0.000000
0.436897 0.128677 0.000000
0.455954 0.132142 0.000000
0.475593 0.135769 0.000000
0.495841 0.139563 0.000000
0.516246 0.143531 0.000000
0.535889 0.147678 0.000000
0.554849 0.152011 0.000000
0.573214 0.156536 0.000000
0.591059 0.161259 0.000000
0.608446 0.166187 0.000000
0.625427 0.171328 0.000000
0.642047 0.176689 0.000000
0.658346 0.182276 0.000000
0.674357 0.188099 0.000000
0.690108 0.194164 0.000000
0.705625 0.200481 0.000000
0.720932 0.207057 0.000000
0.736047 0.213903 0.000000
0.750989 0.221027 0.000000
0.765772 0.228438 0.000000
0.780411 0.236147 0.000000
0.794919 0.244164 0.000000
0.809307 0.252500 0.000000
0.823585 0.261166 0.000000
0.837763 0.270173 0.000000
0.851847 0.279534 0.000000
0.865847 0.289260 0.000000
0.879769 0.299365 0.000000
0.893619 0.309863 0.000000
0.907403 0.320766 0.000000
0.921125 0.332090 0.000000
0.934792 0.343849 0.000000
0.948407 0.356059 0.000000
0.961974 0.368736 0.000000
0.034434 0.087720 0.000000
0.042255 0.087901 0.000000
0.049299 0.088096 0.000000
0.055891 0.088304 0.000000
0.062204 0.088528 0.000000
0.068344 0.088768 0.000000
0.074382 0.089026 0.000000
0.080369 0.089302 0.000000
0.086345 0.089598 0.000000
0.103185 0.090539 0.000000
0.118752 0.091547 0.000000
0.133478 0.092618 0.000000
0.147682 0.093756 0.000000
0.161567 0.094964 0.000000
0.175272 0.096247 0.000000
0.188902 0.097607 0.000000
0.202535 0.099048 0.000000
0.216236 0.100575 0.000000
0.230059 0.102191 0.000000
0.244048 0.103900 0.000000
0.258246 0.105707 0.000000
0.272686 0.107616 0.000000
0.287404 0.109632 0.000000
0.302431 0.111758 0.000000
0.317795 0.114000 0.000000
0.333525 0.116362 0.000000
0.349649 0.118850 0.000000
0.366193 0.121467 0.000000
0.383186 0.124220 0.000000
0.400652 0.127114 0.000000
0.418618 0.130153 0.000000
0.437113 0.133343 0.000000
0.456161 0.136690 0.000000
0.475791 0.140199 0.000000
0.496031 0.143877 0.000000
0.516418 0.147729 0.000000
0.536043 0.151761 0.000000
0.554987 0.155981 0.000000
0.573339 0.160393 0.000000
0.591172 0.165006 0.000000
0.608548 0.169826 0.000000
0.625520 0.174860 0.000000
0.642132 0.180115 0.000000
0.658424 0.185600 0.000000
0.674428 0.191321 0.000000
0.690173 0.197287 0.000000
0.705685 0.203507 0.000000
0.720987 0.209989 0.000000
0.736097 0.216742 0.000000
0.751035 0.223775 0.000000
0.765815 0.231098 0.000000
0.780451 0.238722 0.000000
0.794956 0.246655 0.000000
0.809341 0.254910 0.000000
0.823616 0.263496 0.000000
0.837791 0.272426 0.000000
0.851874 0.281712 0.000000
0.865872 0.291366 0.000000
0.879791 0.301400 0.000000
0.893640 0.311829 0.000000
0.907422 0.322666 0.000000
0.921143 0.333925 0.000000
0.934809 0.345622 0.000000
0.948422 0.357771 0.000000
0.961988 0.370390 0.000000
0.042300 0.107758 0.000000
0.048879 0.107906 0.000000
0.055082 0.108065 0.000000
0.061053 0.108235 0.000000
0.066880 0.108418 0.000000
0.072626 0.108614 0.000000
0.078334 0.108824 0.000000
0.084041 0.109050 0.000000
0.089772 0.109293 0.000000
0.106070 0.110066 0.000000
0.121267 0.110896 0.000000
0.135720 0.111782 0.000000
0.149712 0.112727 0.000000
0.163424 0.113734 0.000000
0.176986 0.114807 0.000000
0.190493 0.115949 0.000000
0.204020 0.117165 0.000000
0.217627 0.118459 0.000000
0.231367 0.119834 0.000000
0.245282 0.121295 0.000000
0.259412 0.122846 0.000000
0.273791 0.124493 0.000000
0.288453 0.126239 0.000000
0.303427 0.128090 0.000000
0.318743 0.130051 0.000000
0.334428 0.132126 0.000000
0.350511 0.134322 0.000000
0.367017 0.136644 0.000000
0.383972 0.139097 0.000000
0.401404 0.141686 0.000000
0.419339 0.144419 0.000000
0.437802 0.147301 0.000000
0.456822 0.150337 0.000000
0.476425 0.153535 0.000000
0.496639 0.156900 0.000000
0.516967 0.160440 0.000000
0.536536 0.164161 0.000000
0.555431 0.168069 0.000000
0.573739 0.172172 0.000000
0.591534 0.176477 0.000000
0.608877 0.180992 0.000000
0.625819 0.185723 0.000000
0.642405 0.190679 0.000000
0.658673 0.195868 0.000000
0.674655 0.201298 0.000000
0.690381 0.206977 0.000000
0.705876 0.212914 0.000000
0.721162 0.219118 0.000000
0.736259 0.225598 0.000000
0.751183 0.232363 0.000000
0.765951 0.239424 0.000000
0.780577 0.246790 0.000000
0.795072 0.254472 0.000000
0.809448 0.262481 0.000000
0.823715 0.270827 0.000000
0.837882 0.279523 0.000000
0.851958 0.288581 0.000000
0.865950 0.298012 0.000000
0.879864 0.307830 0.000000
0.893706 0.318048 0.000000
0.907484 0.328680 0.000000
0.921201 0.339740 0.000000
0.934862 0.351243 0.000000
0.948471 0.363205 0.000000
0.962033 0.375640 0.000000
0.049423 0.125904 0.000000
0.055158 0.126030 0.000000
0.060724 0.126166 0.000000
0.066187 0.126312 0.000000
0.071598 0.126469 0.000000
0.076992 0.126637 0.000000
0.082399 0.126818 0.000000
0.087842 0.127012 0.000000
0.093340 0.127220 0.000000
0.109106 0.127884 0.000000
0.123931 0.128600 0.000000
0.138106 0.129364 0.000000
0.151878 0.130182 0.000000
0.165411 0.131055 0.000000
0.178822 0.131987 0.000000
0.192200 0.132982 0.000000
0.205615 0.134043 0.000000
0.219123 0.135175 0.000000
0.232775 0.136382 0.000000
0.246610 0.137668 0.000000
0.260668 0.139036 0.000000
0.274982 0.140493 0.000000
0.289583 0.142043 0.000000
0.304502 0.143691 0.000000
0.319766 0.145441 0.000000
0.335404 0.147300 0.000000
0.351442 0.149273 0.000000
0.367906 0.151365 0.000000
0.384822 0.153583 0.000000
0.402217 0.155933 0.000000
0.420117 0.158420 0.000000
0.438548 0.161051 0.000000
0.457537 0.163833 0.000000
0.477110 0.166772 0.000000
0.497296 0.169875 0.000000
0.517560 0.173150 0.000000
0.537068 0.176603 0.000000
0.555909 0.180242 0.000000
0.574171 0.184074 0.000000
0.591925 0.188107 0.000000
0.609232 0.192349 0.000000
0.626142 0.196807 0.000000
0.642699 0.201491 0.000000
0.658941 0.206408 0.000000
0.674901 0.211568 0.000000
0.690606 0.216978 0.000000
0.706083 0.222648 0.000000
0.721352 0.228588 0.000000
0.736433 0.234807 0.000000
0.751343 0.241314 0.000000
0.766099 0.248120 0.000000
0.780712 0.255235 0.000000
0.795197 0.262671 0.000000
0.809564 0.270437 0.000000
0.823822 0.278545 0.000000
0.837981 0.287007 0.000000
0.852049 0.295836 0.000000
0.866034 0.305043 0.000000
0.879942 0.314642 0.000000
0.893779 0.324645 0.000000
0.907551 0.335068 0.000000
0.921263 0.345924 0.000000
0.934919 0.357228 0.000000
0.948524 0.368995 0.000000
0.962083 0.381242 0.000000
0.056081 0.142865 0.000000
0.061196 0.142977 0.000000
0.066256 0.143096 0.000000
0.071297 0.143225 0.000000
0.076346 0.143363 0.000000
0.081426 0.143512 0.000000
0.086557 0.143671 0.000000
0.091753 0.143842 0.000000
0.097030 0.144026 0.000000
0.112279 0.144613 0.000000
0.126733 0.145246 0.000000
0.140626 0.145924 0.000000
0.154173 0.146649 0.000000
0.167521 0.147424 0.000000
0.180775 0.148254 0.000000
0.194019 0.149140 0.000000
0.207316 0.150088 0.000000
0.220720 0.151099 0.000000
0.234279 0.152180 0.000000
0.248030 0.153333 0.000000
0.262012 0.154563 0.000000
0.276256 0.155875 0.000000
0.290793 0.157273 0.000000
0.305653 0.158763 0.000000
0.320863 0.160349 0.000000
0.336449 0.162037 0.000000
0.352439 0.163832 0.000000
0.368859 0.165741 0.000000
0.385734 0.167769 0.000000
0.403089 0.169922 0.000000
0.420952 0.172208 0.000000
0.439348 0.174631 0.000000
0.458304 0.177200 0.000000
0.477846 0.179921 0.000000
0.498002 0.182801 0.000000
0.518196 0.185848 0.000000
0.537638 0.189069 0.000000
0.556422 0.192473 0.000000
0.574635 0.196066 0.000000
0.592345 0.199857 0.000000
0.609613 0.203854 0.000000
0.626489 0.208067 0.000000
0.643015 0.212502 0.000000
0.659230 0.217170 0.000000
0.675165 0.222080 0.000000
0.690848 0.227240 0.000000
0.706304 0.232661 0.000000
0.721555 0.238351 0.000000
0.736620 0.244321 0.000000
0.751516 0.250582 0.000000
0.766257 0.257142 0.000000
0.780859 0.264015 0.000000
0.795332 0.271209 0.000000
0.809688 0.278738 0.000000
0.823937 0.286611 0.000000
0.838087 0.294842 0.000000
0.852147 0.303443 0.000000
0.866125 0.312426 0.000000
0.880026 0.321804 0.000000
0.893856 0.331592 0.000000
0.907623 0.341803 0.000000
0.921329 0.352451 0.000000
0.934981 0.363552 0.000000
0.948582 0.375121 0.000000
0.962136 0.387175 0.000000
0.062452 0.159097 0.000000
0.067083 0.159197 0.000000
0.071729 0.159304 0.000000
0.076410 0.159420 0.000000
0.081142 0.159544 0.000000
0.085939 0.159677 0.000000
0.090815 0.159821 0.000000
0.095780 0.159974 0.000000
0.100847 0.160140 0.000000
0.115593 0.160668 0.000000
0.129679 0.161238 0.000000
0.143287 0.161849 0.000000
0.156604 0.162503 0.000000
0.169760 0.163203 0.000000
0.182852 0.163953 0.000000
0.195955 0.164755 0.000000
0.209129 0.165613 0.000000
0.222425 0.166530 0.000000
0.235885 0.167511 0.000000
0.249548 0.168559 0.000000
0.263449 0.169679 0.000000
0.277619 0.170875 0.000000
0.292089 0.172151 0.000000
0.306886 0.173513 0.000000
0.322037 0.174966 0.000000
0.337570 0.176514 0.000000
0.353509 0.178164 0.000000
0.369881 0.179920 0.000000
0.386711 0.181790 0.000000
0.404025 0.183779 0.000000
0.421848 0.185894 0.000000
0.440207 0.188142 0.000000
0.459127 0.190528 0.000000
0.478635 0.193062 0.000000
0.498760 0.195749 0.000000
0.518877 0.198597 0.000000
0.538248 0.201615 0.000000
0.556972 0.204810 0.000000
0.575131 0.208190 0.000000
0.592795 0.211764 0.000000
0.610022 0.215541 0.000000
0.626861 0.219529 0.000000
0.643354 0.223738 0.000000
0.659540 0.228176 0.000000
0.675448 0.232853 0.000000
0.691108 0.237780 0.000000
0.706542 0.242965 0.000000
0.721774 0.248420 0.000000
0.736821 0.254154 0.000000
0.751701 0.260178 0.000000
0.766428 0.266502 0.000000
0.781016 0.273139 0.000000
0.795477 0.280099 0.000000
0.809822 0.287395 0.000000
0.824060 0.295038 0.000000
0.838201 0.303040 0.000000
0.852253 0.311414 0.000000
0.866222 0.320173 0.000000
0.880116 0.329331 0.000000
0.893940 0.338902 0.000000
0.907700 0.348899 0.000000
0.921401 0.359337 0.000000
0.935047 0.370232 0.000000
0.948643 0.381598 0.000000
0.962193 0.393453 0.000000
0.068646 0.174875 0.000000
0.072884 0.174966 0.000000
0.077182 0.175064 0.000000
0.081550 0.175169 0.000000
0.086000 0.175282 0.000000
0.090540 0.175404 0.000000
0.095180 0.175534 0.000000
0.099929 0.175674 0.000000
0.104795 0.175825 0.000000
0.119054 0.176306 0.000000
0.132773 0.176826 0.000000
0.146093 0.177383 0.000000
0.159175 0.177980 0.000000
0.172135 0.178619 0.000000
0.185059 0.179304 0.000000
0.198016 0.180038 0.000000
0.211062 0.180824 0.000000
0.224243 0.181664 0.000000
0.237600 0.182564 0.000000
0.251170 0.183526 0.000000
0.264986 0.184555 0.000000
0.279078 0.185655 0.000000
0.293476 0.186831 0.000000
0.308206 0.188086 0.000000
0.323296 0.189427 0.000000
0.338770 0.190858 0.000000
0.354656 0.192385 0.000000
0.370977 0.194013 0.000000
0.387760 0.195748 0.000000
0.405029 0.197597 0.000000
0.422810 0.199565 0.000000
0.441128 0.201660 0.000000
0.460010 0.203889 0.000000
0.479483 0.206258 0.000000
0.499573 0.208775 0.000000
0.519606 0.211448 0.000000
0.538903 0.214285 0.000000
