luts/Rec2100_HLG/DJI_Osmo_DLogM_to_Rec2100_HLG_ACES2_Detailed.cube
TITLE "OpenOSV D-Log M to Rec.2100 HLG, ACES 2 Detailed (indoor) - DJI Osmo 360 / Pocket 3"
LUT_3D_SIZE 5
DOMAIN_MIN 0.000000 0.000000 0.000000
DOMAIN_MAX 1.000000 1.000000 1.000000
0.000000 0.000000 0.000000
0.147664 0.008087 0.000000
0.392562 0.037199 0.000000
0.664161 0.105821 0.000000
0.856924 0.231694 0.000000
0.027795 0.156667 0.000000
0.148360 0.157350 0.000000
0.388382 0.162344 0.000000
0.661867 0.194930 0.000000
0.855940 0.283997 0.000000
0.108068 0.402421 0.000000
0.185579 0.402365 0.000000
0.384214 0.401709 0.000000
0.654037 0.406342 0.000000
0.852189 0.442862 0.000000
0.245315 0.669286 0.000000
0.287823 0.669165 0.000000
0.425567 0.668655 0.000000
0.651728 0.667840 0.000000
0.844965 0.671892 0.000000
0.457999 0.856885 0.000000
0.479534 0.856813 0.000000
0.554916 0.856524 0.000000
0.685036 0.855746 0.000000
0.842570 0.854681 0.000000
0.008161 0.000000 0.206153
0.149073 0.001480 0.182947
0.393666 0.031481 0.149913
0.664583 0.102043 0.119658
0.857070 0.229719 0.065736
0.035097 0.151868 0.158473
0.152768 0.152768 0.152768
0.390145 0.158701 0.134940
0.662370 0.192270 0.108458
0.856093 0.282335 0.054517
0.112575 0.400880 0.087007
0.188947 0.400819 0.085378
0.386095 0.400216 0.078617
0.654628 0.405006 0.059347
0.852351 0.441792 0.003081
0.247605 0.668926 0.000000
0.289841 0.668805 0.000000
0.427006 0.668295 0.000000
0.652247 0.667486 0.000000
0.845111 0.671569 0.000000
0.459110 0.856800 0.000000
0.480597 0.856728 0.000000
0.555663 0.856440 0.000000
0.685382 0.855662 0.000000
0.842689 0.854600 0.000000
0.038132 0.000000 0.519791
0.155853 0.000000 0.506018
0.394297 0.007328 0.460250
0.665025 0.085317 0.409023
0.857203 0.221012 0.354102
0.062094 0.127970 0.491502
0.166855 0.130703 0.480821
0.394082 0.141853 0.446009
0.663205 0.180314 0.400939
0.856260 0.274927 0.348815
0.129967 0.392216 0.405048
0.201644 0.392268 0.402559
0.392321 0.392321 0.392321
0.656093 0.398401 0.368619
0.852622 0.436799 0.326898
0.256730 0.666905 0.304711
0.297837 0.666791 0.303794
0.432523 0.666324 0.299983
0.654057 0.665646 0.288672
0.845547 0.670015 0.258821
0.463744 0.856443 0.000000
0.485029 0.856372 0.000000
0.558761 0.856084 0.000000
0.686828 0.855310 0.000000
0.843184 0.854261 0.000000
0.110086 0.000000 0.768703
0.194015 0.000000 0.764786
0.401739 0.000000 0.749264
0.665956 0.024785 0.720559
0.857385 0.191534 0.681390
0.127824 0.058307 0.765922
0.206561 0.063976 0.761778
0.406863 0.085401 0.746066
0.665455 0.139378 0.717057
0.856544 0.250206 0.678904
0.177248 0.364069 0.727037
0.237529 0.364545 0.725158
0.410642 0.366578 0.717551
0.660191 0.376660 0.699389
0.853172 0.420286 0.668562
0.283561 0.659564 0.671161
0.321476 0.659489 0.670453
0.448802 0.659198 0.667518
0.659028 0.659028 0.659028
0.846454 0.664463 0.639095
0.477422 0.854656 0.576152
0.498066 0.854590 0.575775
0.567546 0.854321 0.574203
0.690738 0.853608 0.569346
0.844289 0.852713 0.555353
0.244650 0.000000 0.945273
0.293784 0.000000 0.943804
0.447092 0.000000 0.937979
0.673003 0.000000 0.923952
0.858747 0.070239 0.900580
0.254570 0.000000 0.944812
0.302317 0.000000 0.943343
0.452793 0.000000 0.937545
0.674739 0.000000 0.923593
0.858299 0.158022 0.899422
0.285733 0.276752 0.933457
0.327733 0.278322 0.932227
0.465280 0.284819 0.927372
0.674256 0.305245 0.915254
0.855618 0.365482 0.893784
0.356585 0.636129 0.900259
0.387556 0.636167 0.899750
0.497158 0.636368 0.897670
0.674401 0.637640 0.891753
0.849687 0.646315 0.878519
0.517775 0.849012 0.857768
0.534970 0.848958 0.857568
0.592769 0.848743 0.856743
0.702557 0.848194 0.854259
0.847719 0.847719 0.847719
