luts/Rec2100_HLG/DJI_Osmo_DLogM_to_Rec2100_HLG_BT2408_DeepBlacks_Punchy.cube
TITLE "OpenOSV D-Log M to Rec.2100 HLG, BT.2408 Deep Blacks + Punchy - DJI Osmo 360 / Pocket 3"
LUT_3D_SIZE 9
DOMAIN_MIN 0.000000 0.000000 0.000000
DOMAIN_MAX 1.000000 1.000000 1.000000
0.000000 0.000000 0.000000
0.044530 0.001597 0.000000
0.194368 0.009945 0.000000
0.343813 0.024657 0.000000
0.511858 0.049046 0.000000
0.661715 0.086321 0.000000
0.784316 0.138616 0.000000
0.895478 0.207302 0.000000
1.000000 0.294816 0.000000
0.006149 0.049334 0.000000
0.046268 0.050020 0.000000
0.195598 0.052186 0.000000
0.344181 0.062471 0.000000
0.511665 0.082074 0.000000
0.661432 0.113573 0.000000
0.784098 0.159714 0.000000
0.895340 0.222905 0.000000
1.000000 0.306144 0.000000
0.036238 0.205653 0.000000
0.067097 0.206076 0.000000
0.194856 0.206418 0.000000
0.339158 0.207300 0.000000
0.506704 0.212625 0.000000
0.658875 0.226310 0.000000
0.782687 0.252588 0.000000
0.894551 0.296146 0.000000
1.000000 0.362112 0.000000
0.081379 0.356493 0.000000
0.105586 0.356634 0.000000
0.209561 0.356759 0.000000
0.339347 0.356547 0.000000
0.500907 0.357246 0.000000
0.654690 0.361601 0.000000
0.780162 0.374052 0.000000
0.893116 0.400518 0.000000
0.999607 0.448086 0.000000
0.142444 0.525237 0.000000
0.160392 0.525268 0.000000
0.242073 0.525268 0.000000
0.353514 0.525041 0.000000
0.502266 0.524765 0.000000
0.651277 0.525393 0.000000
0.776858 0.529438 0.000000
0.890842 0.541325 0.000000
0.998227 0.566354 0.000000
0.219899 0.671624 0.000000
0.232758 0.671625 0.000000
0.294791 0.671604 0.000000
0.386746 0.671505 0.000000
0.517614 0.671296 0.000000
0.652686 0.671090 0.000000
0.774322 0.671525 0.000000
0.887977 0.674408 0.000000
0.996096 0.683224 0.000000
0.316389 0.793065 0.000000
0.325555 0.793064 0.000000
0.371724 0.793049 0.000000
0.444946 0.793004 0.000000
0.551504 0.792900 0.000000
0.664004 0.792712 0.000000
0.775715 0.792535 0.000000
0.885816 0.792899 0.000000
0.993435 0.795359 0.000000
0.437801 0.903765 0.000000
0.444394 0.903763 0.000000
0.478503 0.903754 0.000000
0.533188 0.903733 0.000000
0.604710 0.903683 0.000000
0.690028 0.903578 0.000000
0.785515 0.903399 0.000000
0.887186 0.903232 0.000000
0.991439 0.903569 0.000000
0.580632 1.000000 0.000000
0.584232 1.000000 0.000000
0.602464 1.000000 0.000000
0.631362 1.000000 0.000000
0.674338 1.000000 0.000000
0.733490 1.000000 0.000000
0.808550 1.000000 0.000000
0.896705 1.000000 0.000000
0.993633 1.000000 0.000000
0.001581 0.000000 0.066454
0.045259 0.000261 0.059314
0.195243 0.008549 0.043434
0.344402 0.023327 0.035188
0.512269 0.047857 0.026527
0.661905 0.085340 0.014893
0.784414 0.137865 0.000000
0.895530 0.206754 0.000000
1.000000 0.294423 0.000000
0.008011 0.047471 0.050223
0.048178 0.048178 0.048178
0.196641 0.050716 0.038665
0.344837 0.061211 0.031275
0.512104 0.080993 0.023018
0.661628 0.112681 0.011737
0.784197 0.159017 0.000000
0.895392 0.222383 0.000000
1.000000 0.305761 0.000000
0.037840 0.204907 0.017866
0.068614 0.205318 0.017433
0.195907 0.205649 0.015036
0.339869 0.206561 0.011117
0.507187 0.211942 0.005191
0.659082 0.225701 0.000000
0.782789 0.252067 0.000000
0.894604 0.295718 0.000000
1.000000 0.361774 0.000000
0.082648 0.356049 0.000000
0.106764 0.356187 0.000000
0.210423 0.356305 0.000000
0.339976 0.356095 0.000000
0.501368 0.356804 0.000000
0.654893 0.361183 0.000000
0.780263 0.373668 0.000000
0.893169 0.400180 0.000000
0.999636 0.447799 0.000000
0.143377 0.524965 0.000000
0.161273 0.524995 0.000000
0.242769 0.524993 0.000000
0.354053 0.524765 0.000000
0.502679 0.524490 0.000000
0.651469 0.525124 0.000000
0.776957 0.529184 0.000000
0.890895 0.541100 0.000000
0.998255 0.566168 0.000000
0.220561 0.671506 0.000000
0.233397 0.671507 0.000000
0.295338 0.671486 0.000000
0.387198 0.671387 0.000000
0.517957 0.671178 0.000000
0.652860 0.670973 0.000000
0.774416 0.671409 0.000000
0.888028 0.674298 0.000000
0.996125 0.683124 0.000000
0.316857 0.793007 0.000000
0.326014 0.793005 0.000000
0.372142 0.792990 0.000000
0.445313 0.792946 0.000000
0.551765 0.792841 0.000000
0.664152 0.792653 0.000000
0.775800 0.792477 0.000000
0.885865 0.792842 0.000000
0.993462 0.795304 0.000000
0.438137 0.903734 0.000000
0.444726 0.903733 0.000000
0.478818 0.903723 0.000000
0.533446 0.903702 0.000000
0.604890 0.903652 0.000000
0.690146 0.903547 0.000000
0.785588 0.903368 0.000000
0.887230 0.903202 0.000000
0.991465 0.903539 0.000000
0.580816 1.000000 0.000000
0.584413 1.000000 0.000000
0.602629 1.000000 0.000000
0.631505 1.000000 0.000000
0.674454 1.000000 0.000000
0.733577 1.000000 0.000000
0.808607 1.000000 0.000000
0.896741 1.000000 0.000000
0.993654 1.000000 0.000000
0.010006 0.000000 0.270237
0.047688 0.000000 0.267182
0.196120 0.001663 0.239709
0.345484 0.016179 0.216171
0.513280 0.041347 0.196818
0.662472 0.079948 0.177889
0.784760 0.133751 0.156374
0.895747 0.203770 0.128199
1.000000 0.292296 0.085218
0.016762 0.034111 0.263845
0.053991 0.035694 0.260323
0.198691 0.042107 0.234991
0.346383 0.054111 0.212745
0.513313 0.074973 0.193994
0.662246 0.107751 0.175437
0.784557 0.155187 0.154159
0.895613 0.219536 0.126083
1.000000 0.303692 0.082994
0.046063 0.199445 0.207941
0.076149 0.199859 0.206985
0.200507 0.200507 0.200507
0.342655 0.201978 0.190256
0.508981 0.207933 0.177382
0.659862 0.222252 0.161824
0.783200 0.249179 0.142081
0.894841 0.293384 0.114542
1.000000 0.359951 0.070791
0.089227 0.353112 0.165691
0.112832 0.353244 0.165216
0.214725 0.353392 0.162450
0.342968 0.353291 0.157488
0.503460 0.354178 0.149520
0.655798 0.358783 0.137563
0.780725 0.371532 0.119948
0.893426 0.398335 0.093002
0.999786 0.446259 0.047661
0.148277 0.523335 0.115072
0.165894 0.523364 0.114742
0.246400 0.523363 0.112943
0.356837 0.523150 0.109710
0.504769 0.522911 0.104059
0.652433 0.523614 0.094449
0.777457 0.527788 0.078361
0.891171 0.539877 0.051028
0.998409 0.565172 0.003624
0.224082 0.670870 0.029810
0.236796 0.670871 0.029505
0.298251 0.670847 0.027873
0.389611 0.670747 0.024965
0.519782 0.670539 0.019821
0.653786 0.670339 0.010903
0.774915 0.670788 0.000000
0.888303 0.673706 0.000000
0.996277 0.682587 0.000000
0.319359 0.792695 0.000000
0.328466 0.792693 0.000000
0.374377 0.792677 0.000000
0.447279 0.792632 0.000000
0.553155 0.792527 0.000000
0.664946 0.792339 0.000000
0.776255 0.792164 0.000000
0.886125 0.792535 0.000000
0.993610 0.795011 0.000000
0.439932 0.903570 0.000000
0.446502 0.903569 0.000000
0.480501 0.903560 0.000000
0.534822 0.903538 0.000000
0.605854 0.903488 0.000000
0.690778 0.903383 0.000000
0.785982 0.903204 0.000000
0.887467 0.903038 0.000000
0.991604 0.903378 0.000000
0.581798 1.000000 0.000000
0.585378 1.000000 0.000000
0.603511 1.000000 0.000000
0.632269 1.000000 0.000000
0.675072 1.000000 0.000000
0.734039 1.000000 0.000000
0.808912 1.000000 0.000000
0.896934 1.000000 0.000000
0.993770 1.000000 0.000000
0.025031 0.000000 0.463971
0.059089 0.000000 0.461624
0.197605 0.000000 0.439523
0.345793 0.004283 0.410604
0.513793 0.029571 0.382668
0.662917 0.070019 0.355605
0.785090 0.126170 0.327936
0.895968 0.198287 0.297389
1.000000 0.288389 0.260001
0.031545 0.017249 0.461708
0.065223 0.018954 0.458982
0.201081 0.027354 0.436539
0.347387 0.041231 0.407873
0.514181 0.063881 0.380246
0.662784 0.098637 0.353552
0.784910 0.148122 0.326224
0.895840 0.214298 0.295922
1.000000 0.299888 0.258666
0.059829 0.188227 0.410526
0.088427 0.188718 0.409027
0.207333 0.190244 0.399088
0.346294 0.193030 0.383247
0.511062 0.200263 0.363647
0.660718 0.215751 0.341538
0.783641 0.243789 0.316830
0.895094 0.289051 0.288006
1.000000 0.356578 0.251464
0.100335 0.346809 0.359432
0.123009 0.346951 0.358758
0.221691 0.347257 0.354738
0.347506 0.347506 0.347506
0.506331 0.348891 0.336253
0.656936 0.354074 0.320553
0.781264 0.367428 0.300078
0.893713 0.394843 0.273747
0.999954 0.443376 0.238387
0.156603 0.519649 0.310419
0.173725 0.519681 0.310044
0.252442 0.519716 0.307955
0.361297 0.519590 0.304157
0.507889 0.519507 0.297632
0.653770 0.520449 0.287120
0.778098 0.524957 0.271225
0.891504 0.537474 0.248135
0.998601 0.563276 0.214333
0.230112 0.669403 0.249512
0.242607 0.669405 0.249266
0.303182 0.669388 0.247934
0.393616 0.669303 0.245535
0.522690 0.669125 0.241277
0.655203 0.668976 0.233900
0.775647 0.669508 0.221520
0.888699 0.672542 0.201332
0.996504 0.681574 0.168421
0.323742 0.792072 0.152555
0.332763 0.792070 0.152345
0.378287 0.792055 0.151218
0.450708 0.792011 0.149197
0.555551 0.791910 0.145577
0.666308 0.791731 0.139102
0.777031 0.791571 0.127541
0.886569 0.791967 0.106794
0.993867 0.794480 0.068273
0.443126 0.903277 0.000000
0.449663 0.903276 0.000000
0.483500 0.903266 0.000000
0.537257 0.903244 0.000000
0.607565 0.903194 0.000000
0.691902 0.903088 0.000000
0.786685 0.902909 0.000000
0.887891 0.902746 0.000000
0.991853 0.903091 0.000000
0.583543 1.000000 0.000000
0.587092 1.000000 0.000000
0.605077 1.000000 0.000000
0.633627 1.000000 0.000000
0.676172 1.000000 0.000000
0.734861 1.000000 0.000000
0.809454 1.000000 0.000000
0.897279 1.000000 0.000000
0.993977 1.000000 0.000000
0.050157 0.000000 0.641339
0.080203 0.000000 0.640010
0.204551 0.000000 0.629372
0.347244 0.000000 0.611223
0.514221 0.009080 0.588292
0.663341 0.051670 0.561573
0.785479 0.112145 0.530898
0.896255 0.188238 0.494855
1.000000 0.281282 0.453375
0.056034 0.000000 0.640569
0.085628 0.000000 0.639152
0.208135 0.004545 0.628367
0.349449 0.018885 0.610119
0.515166 0.043654 0.586910
0.663379 0.081770 0.560064
0.785343 0.135086 0.529493
0.896138 0.204713 0.493608
1.000000 0.292969 0.452344
0.082247 0.168482 0.616547
0.108295 0.169131 0.615255
0.218479 0.171978 0.607082
0.352064 0.176794 0.593166
0.514099 0.186199 0.573951
0.661901 0.203808 0.550060
0.784240 0.233911 0.521431
0.895438 0.281145 0.486851
1.000000 0.350442 0.446801
0.118785 0.335037 0.574883
0.139925 0.335215 0.574156
0.233302 0.335854 0.569873
0.354979 0.336771 0.562060
0.510847 0.339103 0.549480
0.658660 0.345388 0.531182
0.782050 0.359891 0.506382
0.894119 0.388456 0.474757
1.000000 0.438115 0.436863
0.170702 0.512497 0.528584
0.187008 0.512542 0.528137
0.262716 0.512667 0.525636
0.368833 0.512733 0.521029
0.512983 0.512983 0.512983
0.655897 0.514428 0.499770
0.779074 0.519615 0.480141
0.891987 0.532975 0.453646
0.998857 0.559741 0.419121
0.240460 0.666498 0.470060
0.252582 0.666502 0.469777
0.311638 0.666502 0.468239
0.400439 0.666453 0.465456
0.527495 0.666342 0.460526
0.657489 0.666310 0.452103
0.776769 0.667017 0.438460
0.889263 0.670292 0.417688
0.996797 0.679628 0.387571
0.331256 0.790707 0.393949
0.340123 0.790706 0.393767
0.384955 0.790695 0.392789
0.456502 0.790659 0.391033
0.559485 0.790574 0.387891
0.668485 0.790422 0.382340
0.778211 0.790310 0.372752
0.887199 0.790781 0.356751
0.994205 0.793400 0.330975
0.448656 0.902640 0.277465
0.455132 0.902639 0.277321
0.488676 0.902630 0.276551
0.541397 0.902610 0.275171
0.610463 0.902562 0.272701
0.693788 0.902464 0.268286
0.787844 0.902297 0.260422
0.888577 0.902153 0.246512
0.992252 0.902531 0.222010
0.586620 1.000000 0.000000
0.590116 1.000000 0.000000
0.607844 1.000000 0.000000
0.636030 1.000000 0.000000
0.678121 1.000000 0.000000
0.736322 1.000000 0.000000
0.810419 1.000000 0.000000
0.897894 1.000000 0.000000
0.994346 1.000000 0.000000
0.088949 0.000000 0.774024
0.113957 0.000000 0.773219
0.220955 0.000000 0.767907
0.353242 0.000000 0.758247
0.515712 0.000000 0.744138
0.663813 0.017620 0.726084
0.785952 0.085517 0.704263
0.896643 0.169532 0.679071
1.000000 0.268269 0.650065
0.093849 0.000000 0.773624
0.118477 0.000000 0.772797
0.224156 0.000000 0.767442
0.355459 0.000000 0.757790
0.517157 0.007740 0.743699
0.664160 0.049883 0.725413
0.785900 0.110500 0.703508
0.896546 0.186934 0.678417
1.000000 0.280314 0.649512
0.116836 0.135108 0.764744
0.139219 0.135994 0.763877
0.237015 0.140427 0.758768
0.362051 0.147847 0.749878
0.519091 0.160526 0.736764
0.663704 0.181783 0.719622
0.785106 0.215698 0.698921
0.895933 0.266647 0.674805
1.000000 0.339265 0.646521
0.148195 0.313943 0.739579
0.167056 0.314204 0.739028
0.252391 0.315421 0.735896
0.367434 0.317427 0.730268
0.518162 0.321340 0.721165
0.661407 0.329547 0.707895
0.783259 0.346129 0.690248
0.894728 0.376816 0.668184
1.000000 0.428556 0.641088
0.193949 0.498882 0.709417
0.209001 0.498957 0.709091
0.279969 0.499275 0.707286
0.381579 0.499725 0.703997
0.521364 0.500631 0.698305
0.659393 0.503064 0.689103
0.780643 0.509583 0.675379
0.892741 0.524587 0.656383
0.999249 0.553204 0.631235
0.258005 0.661033 0.674266
0.269529 0.661044 0.674065
0.326098 0.661080 0.672973
0.412148 0.661105 0.670988
0.535543 0.661131 0.667444
0.661327 0.661327 0.661327
0.778629 0.662380 0.651299
0.890172 0.666124 0.635862
0.997256 0.676043 0.613347
0.344228 0.788127 0.628731
0.352836 0.788127 0.628595
0.396495 0.788125 0.627866
0.466537 0.788106 0.626549
0.566161 0.788052 0.624177
0.672184 0.787959 0.619951
0.780196 0.787945 0.612597
0.888234 0.788564 0.600256
0.994737 0.791388 0.580368
0.458214 0.901345 0.558219
0.464584 0.901344 0.558110
0.497611 0.901337 0.557522
0.548388 0.901321 0.556466
0.615359 0.901281 0.554563
0.696952 0.901197 0.551137
0.789751 0.901057 0.544994
0.889661 0.900959 0.534086
0.992842 0.901406 0.514954
0.591831 1.000000 0.418013
0.595236 1.000000 0.417910
0.612526 1.000000 0.417361
0.640092 1.000000 0.416379
0.681403 1.000000 0.414621
0.738763 1.000000 0.411478
0.812058 1.000000 0.405864
0.898873 1.000000 0.396172
0.994910 1.000000 0.379086
0.143907 0.000000 0.889583
0.163384 0.000000 0.889093
0.251119 0.000000 0.886229
0.368645 0.000000 0.880969
0.521574 0.000000 0.872430
0.664896 0.000000 0.860114
0.786533 0.032210 0.844057
0.897162 0.133339 0.824182
1.000000 0.243998 0.801245
0.147698 0.000000 0.889361
0.166941 0.000000 0.888866
0.253849 0.000000 0.885990
0.370675 0.000000 0.880730
0.522947 0.000000 0.872201
0.665517 0.000000 0.859900
0.786661 0.061581 0.843679
0.897105 0.152830 0.823769
1.000000 0.256777 0.800907
0.166707 0.076620 0.886981
0.184739 0.077839 0.886443
0.267205 0.084178 0.883415
0.379931 0.094881 0.878015
0.528066 0.112445 0.869352
0.666781 0.140086 0.856908
0.786442 0.181323 0.840775
0.896655 0.239601 0.821412
1.000000 0.318683 0.799076
0.192478 0.277087 0.872760
0.208399 0.277491 0.872341
0.282880 0.279565 0.870034
0.388137 0.283117 0.865921
0.530140 0.289388 0.859117
0.665943 0.300698 0.848841
0.785183 0.320904 0.834758
0.895659 0.355474 0.817001
1.000000 0.411098 0.795751
0.230695 0.473931 0.851634
0.244010 0.474061 0.851368
0.308139 0.474715 0.849915
0.402810 0.475804 0.847294
0.534926 0.477789 0.842756
0.665159 0.481825 0.835379
0.783200 0.490526 0.824333
0.893936 0.508647 0.809174
0.999855 0.540926 0.789781
0.286935 0.650803 0.826160
0.297562 0.650826 0.825998
0.350317 0.650938 0.825119
0.431969 0.651108 0.823528
0.548741 0.651396 0.820699
0.667738 0.652029 0.815836
0.781724 0.653743 0.807928
0.891661 0.658386 0.795985
0.997990 0.669419 0.779268
0.366272 0.783317 0.795435
0.374466 0.783321 0.795334
0.416225 0.783336 0.794792
0.483776 0.783351 0.793812
0.577319 0.783361 0.792052
0.678449 0.783382 0.788931
0.783558 0.783558 0.783558
0.889966 0.784466 0.774743
0.995610 0.787684 0.761165
0.474756 0.898923 0.755429
0.480947 0.898923 0.755362
0.512805 0.898921 0.755002
0.560140 0.898913 0.754354
0.623685 0.898890 0.753190
0.702370 0.898835 0.751103
0.793016 0.898748 0.747398
0.891504 0.898740 0.740975
0.993830 0.899323 0.730254
0.600688 1.000000 0.695311
0.603942 1.000000 0.695259
0.620505 1.000000 0.694982
0.647031 1.000000 0.694486
0.687023 1.000000 0.693594
0.742943 1.000000 0.691992
0.814901 1.000000 0.689118
0.900511 1.000000 0.684125
0.995819 1.000000 0.675623
0.216569 0.000000 0.997229
0.231006 0.000000 0.996943
0.299781 0.000000 0.995361
0.399643 0.000000 0.992478
0.536750 0.000000 0.987510
0.669066 0.000000 0.979594
0.787492 0.000000 0.968145
0.897860 0.055675 0.953027
1.000000 0.196689 0.934094
0.219354 0.000000 0.997105
0.233677 0.000000 0.996818
0.302009 0.000000 0.995233
0.401425 0.000000 0.992350
0.537960 0.000000 0.987383
0.669656 0.000000 0.979473
0.787798 0.000000 0.968031
0.897898 0.081174 0.952799
1.000000 0.211212 0.933864
0.233895 0.000000 0.996439
0.247650 0.000000 0.996148
0.313733 0.000000 0.994549
0.410856 0.000000 0.991661
0.544285 0.013493 0.986690
0.672566 0.053425 0.978628
0.788754 0.111677 0.966788
0.897774 0.186832 0.951256
1.000000 0.279812 0.932598
0.255245 0.211914 0.990605
0.267967 0.212535 0.990316
0.329773 0.215801 0.988751
0.422118 0.221448 0.985964
0.549729 0.231098 0.981216
0.673773 0.247310 0.973660
0.788437 0.273847 0.962662
0.897139 0.315689 0.948096
1.000000 0.378783 0.930263
0.285803 0.430050 0.976747
0.297013 0.430273 0.976537
0.352386 0.431446 0.975402
0.437351 0.433486 0.973370
0.556261 0.437079 0.969832
0.674691 0.443578 0.963977
0.787446 0.455618 0.954980
0.895870 0.477894 0.942342
1.000000 0.517034 0.926047
0.332762 0.631548 0.957879
0.342178 0.631599 0.957742
0.389598 0.631858 0.957007
0.464731 0.632301 0.955683
0.569620 0.633073 0.953333
0.678285 0.634514 0.949285
0.786871 0.637467 0.942668
0.894110 0.643823 0.932635
0.999168 0.657006 0.918669
0.402738 0.774372 0.934599
0.410315 0.774382 0.934515
0.449194 0.774432 0.934058
0.512564 0.774514 0.933236
0.595377 0.774646 0.931763
0.688868 0.774882 0.929156
0.789209 0.775418 0.924679
0.892869 0.776872 0.917379
0.997050 0.780836 0.906295
0.502914 0.894428 0.906000
0.508695 0.894429 0.905946
0.537035 0.894436 0.905661
0.579269 0.894445 0.905148
0.637515 0.894453 0.904226
0.711511 0.894457 0.902576
0.798573 0.894474 0.899657
0.894638 0.894638 0.894638
0.995491 0.895484 0.886410
0.615446 1.000000 0.868637
0.618463 1.000000 0.868602
0.633870 1.000000 0.868413
0.658725 1.000000 0.868073
0.696566 1.000000 0.867465
0.750092 1.000000 0.866371
0.819785 1.000000 0.864414
0.903441 1.000000 0.860949
0.997365 1.000000 0.855341
0.312092 0.000000 1.000000
0.322645 0.000000 1.000000
0.375236 0.000000 1.000000
0.457082 0.000000 1.000000
0.569748 0.000000 1.000000
0.682766 0.000000 1.000000
0.792860 0.000000 1.000000
0.899996 0.000000 1.000000
1.000000 0.090784 1.000000
0.314108 0.000000 1.000000
0.324612 0.000000 1.000000
0.376989 0.000000 1.000000
0.458579 0.000000 1.000000
0.570708 0.000000 1.000000
0.683291 0.000000 1.000000
0.793146 0.000000 1.000000
0.900152 0.000000 1.000000
1.000000 0.111606 1.000000
0.324740 0.000000 1.000000
0.334993 0.000000 1.000000
0.386268 0.000000 1.000000
0.466529 0.000000 1.000000
0.575765 0.000000 1.000000
0.686072 0.000000 1.000000
0.794670 0.000000 1.000000
0.900850 0.066637 1.000000
1.000000 0.201442 1.000000
0.342728 0.078991 1.000000
0.352552 0.080101 1.000000
0.401905 0.085940 1.000000
0.479723 0.095973 1.000000
0.583606 0.112731 1.000000
0.689881 0.139564 1.000000
0.796019 0.180212 1.000000
0.900789 0.238273 1.000000
1.000000 0.317468 1.000000
0.366523 0.354922 1.000000
0.375575 0.355271 1.000000
0.421405 0.357128 1.000000
0.494646 0.360389 1.000000
0.590753 0.366081 1.000000
0.692230 0.375962 1.000000
0.796073 0.392978 1.000000
0.900062 0.421820 1.000000
1.000000 0.469245 1.000000
0.403482 0.596058 1.000000
0.411479 0.596154 1.000000
0.452392 0.596659 1.000000
0.518380 0.597546 1.000000
0.602494 0.599102 1.000000
0.696458 0.601871 1.000000
0.796386 0.606928 1.000000
0.898891 0.616343 1.000000
1.000000 0.633553 1.000000
0.461719 0.758450 1.000000
0.468476 0.758471 1.000000
0.503414 0.758579 1.000000
0.555708 0.758765 1.000000
0.623989 0.759088 1.000000
0.706352 0.759665 1.000000
0.799129 0.760773 1.000000
0.898148 0.763121 1.000000
0.999732 0.768354 1.000000
0.546112 0.886376 1.000000
0.550732 0.886380 1.000000
0.573767 0.886403 1.000000
0.609195 0.886440 1.000000
0.659901 0.886500 1.000000
0.726784 0.886600 1.000000
0.808100 0.886788 1.000000
0.900113 0.887239 1.000000
0.998422 0.888530 1.000000
0.639116 0.999854 1.000000
0.641784 0.999854 1.000000
0.655488 0.999857 1.000000
0.677832 0.999860 1.000000
0.712361 0.999864 1.000000
0.762091 0.999863 1.000000
0.828081 0.999855 1.000000
0.908660 0.999857 1.000000
1.000000 1.000000 1.000000
