luts/Rec2100_HLG/DJI_Osmo_DLogM_to_Rec2100_HLG_BT2408_DeepBlacks_Natural.cube
TITLE "OpenOSV D-Log M to Rec.2100 HLG, BT.2408 Deep Blacks + Natural - DJI Osmo 360 / Pocket 3"
LUT_3D_SIZE 9
DOMAIN_MIN 0.000000 0.000000 0.000000
DOMAIN_MAX 1.000000 1.000000 1.000000
0.000000 0.000000 0.000000
0.023819 0.005489 0.000000
0.127143 0.029302 0.000000
0.260110 0.059947 0.000000
0.423257 0.097547 0.000000
0.601770 0.143391 0.000000
0.740032 0.200341 0.000000
0.858647 0.272677 0.000000
0.968194 0.366058 0.000000
0.016479 0.041980 0.000000
0.046346 0.048092 0.000000
0.145466 0.071139 0.000000
0.270945 0.097194 0.000000
0.428744 0.128474 0.000000
0.603576 0.167901 0.000000
0.740573 0.219211 0.000000
0.858831 0.286957 0.000000
0.968263 0.376756 0.000000
0.073910 0.188286 0.000000
0.101042 0.190806 0.000000
0.195014 0.202361 0.000000
0.306668 0.217893 0.000000
0.450328 0.237967 0.000000
0.611573 0.264395 0.000000
0.743226 0.301057 0.000000
0.859783 0.353739 0.000000
0.968632 0.429485 0.000000
0.132571 0.337721 0.000000
0.153284 0.338779 0.000000
0.236170 0.344066 0.000000
0.339513 0.352302 0.000000
0.474145 0.364573 0.000000
0.621862 0.382466 0.000000
0.747247 0.408887 0.000000
0.861376 0.448949 0.000000
0.969282 0.509997 0.000000
0.198874 0.506550 0.000000
0.214287 0.507039 0.000000
0.283076 0.509569 0.000000
0.376401 0.513792 0.000000
0.502443 0.520604 0.000000
0.635004 0.531219 0.000000
0.753183 0.547336 0.000000
0.863993 0.571379 0.000000
0.970418 0.606315 0.000000
0.279270 0.658953 0.000000
0.290677 0.659111 0.000000
0.345415 0.659947 0.000000
0.426107 0.661408 0.000000
0.538381 0.663923 0.000000
0.652809 0.668180 0.000000
0.762061 0.675254 0.000000
0.868278 0.686809 0.000000
0.972406 0.705293 0.000000
0.380695 0.782792 0.000000
0.389129 0.782857 0.000000
0.431473 0.783203 0.000000
0.498220 0.783817 0.000000
0.585062 0.784903 0.000000
0.678439 0.786808 0.000000
0.775817 0.790124 0.000000
0.875384 0.795837 0.000000
0.975901 0.805535 0.000000
0.511088 0.894704 0.000000
0.517016 0.894734 0.000000
0.545782 0.894895 0.000000
0.587868 0.895182 0.000000
0.644693 0.895694 0.000000
0.715430 0.896605 0.000000
0.797399 0.898222 0.000000
0.887276 0.901083 0.000000
0.982077 0.906108 0.000000
0.640704 1.000000 0.000000
0.643547 1.000000 0.000000
0.658042 1.000000 0.000000
0.681323 1.000000 0.000000
0.716561 1.000000 0.000000
0.766063 1.000000 0.000000
0.830114 1.000000 0.000000
0.906784 1.000000 0.000000
0.993439 1.000000 0.000000
0.003135 0.000000 0.016454
0.026641 0.002785 0.030275
0.129007 0.027729 0.057946
0.261160 0.058597 0.070934
0.423797 0.096432 0.072785
0.601971 0.142512 0.061085
0.740111 0.199672 0.000000
0.858690 0.272180 0.000000
0.968218 0.365689 0.000000
0.019003 0.042348 0.043494
0.048178 0.048178 0.048178
0.146840 0.070582 0.061995
0.271804 0.096369 0.069659
0.429224 0.127621 0.068965
0.603763 0.167146 0.055093
0.740652 0.218599 0.000000
0.858874 0.286484 0.000000
0.968287 0.376398 0.000000
0.075479 0.187924 0.053369
0.102244 0.190427 0.053381
0.195724 0.201915 0.052634
0.307149 0.217393 0.048953
0.450651 0.237446 0.037165
0.611728 0.263895 0.000000
0.743306 0.300609 0.000000
0.859826 0.353355 0.000000
0.968656 0.429171 0.000000
0.133647 0.337330 0.000000
0.154216 0.338389 0.000000
0.236779 0.343682 0.000000
0.339941 0.351925 0.000000
0.474458 0.364206 0.000000
0.622017 0.382114 0.000000
0.747326 0.408555 0.000000
0.861419 0.448647 0.000000
0.969306 0.509742 0.000000
0.199660 0.506287 0.000000
0.215017 0.506776 0.000000
0.283629 0.509311 0.000000
0.376818 0.513540 0.000000
0.502753 0.520361 0.000000
0.635154 0.530991 0.000000
0.753261 0.547127 0.000000
0.864035 0.571197 0.000000
0.970442 0.606167 0.000000
0.279846 0.658841 0.000000
0.291231 0.658999 0.000000
0.345881 0.659836 0.000000
0.426485 0.661298 0.000000
0.538641 0.663814 0.000000
0.652946 0.668074 0.000000
0.762136 0.675153 0.000000
0.868319 0.686715 0.000000
0.972429 0.705208 0.000000
0.381119 0.782737 0.000000
0.389543 0.782802 0.000000
0.431847 0.783148 0.000000
0.498544 0.783763 0.000000
0.585262 0.784848 0.000000
0.678558 0.786754 0.000000
0.775886 0.790072 0.000000
0.875424 0.795786 0.000000
0.975924 0.805487 0.000000
0.511388 0.894675 0.000000
0.517306 0.894705 0.000000
0.546030 0.894866 0.000000
0.588063 0.895153 0.000000
0.644836 0.895665 0.000000
0.715525 0.896576 0.000000
0.797460 0.898194 0.000000
0.887313 0.901055 0.000000
0.982099 0.906081 0.000000
0.640847 1.000000 0.000000
0.643688 1.000000 0.000000
0.658171 1.000000 0.000000
0.681437 1.000000 0.000000
0.716655 1.000000 0.000000
0.766133 1.000000 0.000000
0.830164 1.000000 0.000000
0.906817 1.000000 0.000000
0.993457 1.000000 0.000000
0.018116 0.000000 0.095088
0.043024 0.000000 0.110497
0.138905 0.014523 0.157852
0.267277 0.050562 0.193381
0.427279 0.090308 0.213211
0.603359 0.137810 0.220157
0.740647 0.196109 0.216069
0.858929 0.269507 0.199649
0.968340 0.363702 0.162332
0.031250 0.043170 0.128810
0.058211 0.047833 0.138845
0.154779 0.067393 0.172270
0.277151 0.091963 0.197993
0.432468 0.123120 0.213670
0.605101 0.163168 0.219079
0.741179 0.215349 0.214448
0.859112 0.283946 0.197746
0.968409 0.374468 0.159973
0.084072 0.187352 0.192420
0.109258 0.189684 0.193986
0.200507 0.200507 0.200507
0.310702 0.215379 0.207232
0.453165 0.235045 0.211990
0.612869 0.261391 0.212249
0.743796 0.298248 0.205372
0.860059 0.351299 0.187214
0.968779 0.427481 0.146709
0.139596 0.336040 0.200033
0.159474 0.337071 0.200197
0.240445 0.342239 0.200842
0.342650 0.350337 0.201264
0.476463 0.362488 0.200561
0.622968 0.380331 0.196969
0.747779 0.406806 0.187509
0.861647 0.447027 0.166684
0.969429 0.508368 0.119443
0.203880 0.505032 0.175080
0.218949 0.505520 0.174921
0.286648 0.508053 0.174041
0.379120 0.512285 0.172357
0.504474 0.519121 0.169066
0.635977 0.529792 0.162536
0.753683 0.546013 0.149397
0.864260 0.570220 0.121618
0.970567 0.605372 0.036710
0.282913 0.658244 0.090935
0.294179 0.658403 0.090512
0.348367 0.659242 0.088214
0.428505 0.660708 0.083942
0.540028 0.663233 0.075690
0.653680 0.667506 0.058052
0.762535 0.674609 0.000000
0.868541 0.686207 0.000000
0.972553 0.704754 0.000000
0.383379 0.782440 0.000000
0.391754 0.782505 0.000000
0.433843 0.782852 0.000000
0.500273 0.783468 0.000000
0.586332 0.784556 0.000000
0.679194 0.786465 0.000000
0.776255 0.789789 0.000000
0.875635 0.795513 0.000000
0.976045 0.805230 0.000000
0.512985 0.894519 0.000000
0.518852 0.894549 0.000000
0.547346 0.894710 0.000000
0.589105 0.894998 0.000000
0.645595 0.895510 0.000000
0.716037 0.896423 0.000000
0.797783 0.898042 0.000000
0.887509 0.900906 0.000000
0.982214 0.905937 0.000000
0.641609 1.000000 0.000000
0.644438 1.000000 0.000000
0.658864 1.000000 0.000000
0.682045 1.000000 0.000000
0.717155 1.000000 0.000000
0.766512 1.000000 0.000000
0.830429 1.000000 0.000000
0.906989 1.000000 0.000000
0.993553 1.000000 0.000000
0.041284 0.000000 0.216691
0.065780 0.000000 0.229319
0.157645 0.000000 0.274709
0.277399 0.029003 0.315238
0.433251 0.077810 0.344591
0.605778 0.128913 0.358973
0.741595 0.189565 0.361412
0.859356 0.264666 0.353485
0.968550 0.360118 0.333469
0.050143 0.038068 0.235779
0.074726 0.041739 0.247084
0.167744 0.058828 0.287736
0.286120 0.082647 0.322448
0.438058 0.114395 0.346493
0.607435 0.155750 0.358810
0.742116 0.209410 0.360563
0.859537 0.279354 0.352425
0.968619 0.370988 0.332314
0.098074 0.185624 0.318660
0.121099 0.187707 0.320952
0.208772 0.197550 0.330789
0.316876 0.211514 0.341780
0.457569 0.230603 0.351369
0.614884 0.256834 0.356729
0.744680 0.293988 0.355759
0.860477 0.347595 0.346662
0.968988 0.424432 0.326059
0.149748 0.333710 0.342737
0.168560 0.334695 0.343163
0.246933 0.339656 0.345110
0.347506 0.347506 0.347506
0.480090 0.359430 0.349622
0.624693 0.377153 0.349952
0.748601 0.403676 0.346343
0.862054 0.444115 0.336027
0.969636 0.505869 0.314588
0.211276 0.502897 0.337252
0.225872 0.503381 0.337244
0.292040 0.505898 0.337155
0.383277 0.510114 0.336836
0.507578 0.516950 0.335884
0.637473 0.527667 0.333409
0.754443 0.544015 0.327734
0.864653 0.568450 0.315991
0.970772 0.603919 0.293048
0.288334 0.657207 0.305345
0.299398 0.657365 0.305230
0.352791 0.658205 0.304606
0.432114 0.659672 0.303469
0.542494 0.662202 0.301379
0.654984 0.666488 0.297495
0.763236 0.673621 0.290223
0.868919 0.685279 0.276526
0.972760 0.703924 0.250264
0.387374 0.781900 0.227891
0.395664 0.781965 0.227717
0.437375 0.782313 0.226787
0.503316 0.782930 0.225116
0.588215 0.784021 0.222100
0.680313 0.785937 0.216611
0.776903 0.789272 0.206467
0.876005 0.795016 0.187100
0.976255 0.804766 0.146795
0.515804 0.894241 0.000000
0.521580 0.894271 0.000000
0.549676 0.894432 0.000000
0.590952 0.894720 0.000000
0.646943 0.895234 0.000000
0.716947 0.896148 0.000000
0.798360 0.897770 0.000000
0.887858 0.900639 0.000000
0.982420 0.905679 0.000000
0.642964 1.000000 0.000000
0.645772 1.000000 0.000000
0.660094 1.000000 0.000000
0.683127 1.000000 0.000000
0.718044 1.000000 0.000000
0.767188 1.000000 0.000000
0.830901 1.000000 0.000000
0.907297 1.000000 0.000000
0.993724 1.000000 0.000000
0.075110 0.000000 0.394238
0.097432 0.000000 0.402919
0.184424 0.000000 0.437869
0.295875 0.000000 0.473341
0.443231 0.046341 0.503665
0.609920 0.111038 0.522265
0.743261 0.177242 0.528416
0.860115 0.255789 0.525078
0.968924 0.353629 0.512250
0.079627 0.000000 0.395211
0.101201 0.000000 0.403740
0.188014 0.028699 0.440630
0.300636 0.059653 0.477766
0.447473 0.096089 0.506392
0.611444 0.141360 0.522624
0.743761 0.198330 0.528005
0.860293 0.270958 0.524434
0.968993 0.364691 0.511515
0.120114 0.180660 0.474879
0.140462 0.182429 0.477496
0.222745 0.191021 0.489005
0.327409 0.203810 0.502524
0.465178 0.222186 0.514959
0.618382 0.248403 0.523221
0.746236 0.286203 0.525535
0.861219 0.340879 0.520914
0.969360 0.418935 0.507526
0.166523 0.329167 0.507921
0.183806 0.330084 0.508505
0.258138 0.334740 0.511225
0.355979 0.342221 0.514773
0.486458 0.353811 0.518491
0.627716 0.371374 0.520962
0.750053 0.398015 0.520276
0.862776 0.438867 0.514330
0.970006 0.501318 0.500172
0.223903 0.498961 0.512189
0.237755 0.499439 0.512255
0.301434 0.501934 0.512553
0.390587 0.506133 0.512882
0.512983 0.512983 0.512983
0.640107 0.523796 0.512176
0.755789 0.540387 0.509138
0.865351 0.565246 0.501704
0.971137 0.601296 0.486599
0.297770 0.655334 0.494992
0.308498 0.655492 0.494930
0.360556 0.656333 0.494592
0.438483 0.657804 0.493961
0.546813 0.660343 0.492757
0.657289 0.664654 0.490429
0.764480 0.671842 0.485925
0.869590 0.683605 0.477364
0.973119 0.702423 0.461505
0.394395 0.780918 0.451273
0.402540 0.780984 0.451180
0.443597 0.781333 0.450681
0.508608 0.781953 0.449788
0.591513 0.783049 0.448183
0.682277 0.784975 0.445294
0.778035 0.788328 0.440079
0.876642 0.794104 0.430639
0.976607 0.803908 0.413481
0.520691 0.893713 0.358373
0.526313 0.893743 0.358260
0.553725 0.893905 0.357650
0.594168 0.894195 0.356559
0.649294 0.894710 0.354606
0.718532 0.895628 0.351100
0.799359 0.897258 0.344779
0.888457 0.900139 0.333284
0.982768 0.905199 0.311990
0.645359 1.000000 0.000000
0.648130 1.000000 0.000000
0.662271 1.000000 0.000000
0.685042 1.000000 0.000000
0.719621 1.000000 0.000000
0.768387 1.000000 0.000000
0.831742 1.000000 0.000000
0.907846 1.000000 0.000000
0.994029 1.000000 0.000000
0.121184 0.000000 0.611404
0.140180 0.000000 0.614766
0.219370 0.000000 0.629075
0.322886 0.000000 0.645064
0.460964 0.000000 0.659736
0.616827 0.067341 0.670729
0.746153 0.152666 0.676062
0.861455 0.239112 0.675513
0.969590 0.341740 0.669690
0.124931 0.000000 0.611684
0.143512 0.000000 0.615004
0.221730 0.000000 0.629151
0.324644 0.000000 0.644990
0.462849 0.044497 0.660068
0.618158 0.110519 0.671136
0.746621 0.176724 0.675949
0.861628 0.255273 0.675239
0.969658 0.353173 0.669374
0.153508 0.167021 0.641640
0.170854 0.168495 0.643155
0.245635 0.175905 0.649916
0.344925 0.187633 0.658118
0.478072 0.205564 0.666285
0.624340 0.232340 0.672461
0.748955 0.271689 0.675169
0.862531 0.328539 0.673741
0.970022 0.408939 0.667670
0.193269 0.319997 0.662582
0.208574 0.320827 0.662977
0.277071 0.325094 0.664849
0.370540 0.332109 0.667394
0.497511 0.343289 0.670272
0.632938 0.360712 0.672623
0.752603 0.387669 0.673239
0.864055 0.429332 0.670947
0.970662 0.492985 0.664584
0.244898 0.491657 0.668443
0.257666 0.492118 0.668511
0.317535 0.494538 0.668835
0.403298 0.498687 0.669272
0.522221 0.505601 0.669713
0.644701 0.516635 0.669799
0.758161 0.533708 0.668812
0.866589 0.559377 0.665676
0.971787 0.596516 0.658943
0.313917 0.651924 0.663046
0.324114 0.652083 0.663026
0.374017 0.652928 0.662916
0.449627 0.654407 0.662697
0.554268 0.656967 0.662252
0.661327 0.661327 0.661327
0.766677 0.668619 0.659419
0.870779 0.680579 0.655628
0.973759 0.699712 0.648458
0.406626 0.779152 0.645427
0.414528 0.779218 0.645386
0.454492 0.779570 0.645164
0.517680 0.780195 0.644766
0.597252 0.781301 0.644048
0.685730 0.783244 0.642749
0.780038 0.786629 0.640391
0.877773 0.792464 0.636104
0.977233 0.802368 0.628320
0.529085 0.892758 0.606854
0.534452 0.892789 0.606803
0.560721 0.892952 0.606532
0.599759 0.893243 0.606046
0.653404 0.893763 0.605177
0.721315 0.894687 0.603621
0.801116 0.896327 0.600826
0.889508 0.899228 0.595784
0.983371 0.904322 0.586597
0.649503 0.999615 0.510959
0.652210 0.999630 0.510881
0.666042 0.999710 0.510462
0.688361 0.999852 0.509713
0.722354 1.000000 0.508367
0.770462 1.000000 0.505946
0.833189 1.000000 0.501558
0.908782 1.000000 0.493578
0.994551 1.000000 0.479770
0.180741 0.000000 0.774249
0.196059 0.000000 0.775207
0.264712 0.000000 0.779645
0.358982 0.000000 0.785443
0.487830 0.000000 0.791816
0.628539 0.000000 0.797331
0.751088 0.093474 0.800724
0.863804 0.205974 0.800887
0.970770 0.319427 0.797583
0.183713 0.000000 0.774270
0.198824 0.000000 0.775220
0.266838 0.000000 0.779627
0.360615 0.000000 0.785387
0.489075 0.000000 0.791723
0.629144 0.000000 0.797212
0.751510 0.129115 0.800703
0.863970 0.224530 0.800751
0.970837 0.331627 0.797418
0.202050 0.129206 0.780382
0.216318 0.130646 0.781129
0.281649 0.138078 0.784592
0.373140 0.150368 0.789119
0.499376 0.169931 0.794072
0.634211 0.199774 0.798258
0.753635 0.243459 0.800470
0.864835 0.305252 0.799999
0.971195 0.390466 0.796531
0.234195 0.300802 0.791990
0.247219 0.301552 0.792237
0.308067 0.305462 0.793427
0.394991 0.312070 0.795102
0.515908 0.322971 0.797104
0.641772 0.340548 0.798908
0.757024 0.368386 0.799680
0.866307 0.411752 0.798581
0.971828 0.477750 0.794932
0.278606 0.477891 0.796614
0.289946 0.478332 0.796667
0.344448 0.480657 0.796927
0.425012 0.484683 0.797294
0.537550 0.491536 0.797716
0.652580 0.502984 0.797972
0.762302 0.521093 0.797594
0.868772 0.548392 0.795891
0.972941 0.587656 0.792041
0.340852 0.645626 0.794786
0.350270 0.645787 0.794779
0.396911 0.646642 0.794735
0.468849 0.648144 0.794640
0.566836 0.650753 0.794430
0.668306 0.655216 0.793957
0.770527 0.662714 0.792921
0.872882 0.675046 0.790799
0.974896 0.694770 0.786788
0.427580 0.775953 0.786289
0.435097 0.776020 0.786267
0.473308 0.776378 0.786147
0.532804 0.777013 0.785931
0.607054 0.778136 0.785542
0.691728 0.780112 0.784837
0.783558 0.783558 0.783558
0.879775 0.789501 0.781251
0.978344 0.799586 0.777152
0.543149 0.891042 0.768554
0.548112 0.891073 0.768529
0.572562 0.891238 0.768397
0.609320 0.891533 0.768161
0.660511 0.892059 0.767740
0.726177 0.892995 0.766989
0.804210 0.894656 0.765653
0.891367 0.897592 0.763282
0.984443 0.902746 0.759092
0.656669 0.998670 0.733417
0.659269 0.998685 0.733391
0.672579 0.998766 0.733250
0.694135 0.998910 0.732997
0.727128 0.999166 0.732547
0.774105 0.999625 0.731744
0.835741 1.000000 0.730309
0.910434 1.000000 0.727747
0.995475 1.000000 0.723580
0.256141 0.000000 0.906502
0.268051 0.000000 0.906755
0.324806 0.000000 0.907988
0.407905 0.000000 0.909767
0.524897 0.000000 0.911998
0.646195 0.000000 0.914232
0.759459 0.000000 0.915703
0.867875 0.126771 0.915650
0.972851 0.275178 0.913404
0.258429 0.000000 0.906471
0.270242 0.000000 0.906723
0.326635 0.000000 0.907950
0.409383 0.000000 0.909721
0.525959 0.000000 0.911942
0.646740 0.000000 0.914167
0.759749 0.000000 0.915632
0.868029 0.155108 0.915573
0.972917 0.289243 0.913308
0.270360 0.000000 0.906302
0.281697 0.000000 0.906547
0.336269 0.000000 0.907743
0.417210 0.000000 0.909471
0.531755 0.061119 0.911805
0.649974 0.119191 0.914121
0.761521 0.181997 0.915465
0.868839 0.258477 0.915145
0.973267 0.355145 0.912790
0.294233 0.258589 0.910717
0.304899 0.259331 0.910844
0.356777 0.263245 0.911466
0.434766 0.270011 0.912369
0.544155 0.281484 0.913501
0.656248 0.300465 0.914581
0.764552 0.330955 0.915068
0.870231 0.378324 0.914333
0.973886 0.449300 0.911858
0.330535 0.451240 0.913325
0.340198 0.451668 0.913358
0.387900 0.453938 0.913515
0.461135 0.457911 0.913742
0.561876 0.464774 0.914007
0.665734 0.476458 0.914172
0.769416 0.496030 0.913925
0.872590 0.526932 0.912781
0.974979 0.570679 0.910184
0.384262 0.633684 0.912505
0.392642 0.633851 0.912500
0.434764 0.634739 0.912471
0.501286 0.636303 0.912410
0.587242 0.639031 0.912272
0.680092 0.643724 0.911960
0.777183 0.651653 0.911268
0.876568 0.664731 0.909844
0.976905 0.685605 0.907174
0.462594 0.770095 0.907738
0.469544 0.770163 0.907724
0.505074 0.770531 0.907644
0.556954 0.771186 0.907502
0.623299 0.772344 0.907244
0.701947 0.774384 0.906778
0.789666 0.777946 0.905934
0.883290 0.784093 0.904423
0.980311 0.794517 0.901779
0.565775 0.887941 0.897910
0.570151 0.887972 0.897894
0.591911 0.888142 0.897811
0.625198 0.888443 0.897663
0.672525 0.888981 0.897398
0.734533 0.889938 0.896929
0.809598 0.891636 0.896098
0.894638 0.894638 0.894638
0.986340 0.899900 0.892102
0.668780 0.996973 0.879992
0.671209 0.996989 0.879978
0.683680 0.997070 0.879900
0.703994 0.997216 0.879760
0.735342 0.997477 0.879512
0.780425 0.997943 0.879070
0.840205 0.998775 0.878285
0.913346 1.000000 0.876897
0.997113 1.000000 0.874704
0.351926 0.000000 1.000000
0.360984 0.000000 1.000000
0.406118 0.000000 1.000000
0.476417 0.000000 1.000000
0.571670 0.000000 1.000000
0.671336 0.000000 1.000000
0.772759 0.000000 1.000000
0.874763 0.000000 1.000000
0.976492 0.169852 1.000000
0.353655 0.000000 1.000000
0.362671 0.000000 1.000000
0.407621 0.000000 1.000000
0.477704 0.000000 1.000000
0.572493 0.000000 1.000000
0.671809 0.000000 1.000000
0.773027 0.000000 1.000000
0.874914 0.000000 1.000000
0.976555 0.191785 1.000000
0.362774 0.000000 1.000000
0.371572 0.000000 1.000000
0.415578 0.000000 1.000000
0.484532 0.000000 1.000000
0.576836 0.000000 1.000000
0.674320 0.000000 1.000000
0.774456 0.000000 1.000000
0.875685 0.140500 1.000000
0.976893 0.281444 1.000000
0.378977 0.146734 1.000000
0.387431 0.147916 1.000000
0.429923 0.154088 1.000000
0.497025 0.164549 1.000000
0.584741 0.181744 1.000000
0.678964 0.208935 1.000000
0.777028 0.250097 1.000000
0.876967 0.309834 1.000000
0.977492 0.393556 1.000000
0.407201 0.397244 1.000000
0.415114 0.397696 1.000000
0.455157 0.400097 1.000000
0.518483 0.404329 1.000000
0.598161 0.411718 1.000000
0.686829 0.424446 1.000000
0.781340 0.445962 1.000000
0.879172 0.481444 1.000000
0.978554 0.535757 1.000000
0.451398 0.609903 1.000000
0.458548 0.610088 1.000000
0.495068 0.611072 1.000000
0.549705 0.612810 1.000000
0.618613 0.615853 1.000000
0.699290 0.621112 1.000000
0.788433 0.630028 1.000000
0.882945 0.644729 1.000000
0.980433 0.668020 1.000000
0.518513 0.759137 1.000000
0.524251 0.759210 1.000000
0.552173 0.759601 1.000000
0.593239 0.760295 1.000000
0.649010 0.761526 1.000000
0.718814 0.763696 1.000000
0.800053 0.767490 1.000000
0.889387 0.774037 1.000000
0.983766 0.785117 1.000000
0.600121 0.882284 1.000000
0.603734 0.882317 1.000000
0.621921 0.882493 1.000000
0.650407 0.882807 1.000000
0.692116 0.883367 1.000000
0.748520 0.884364 1.000000
0.818818 0.886132 1.000000
0.900325 0.889253 1.000000
0.989674 0.894718 1.000000
0.688523 0.993911 1.000000
0.690698 0.993927 1.000000
0.701905 0.994011 1.000000
0.720326 0.994161 1.000000
0.749111 0.994429 1.000000
0.791167 0.994908 1.000000
0.847899 0.995762 1.000000
0.918425 0.997287 1.000000
1.000000 1.000000 1.000000
