luts/Rec2100_HLG/DJI_Osmo_DLogM_to_Rec2100_HLG_BT2408_DeepBlacks_Punchy.cube
TITLE "OpenOSV D-Log M to Rec.2100 HLG, BT.2408 Deep Blacks + Punchy - DJI Osmo 360 / Pocket 3"
LUT_3D_SIZE 5
DOMAIN_MIN 0.000000 0.000000 0.000000
DOMAIN_MAX 1.000000 1.000000 1.000000
0.000000 0.000000 0.000000
0.194368 0.009945 0.000000
0.511858 0.049046 0.000000
0.784316 0.138616 0.000000
1.000000 0.294816 0.000000
0.036238 0.205653 0.000000
0.194856 0.206418 0.000000
0.506704 0.212625 0.000000
0.782687 0.252588 0.000000
1.000000 0.362112 0.000000
0.142444 0.525237 0.000000
0.242073 0.525268 0.000000
0.502266 0.524765 0.000000
0.776858 0.529438 0.000000
0.998227 0.566354 0.000000
0.316389 0.793065 0.000000
0.371724 0.793049 0.000000
0.551504 0.792900 0.000000
0.775715 0.792535 0.000000
0.993435 0.795359 0.000000
0.580632 1.000000 0.000000
0.602464 1.000000 0.000000
0.674338 1.000000 0.000000
0.808550 1.000000 0.000000
0.993633 1.000000 0.000000
0.010006 0.000000 0.270237
0.196120 0.001663 0.239709
0.513280 0.041347 0.196818
0.784760 0.133751 0.156374
1.000000 0.292296 0.085218
0.046063 0.199445 0.207941
0.200507 0.200507 0.200507
0.508981 0.207933 0.177382
0.783200 0.249179 0.142081
1.000000 0.359951 0.070791
0.148277 0.523335 0.115072
0.246400 0.523363 0.112943
0.504769 0.522911 0.104059
0.777457 0.527788 0.078361
0.998409 0.565172 0.003624
0.319359 0.792695 0.000000
0.374377 0.792677 0.000000
0.553155 0.792527 0.000000
0.776255 0.792164 0.000000
0.993610 0.795011 0.000000
0.581798 1.000000 0.000000
0.603511 1.000000 0.000000
0.675072 1.000000 0.000000
0.808912 1.000000 0.000000
0.993770 1.000000 0.000000
0.050157 0.000000 0.641339
0.204551 0.000000 0.629372
0.514221 0.009080 0.588292
0.785479 0.112145 0.530898
1.000000 0.281282 0.453375
0.082247 0.168482 0.616547
0.218479 0.171978 0.607082
0.514099 0.186199 0.573951
0.784240 0.233911 0.521431
1.000000 0.350442 0.446801
0.170702 0.512497 0.528584
0.262716 0.512667 0.525636
0.512983 0.512983 0.512983
0.779074 0.519615 0.480141
0.998857 0.559741 0.419121
0.331256 0.790707 0.393949
0.384955 0.790695 0.392789
0.559485 0.790574 0.387891
0.778211 0.790310 0.372752
0.994205 0.793400 0.330975
0.586620 1.000000 0.000000
0.607844 1.000000 0.000000
0.678121 1.000000 0.000000
0.810419 1.000000 0.000000
0.994346 1.000000 0.000000
0.143907 0.000000 0.889583
0.251119 0.000000 0.886229
0.521574 0.000000 0.872430
0.786533 0.032210 0.844057
1.000000 0.243998 0.801245
0.166707 0.076620 0.886981
0.267205 0.084178 0.883415
0.528066 0.112445 0.869352
0.786442 0.181323 0.840775
1.000000 0.318683 0.799076
0.230695 0.473931 0.851634
0.308139 0.474715 0.849915
0.534926 0.477789 0.842756
0.783200 0.490526 0.824333
0.999855 0.540926 0.789781
0.366272 0.783317 0.795435
0.416225 0.783336 0.794792
0.577319 0.783361 0.792052
0.783558 0.783558 0.783558
0.995610 0.787684 0.761165
0.600688 1.000000 0.695311
0.620505 1.000000 0.694982
0.687023 1.000000 0.693594
0.814901 1.000000 0.689118
0.995819 1.000000 0.675623
0.312092 0.000000 1.000000
0.375236 0.000000 1.000000
0.569748 0.000000 1.000000
0.792860 0.000000 1.000000
1.000000 0.090784 1.000000
0.324740 0.000000 1.000000
0.386268 0.000000 1.000000
0.575765 0.000000 1.000000
0.794670 0.000000 1.000000
1.000000 0.201442 1.000000
0.366523 0.354922 1.000000
0.421405 0.357128 1.000000
0.590753 0.366081 1.000000
0.796073 0.392978 1.000000
1.000000 0.469245 1.000000
0.461719 0.758450 1.000000
0.503414 0.758579 1.000000
0.623989 0.759088 1.000000
0.799129 0.760773 1.000000
0.999732 0.768354 1.000000
0.639116 0.999854 1.000000
0.655488 0.999857 1.000000
0.712361 0.999864 1.000000
0.828081 0.999855 1.000000
1.000000 1.000000 1.000000
