luts/Rec2100_HLG/DJI_Osmo_DLogM_to_Rec2100_HLG_ACES2_Bright.cube
TITLE "OpenOSV D-Log M to Rec.2100 HLG, ACES 2 Bright (outdoor) - DJI Osmo 360 / Pocket 3"
LUT_3D_SIZE 5
DOMAIN_MIN 0.000000 0.000000 0.000000
DOMAIN_MAX 1.000000 1.000000 1.000000
0.000000 0.000000 0.000000
0.205127 0.012920 0.000000
0.504649 0.057291 0.000000
0.754476 0.150064 0.000000
0.932128 0.306383 0.000000
0.043058 0.214917 0.000000
0.204097 0.215320 0.000000
0.497485 0.221749 0.000000
0.751941 0.261569 0.000000
0.931049 0.370462 0.000000
0.152772 0.514334 0.000000
0.249938 0.514071 0.000000
0.492192 0.513155 0.000000
0.744390 0.518577 0.000000
0.927071 0.558044 0.000000
0.322284 0.758311 0.000000
0.374280 0.758170 0.000000
0.539494 0.757618 0.000000
0.742151 0.756778 0.000000
0.919624 0.760729 0.000000
0.572611 0.930489 0.000000
0.592360 0.930405 0.000000
0.656773 0.930069 0.000000
0.772944 0.928709 0.000000
0.917599 0.923724 0.000000
0.013099 0.000000 0.281018
0.206666 0.002393 0.248992
0.505812 0.048887 0.207259
0.754831 0.145165 0.167803
0.932259 0.303951 0.096734
0.053767 0.208757 0.217002
0.209510 0.209510 0.209510
0.499521 0.217158 0.187350
0.752370 0.258266 0.153189
0.931189 0.368422 0.081390
0.158540 0.512483 0.125358
0.254065 0.512224 0.123141
0.494445 0.511383 0.114067
0.744917 0.517037 0.087978
0.927224 0.556978 0.005067
0.325089 0.757982 0.000000
0.376748 0.757840 0.000000
0.541015 0.757289 0.000000
0.742621 0.756456 0.000000
0.919760 0.760437 0.000000
0.573663 0.930411 0.000000
0.593300 0.930327 0.000000
0.657420 0.929991 0.000000
0.773246 0.928702 0.000000
0.917697 0.923719 0.000000
0.059028 0.000000 0.629720
0.215634 0.000000 0.616154
0.506700 0.011877 0.575873
0.755236 0.123271 0.522884
0.932329 0.293190 0.456522
0.092278 0.179151 0.601804
0.227582 0.182229 0.592012
0.504538 0.196079 0.560564
0.753104 0.243433 0.513002
0.931291 0.359284 0.449860
0.180585 0.502069 0.517136
0.269592 0.501975 0.514125
0.501918 0.501918 0.501918
0.746192 0.509281 0.473134
0.927426 0.551889 0.422488
0.336208 0.756080 0.394905
0.386462 0.755949 0.393746
0.546716 0.755443 0.388962
0.744220 0.754742 0.374923
0.920133 0.758999 0.338350
0.578008 0.930082 0.000000
0.597190 0.929998 0.000000
0.660108 0.929663 0.000000
0.774509 0.928672 0.000000
0.918108 0.923700 0.000000
0.157030 0.000000 0.852557
0.262688 0.000000 0.848393
0.515634 0.000000 0.833332
0.756373 0.038913 0.806418
0.932442 0.256775 0.770375
0.179522 0.087437 0.849258
0.277676 0.095131 0.844942
0.520685 0.123658 0.829763
0.755379 0.192400 0.802658
0.931494 0.328884 0.767957
0.239585 0.468005 0.811271
0.313594 0.468473 0.809467
0.523402 0.470768 0.802386
0.749974 0.482970 0.785782
0.927874 0.534523 0.758130
0.368951 0.749349 0.759897
0.415271 0.749256 0.759228
0.563023 0.748919 0.756482
0.748691 0.748691 0.748691
0.920904 0.753913 0.730958
0.590389 0.928353 0.675282
0.608266 0.928275 0.674938
0.667683 0.927962 0.673512
0.777980 0.927151 0.669164
0.918911 0.923143 0.657466
0.326771 0.000000 1.000000
0.387253 0.000000 1.000000
0.566494 0.000000 0.995912
0.764382 0.000000 0.981563
0.934425 0.102930 0.959531
0.338978 0.000000 1.000000
0.397704 0.000000 1.000000
0.571929 0.000000 0.995652
0.765937 0.000000 0.981405
0.933765 0.215416 0.958421
0.374816 0.363775 0.991243
0.426234 0.365546 0.989963
0.581368 0.372995 0.985016
0.764197 0.397124 0.973127
0.930619 0.470395 0.953400
0.458903 0.728802 0.960538
0.496752 0.728806 0.960048
0.607535 0.728883 0.958066
0.763172 0.729854 0.952578
0.924091 0.737778 0.941057
0.624823 0.923111 0.929671
0.639473 0.923046 0.929495
0.689831 0.922787 0.928776
0.788728 0.922139 0.926671
0.921552 0.921552 0.921552
