luts/Rec2100_HLG/DJI_Osmo_DLogM_to_Rec2100_HLG_ACES2_Bright.cube
TITLE "OpenOSV D-Log M to Rec.2100 HLG, ACES 2 Bright (outdoor) - DJI Osmo 360 / Pocket 3"
LUT_3D_SIZE 9
DOMAIN_MIN 0.000000 0.000000 0.000000
DOMAIN_MAX 1.000000 1.000000 1.000000
0.000000 0.000000 0.000000
0.052391 0.002291 0.000000
0.205127 0.012920 0.000000
0.348548 0.030245 0.000000
0.504649 0.057291 0.000000
0.643852 0.096660 0.000000
0.754476 0.150064 0.000000
0.849550 0.219008 0.000000
0.932128 0.306383 0.000000
0.008150 0.057311 0.000000
0.053900 0.057950 0.000000
0.205616 0.060543 0.000000
0.348300 0.071599 0.000000
0.503960 0.092155 0.000000
0.643308 0.124496 0.000000
0.754094 0.171072 0.000000
0.849295 0.234257 0.000000
0.931956 0.317263 0.000000
0.043058 0.214917 0.000000
0.076190 0.215225 0.000000
0.204097 0.215320 0.000000
0.342063 0.216296 0.000000
0.497485 0.221749 0.000000
0.639729 0.235439 0.000000
0.751941 0.261569 0.000000
0.847932 0.304845 0.000000
0.931049 0.370462 0.000000
0.091044 0.358597 0.000000
0.115799 0.358656 0.000000
0.218424 0.358503 0.000000
0.342039 0.358158 0.000000
0.491185 0.358936 0.000000
0.634693 0.363532 0.000000
0.748532 0.376241 0.000000
0.845671 0.402861 0.000000
0.929511 0.450423 0.000000
0.152772 0.514334 0.000000
0.170529 0.514310 0.000000
0.249938 0.514071 0.000000
0.355495 0.513587 0.000000
0.492192 0.513155 0.000000
0.630747 0.513921 0.000000
0.744390 0.518577 0.000000
0.842378 0.531580 0.000000
0.927071 0.558044 0.000000
0.228953 0.649916 0.000000
0.241385 0.649887 0.000000
0.300745 0.649721 0.000000
0.387014 0.649417 0.000000
0.506836 0.648971 0.000000
0.631802 0.648609 0.000000
0.741223 0.649195 0.000000
0.838486 0.652826 0.000000
0.923623 0.663130 0.000000
0.322284 0.758311 0.000000
0.330950 0.758289 0.000000
0.374280 0.758170 0.000000
0.441911 0.757960 0.000000
0.539494 0.757618 0.000000
0.642623 0.757148 0.000000
0.742151 0.756778 0.000000
0.835497 0.757331 0.000000
0.919624 0.760729 0.000000
0.437885 0.851014 0.000000
0.443941 0.850997 0.000000
0.475092 0.850907 0.000000
0.525058 0.850749 0.000000
0.590563 0.850484 0.000000
0.667576 0.850066 0.000000
0.751335 0.849516 0.000000
0.836221 0.849097 0.000000
0.916545 0.849667 0.000000
0.572611 0.930489 0.000000
0.575872 0.930476 0.000000
0.592360 0.930405 0.000000
0.618384 0.930282 0.000000
0.656773 0.930069 0.000000
0.708793 0.929718 0.000000
0.772944 0.928709 0.000000
0.844699 0.926666 0.000000
0.917599 0.923724 0.000000
0.002288 0.000000 0.076683
0.053143 0.000413 0.068332
0.205938 0.011206 0.051226
0.349091 0.028720 0.042116
0.505036 0.056003 0.032372
0.644033 0.095646 0.018902
0.754570 0.149313 0.000000
0.849598 0.218472 0.000000
0.932153 0.306005 0.000000
0.010450 0.055264 0.058235
0.055944 0.055944 0.055944
0.206623 0.058958 0.045828
0.348918 0.070262 0.037679
0.504379 0.091034 0.028335
0.643496 0.123593 0.015115
0.754189 0.170381 0.000000
0.849343 0.233749 0.000000
0.931981 0.316897 0.000000
0.044822 0.214182 0.022269
0.077779 0.214480 0.021753
0.205116 0.214572 0.018925
0.342734 0.215580 0.014275
0.497944 0.221090 0.006991
0.639926 0.234853 0.000000
0.752037 0.261069 0.000000
0.847980 0.304439 0.000000
0.931074 0.370145 0.000000
0.092354 0.358177 0.000000
0.116992 0.358233 0.000000
0.219259 0.358076 0.000000
0.342629 0.357734 0.000000
0.491607 0.358525 0.000000
0.634884 0.363144 0.000000
0.748625 0.375886 0.000000
0.845718 0.402549 0.000000
0.929536 0.450161 0.000000
0.153699 0.514076 0.000000
0.171397 0.514052 0.000000
0.250606 0.513811 0.000000
0.355999 0.513327 0.000000
0.492568 0.512897 0.000000
0.630924 0.513671 0.000000
0.744479 0.518343 0.000000
0.842424 0.531374 0.000000
0.927095 0.557877 0.000000
0.229593 0.649807 0.000000
0.242000 0.649778 0.000000
0.301263 0.649612 0.000000
0.387432 0.649308 0.000000
0.507155 0.648863 0.000000
0.631961 0.648501 0.000000
0.741305 0.649091 0.000000
0.838530 0.652727 0.000000
0.923646 0.663042 0.000000
0.322727 0.758259 0.000000
0.331383 0.758237 0.000000
0.374669 0.758118 0.000000
0.442247 0.757909 0.000000
0.539735 0.757566 0.000000
0.642757 0.757096 0.000000
0.742225 0.756727 0.000000
0.835538 0.757282 0.000000
0.919646 0.760683 0.000000
0.438192 0.850988 0.000000
0.444245 0.850971 0.000000
0.475377 0.850881 0.000000
0.525295 0.850724 0.000000
0.590727 0.850458 0.000000
0.667681 0.850041 0.000000
0.751398 0.849491 0.000000
0.836257 0.849072 0.000000
0.916565 0.849644 0.000000
0.572777 0.930477 0.000000
0.576035 0.930464 0.000000
0.592508 0.930393 0.000000
0.618512 0.930269 0.000000
0.656875 0.930057 0.000000
0.708868 0.929706 0.000000
0.772991 0.928708 0.000000
0.844727 0.926665 0.000000
0.917615 0.923723 0.000000
0.013099 0.000000 0.281018
0.056187 0.000000 0.277124
0.206666 0.002393 0.248992
0.349911 0.020392 0.226148
0.505812 0.048887 0.207259
0.644469 0.090030 0.188780
0.754831 0.145165 0.167803
0.849761 0.215530 0.140138
0.932259 0.303951 0.096734
0.021135 0.041044 0.273236
0.062716 0.042694 0.269082
0.208697 0.049628 0.243877
0.350260 0.062657 0.222496
0.505373 0.084738 0.204304
0.643986 0.118563 0.186250
0.754466 0.166555 0.165531
0.849511 0.230955 0.137955
0.932089 0.314906 0.094378
0.053767 0.208757 0.217002
0.085600 0.209066 0.215980
0.209510 0.209510 0.209510
0.345261 0.211076 0.199674
0.499521 0.217158 0.187350
0.640588 0.231484 0.172361
0.752370 0.258266 0.153189
0.848167 0.302196 0.126047
0.931189 0.368422 0.081390
0.099097 0.355306 0.175726
0.123088 0.355362 0.175225
0.223366 0.355255 0.172377
0.345369 0.355041 0.167420
0.493449 0.356019 0.159601
0.635679 0.360869 0.147937
0.749017 0.373875 0.130665
0.845930 0.400829 0.103752
0.929659 0.448748 0.056365
0.158540 0.512483 0.125358
0.175927 0.512458 0.125012
0.254065 0.512224 0.123141
0.358567 0.511765 0.119817
0.494445 0.511383 0.114067
0.631792 0.512239 0.104343
0.744917 0.517037 0.087978
0.842659 0.530249 0.059438
0.927224 0.556978 0.005067
0.232997 0.649214 0.035939
0.245273 0.649185 0.035595
0.304021 0.649018 0.033753
0.389663 0.648716 0.030455
0.508852 0.648275 0.024558
0.632807 0.647923 0.014050
0.741748 0.648530 0.000000
0.838764 0.652199 0.000000
0.923769 0.662569 0.000000
0.325089 0.757982 0.000000
0.333694 0.757959 0.000000
0.376748 0.757840 0.000000
0.444039 0.757631 0.000000
0.541015 0.757289 0.000000
0.643474 0.756821 0.000000
0.742621 0.756456 0.000000
0.835753 0.757019 0.000000
0.919760 0.760437 0.000000
0.439837 0.850852 0.000000
0.445870 0.850835 0.000000
0.476901 0.850745 0.000000
0.526554 0.850588 0.000000
0.591601 0.850323 0.000000
0.668242 0.849906 0.000000
0.751735 0.849358 0.000000
0.836448 0.848941 0.000000
0.916668 0.849518 0.000000
0.573663 0.930411 0.000000
0.576905 0.930398 0.000000
0.593300 0.930327 0.000000
0.619194 0.930203 0.000000
0.657420 0.929991 0.000000
0.709266 0.929640 0.000000
0.773246 0.928702 0.000000
0.844879 0.926660 0.000000
0.917697 0.923719 0.000000
0.030930 0.000000 0.464712
0.068615 0.000000 0.461730
0.208406 0.000000 0.438551
0.350228 0.005853 0.411000
0.506176 0.035798 0.384834
0.644755 0.079625 0.359671
0.755017 0.137501 0.334238
0.849861 0.210096 0.306479
0.932304 0.300135 0.272517
0.038329 0.021816 0.462084
0.075092 0.023784 0.458699
0.211592 0.033315 0.435342
0.351391 0.048720 0.408058
0.506129 0.073068 0.382256
0.644372 0.109236 0.357534
0.754676 0.159480 0.332487
0.849617 0.225788 0.304989
0.932135 0.311200 0.271158
0.068562 0.197993 0.409093
0.098360 0.198386 0.407529
0.216266 0.199662 0.397904
0.348760 0.202420 0.383300
0.501436 0.209689 0.365451
0.641289 0.225143 0.345365
0.752673 0.253019 0.322995
0.848302 0.297998 0.296994
0.931246 0.365180 0.263847
0.110418 0.349303 0.361130
0.133288 0.349374 0.360435
0.230053 0.349440 0.356447
0.349568 0.349568 0.349568
0.496010 0.351016 0.339161
0.636645 0.356407 0.324884
0.749417 0.369983 0.306434
0.846102 0.397524 0.282759
0.929734 0.446035 0.250645
0.166730 0.508875 0.315142
0.183571 0.508856 0.314757
0.259793 0.508668 0.312655
0.362649 0.508307 0.308935
0.497223 0.508092 0.302718
0.632941 0.509195 0.292949
0.745415 0.514331 0.278445
0.842880 0.527970 0.257510
0.927328 0.555205 0.226518
0.238775 0.647768 0.257477
0.250818 0.647741 0.257226
0.308631 0.647584 0.255879
0.393296 0.647304 0.253484
0.511473 0.646901 0.249308
0.634035 0.646612 0.242217
0.742340 0.647314 0.230539
0.839054 0.651112 0.211668
0.923919 0.661644 0.180588
0.329203 0.757397 0.163405
0.337714 0.757375 0.163190
0.380356 0.757258 0.162039
0.447133 0.757052 0.159984
0.543193 0.756718 0.156322
0.644680 0.756264 0.149820
0.743278 0.755922 0.138282
0.836107 0.756519 0.117548
0.919953 0.759984 0.078138
0.442763 0.850609 0.000000
0.448758 0.850592 0.000000
0.479613 0.850502 0.000000
0.528784 0.850345 0.000000
0.593151 0.850080 0.000000
0.669239 0.849665 0.000000
0.752335 0.849119 0.000000
0.836789 0.848708 0.000000
0.916853 0.849293 0.000000
0.575235 0.930293 0.000000
0.578448 0.930280 0.000000
0.594706 0.930209 0.000000
0.620406 0.930086 0.000000
0.658390 0.929873 0.000000
0.709976 0.929523 0.000000
0.773701 0.928691 0.000000
0.845151 0.926651 0.000000
0.917845 0.923712 0.000000
0.059028 0.000000 0.629720
0.091052 0.000000 0.628022
0.215634 0.000000 0.616154
0.351950 0.000000 0.597868
0.506700 0.011877 0.575873
0.645085 0.060112 0.550842
0.755236 0.123271 0.522884
0.849967 0.200136 0.491339
0.932329 0.293190 0.456522
0.065398 0.000000 0.628920
0.096712 0.000000 0.627134
0.219110 0.006210 0.615155
0.353939 0.023588 0.596719
0.507308 0.051386 0.574331
0.644885 0.091854 0.549187
0.754941 0.146404 0.521392
0.849734 0.216332 0.490065
0.932164 0.304458 0.455472
0.092278 0.179151 0.601804
0.118946 0.179708 0.600387
0.227582 0.182229 0.592012
0.354668 0.186818 0.578563
0.504538 0.196079 0.560564
0.642367 0.213546 0.538653
0.753104 0.243433 0.513002
0.848469 0.290353 0.483241
0.931291 0.359284 0.449860
0.129114 0.338372 0.560935
0.150227 0.338484 0.560171
0.241342 0.338876 0.555833
0.356680 0.339611 0.548264
0.500287 0.341897 0.536492
0.638198 0.348267 0.519846
0.750025 0.362889 0.497893
0.846332 0.391502 0.471286
0.929801 0.441084 0.439921
0.180585 0.502069 0.517136
0.196541 0.502064 0.516671
0.269592 0.501975 0.514125
0.369635 0.501808 0.509582
0.501918 0.501918 0.501918
0.634824 0.503501 0.489967
0.746192 0.509281 0.473134
0.843184 0.523728 0.450971
0.927426 0.551889 0.422488
0.248691 0.644972 0.463699
0.260339 0.644949 0.463415
0.316556 0.644814 0.461893
0.399515 0.644577 0.459195
0.515843 0.644251 0.454545
0.636030 0.644085 0.446867
0.743239 0.644966 0.434884
0.839433 0.649003 0.417233
0.924055 0.659834 0.392108
0.336208 0.756080 0.394905
0.344556 0.756060 0.394722
0.386462 0.755949 0.393746
0.452308 0.755756 0.392010
0.546716 0.755443 0.388962
0.646554 0.755026 0.383709
0.744220 0.754742 0.374923
0.836544 0.755423 0.360732
0.920133 0.758999 0.338350
0.447755 0.850014 0.286788
0.453684 0.849997 0.286643
0.484220 0.849909 0.285866
0.532505 0.849756 0.284481
0.595715 0.849498 0.282022
0.670855 0.849095 0.277676
0.753274 0.848569 0.270064
0.837296 0.848189 0.256840
0.917111 0.848818 0.233797
0.578008 0.930082 0.000000
0.581171 0.930069 0.000000
0.597190 0.929998 0.000000
0.622550 0.929875 0.000000
0.660108 0.929663 0.000000
0.711235 0.929314 0.000000
0.774509 0.928672 0.000000
0.845634 0.926635 0.000000
0.918108 0.923700 0.000000
0.100366 0.000000 0.751111
0.126112 0.000000 0.750087
0.232267 0.000000 0.743885
0.358468 0.000000 0.733596
0.508654 0.000000 0.719554
0.645695 0.022128 0.702473
0.755604 0.095956 0.682511
0.850134 0.181564 0.660493
0.932355 0.280483 0.636547
0.105452 0.000000 0.750693
0.130714 0.000000 0.749649
0.235373 0.000000 0.743422
0.360546 0.000000 0.733159
0.509982 0.010238 0.719136
0.645852 0.058203 0.701707
0.755397 0.121579 0.681668
0.849922 0.198782 0.659781
0.932196 0.292140 0.635955
0.128274 0.146733 0.739827
0.150790 0.147553 0.738825
0.246610 0.151693 0.733237
0.365268 0.158796 0.724130
0.510144 0.171187 0.711358
0.644308 0.192181 0.695332
0.753857 0.225796 0.676698
0.848745 0.276368 0.655910
0.931350 0.348568 0.632783
0.158764 0.319109 0.713587
0.177389 0.319301 0.712998
0.260165 0.320226 0.709759
0.368901 0.321915 0.704186
0.507668 0.325556 0.695526
0.640908 0.333581 0.683359
0.751077 0.350041 0.667753
0.846718 0.380591 0.649025
0.929899 0.432126 0.627129
0.203417 0.489688 0.684559
0.218046 0.489713 0.684218
0.286181 0.489806 0.682368
0.381657 0.489988 0.679105
0.509920 0.490664 0.673664
0.638080 0.493056 0.665221
0.747533 0.499950 0.653164
0.843699 0.515910 0.637233
0.927577 0.545806 0.617162
0.265522 0.639875 0.651962
0.276543 0.639858 0.651753
0.330171 0.639765 0.650629
0.410289 0.639606 0.648634
0.523295 0.639419 0.645186
0.639477 0.639477 0.639477
0.744791 0.640684 0.630575
0.840075 0.645157 0.617613
0.924269 0.656532 0.599732
0.348318 0.753665 0.610785
0.356392 0.753647 0.610644
0.397059 0.753548 0.609891
0.461317 0.753377 0.608553
0.552756 0.753104 0.606201
0.649786 0.752754 0.602161
0.745838 0.752576 0.595465
0.837276 0.753408 0.584882
0.920408 0.757182 0.568853
0.456351 0.848801 0.547995
0.462164 0.848785 0.547883
0.492141 0.848702 0.547280
0.538773 0.848556 0.546207
0.600027 0.848311 0.544307
0.673542 0.847930 0.540972
0.754787 0.847441 0.535218
0.838053 0.847117 0.525519
0.917431 0.847824 0.509479
0.582588 0.929483 0.423365
0.585667 0.929470 0.423261
0.601280 0.929402 0.422709
0.626064 0.929281 0.421725
0.662896 0.929075 0.419980
0.713240 0.928736 0.416899
0.775779 0.928224 0.411512
0.846317 0.926432 0.402408
0.918427 0.923529 0.386893
0.157030 0.000000 0.852557
0.176557 0.000000 0.851922
0.262688 0.000000 0.848393
0.374566 0.000000 0.842380
0.515634 0.000000 0.833332
0.647313 0.000000 0.821208
0.756373 0.038913 0.806418
0.850513 0.145357 0.789028
0.932442 0.256775 0.770375
0.160844 0.000000 0.852325
0.180103 0.000000 0.851686
0.265327 0.000000 0.848153
0.376466 0.000000 0.842149
0.516898 0.000000 0.833120
0.647877 0.000000 0.821017
0.756368 0.070906 0.805974
0.850341 0.164932 0.788555
0.932293 0.269232 0.769995
0.179522 0.087437 0.849258
0.197390 0.088681 0.848583
0.277676 0.095131 0.844942
0.384393 0.105969 0.838866
0.520685 0.123658 0.829763
0.648158 0.151331 0.817535
0.755379 0.192400 0.802658
0.849320 0.250292 0.785914
0.931494 0.328884 0.767957
0.203367 0.285482 0.832707
0.218920 0.285811 0.832236
0.290708 0.287532 0.829712
0.389833 0.290597 0.825405
0.520430 0.296286 0.818615
0.645878 0.306996 0.808875
0.753071 0.326647 0.796221
0.847472 0.360714 0.781170
0.930109 0.415858 0.764351
0.239585 0.468005 0.811271
0.252418 0.468081 0.810988
0.313594 0.468473 0.809467
0.402142 0.469202 0.806809
0.523402 0.470768 0.802386
0.643832 0.474439 0.795525
0.749974 0.482970 0.785782
0.844660 0.501290 0.773184
0.927874 0.534523 0.758130
0.293347 0.630692 0.787315
0.303442 0.630689 0.787145
0.353149 0.630669 0.786235
0.428784 0.630646 0.784628
0.535841 0.630697 0.781866
0.645481 0.631140 0.777330
0.747555 0.632919 0.770362
0.841239 0.638172 0.760525
0.924668 0.650535 0.747750
0.368951 0.749349 0.759897
0.376592 0.749334 0.759791
0.415271 0.749256 0.759228
0.476927 0.749123 0.758228
0.563023 0.748919 0.756482
0.655403 0.748686 0.753514
0.748691 0.748691 0.748691
0.838583 0.749788 0.741347
0.920904 0.753913 0.730958
0.471264 0.846630 0.725630
0.476886 0.846615 0.725559
0.505863 0.846539 0.725183
0.549399 0.846406 0.724514
0.607441 0.846183 0.723337
0.678217 0.845842 0.721298
0.757441 0.845418 0.717864
0.839388 0.845192 0.712328
0.917992 0.846036 0.703880
0.590389 0.928353 0.675282
0.593329 0.928341 0.675228
0.608266 0.928275 0.674938
0.632081 0.928160 0.674423
0.667683 0.927962 0.673512
0.716683 0.927638 0.671916
0.777980 0.927151 0.669164
0.847449 0.926000 0.664630
0.918911 0.923143 0.657466
0.230814 0.000000 0.940620
0.245022 0.000000 0.940227
0.311828 0.000000 0.938118
0.406485 0.000000 0.934497
0.532591 0.000000 0.928706
0.652872 0.000000 0.920263
0.758019 0.000000 0.909178
0.851468 0.064942 0.895866
0.932804 0.210274 0.880433
0.233559 0.000000 0.940491
0.247642 0.000000 0.940097
0.313967 0.000000 0.937989
0.408147 0.000000 0.934371
0.533693 0.000000 0.928589
0.653402 0.000000 0.920156
0.758284 0.000000 0.909084
0.851404 0.092005 0.895587
0.932673 0.224655 0.880157
0.247848 0.000000 0.939795
0.261309 0.000000 0.939400
0.325201 0.000000 0.937294
0.416934 0.000000 0.933698
0.539434 0.017414 0.927926
0.655841 0.062436 0.919256
0.758681 0.123253 0.907615
0.850692 0.199000 0.893733
0.931953 0.291672 0.878663
0.267004 0.224532 0.931876
0.279315 0.225088 0.931514
0.338486 0.228025 0.929596
0.425049 0.233160 0.926329
0.542077 0.242080 0.921078
0.655200 0.257372 0.913295
0.757099 0.282888 0.902839
0.849126 0.323718 0.890135
0.930672 0.385877 0.875997
0.294280 0.430304 0.916050
0.304986 0.430461 0.915812
0.357409 0.431302 0.914544
0.436400 0.432829 0.912344
0.545536 0.435705 0.908676
0.654073 0.441338 0.902937
0.754599 0.452517 0.894700
0.846611 0.474092 0.884008
0.928566 0.512933 0.871422
0.337721 0.614132 0.897199
0.346584 0.614152 0.897052
0.390890 0.614256 0.896270
0.459981 0.614458 0.894895
0.556377 0.614902 0.892539
0.655915 0.615990 0.888675
0.752592 0.618753 0.882753
0.843473 0.625390 0.874463
0.925508 0.639558 0.863958
0.403256 0.741748 0.876092
0.410259 0.741740 0.876002
0.445965 0.741696 0.875524
0.503588 0.741626 0.874679
0.580048 0.741533 0.873208
0.665098 0.741489 0.870719
0.753784 0.741797 0.866708
0.841002 0.743340 0.860699
0.921882 0.748070 0.852476
0.496779 0.842843 0.852146
0.502088 0.842831 0.852089
0.528177 0.842765 0.851788
0.566932 0.842653 0.851256
0.619973 0.842467 0.850321
0.686307 0.842190 0.848713
0.762138 0.841873 0.846034
0.841810 0.841810 0.841810
0.919052 0.842882 0.835622
0.603508 0.926391 0.822840
0.606226 0.926379 0.822802
0.620085 0.926318 0.822600
0.642337 0.926210 0.822241
0.675923 0.926027 0.821610
0.722680 0.925728 0.820513
0.781865 0.925282 0.818650
0.849566 0.924748 0.815603
0.919808 0.922503 0.811152
0.326771 0.000000 1.000000
0.336959 0.000000 1.000000
0.387253 0.000000 1.000000
0.463975 0.000000 0.999841
0.566494 0.000000 0.995912
0.667956 0.000000 0.989905
0.764382 0.000000 0.981563
0.854015 0.000000 0.971222
0.934425 0.102930 0.959531
0.328720 0.000000 1.000000
0.338854 0.000000 1.000000
0.388916 0.000000 1.000000
0.465361 0.000000 0.999795
0.567361 0.000000 0.995871
0.668422 0.000000 0.989871
0.764628 0.000000 0.981538
0.854141 0.000000 0.971206
0.934340 0.124587 0.959376
0.338978 0.000000 1.000000
0.348839 0.000000 1.000000
0.397704 0.000000 1.000000
0.472712 0.000000 0.999550
0.571929 0.000000 0.995652
0.670894 0.000000 0.989691
0.765937 0.000000 0.981405
0.854569 0.076963 0.970879
0.933765 0.215416 0.958421
0.355857 0.091100 1.000000
0.365238 0.092257 1.000000
0.411952 0.098320 1.000000
0.484214 0.108652 0.998104
0.578303 0.125711 0.994048
0.673508 0.152671 0.987848
0.766185 0.193043 0.979226
0.853482 0.250356 0.968499
0.932608 0.328505 0.956588
0.374816 0.363775 0.991243
0.383351 0.364054 0.991039
0.426234 0.365546 0.989963
0.493629 0.368212 0.988107
0.581368 0.372995 0.985016
0.672975 0.381620 0.980156
0.764197 0.397124 0.973127
0.851241 0.424405 0.963984
0.930619 0.470395 0.953400
0.406467 0.584143 0.976525
0.413896 0.584198 0.976397
0.451646 0.584495 0.975714
0.511943 0.585045 0.974520
0.589216 0.586098 0.972484
0.674336 0.588213 0.969155
0.762330 0.592616 0.964072
0.848281 0.601699 0.957022
0.927662 0.619217 0.948328
0.458903 0.728802 0.960538
0.465064 0.728802 0.960460
0.496752 0.728806 0.960048
0.544972 0.728821 0.959323
0.607535 0.728883 0.958066
0.681843 0.729106 0.955952
0.763172 0.729854 0.952578
0.845822 0.732074 0.947610
0.924091 0.737778 0.941057
0.537105 0.836522 0.944580
0.541344 0.836513 0.944534
0.562448 0.836463 0.944289
0.594771 0.836379 0.943855
0.640650 0.836245 0.943099
0.700204 0.836057 0.941805
0.770559 0.835890 0.939678
0.846385 0.836064 0.936405
0.921225 0.837481 0.931832
0.624823 0.923111 0.929671
0.627215 0.923101 0.929643
0.639473 0.923046 0.929495
0.659365 0.922950 0.929234
0.689831 0.922787 0.928776
0.733015 0.922524 0.927988
0.788728 0.922139 0.926671
0.853575 0.921701 0.924587
0.921552 0.921552 0.921552
