luts/Rec2100_HLG/DJI_Osmo_DLogM_to_Rec2100_HLG_BT2408_Neutral.cube
TITLE "OpenOSV D-Log M to Rec.2100 HLG, BT.2408 Neutral - DJI Osmo 360 / Pocket 3"
LUT_3D_SIZE 5
DOMAIN_MIN 0.000000 0.000000 0.000000
DOMAIN_MAX 1.000000 1.000000 1.000000
0.000000 0.000000 0.000000
0.199586 0.045998 0.000000
0.454860 0.104830 0.000000
0.735780 0.198198 0.000000
0.961898 0.359852 0.000000
0.086794 0.221106 0.000000
0.217642 0.225840 0.000000
0.463066 0.244699 0.000000
0.737785 0.296935 0.000000
0.962466 0.422353 0.000000
0.197804 0.503877 0.000000
0.281001 0.505935 0.000000
0.496008 0.514319 0.000000
0.745954 0.538696 0.000000
0.964830 0.599670 0.000000
0.373980 0.775896 0.000000
0.423906 0.776348 0.000000
0.577339 0.778230 0.000000
0.769758 0.784103 0.000000
0.972165 0.801636 0.000000
0.639382 0.999515 0.000000
0.656779 0.999645 0.000000
0.715511 1.000000 0.000000
0.829596 1.000000 0.000000
0.993726 1.000000 0.000000
0.044465 0.000000 0.233389
0.204480 0.021379 0.232372
0.457028 0.096595 0.228055
0.736309 0.193968 0.213710
0.962048 0.357540 0.159582
0.097521 0.217323 0.223202
0.222138 0.222138 0.222138
0.465196 0.241285 0.217618
0.738307 0.294129 0.202535
0.962615 0.420384 0.144274
0.202741 0.502246 0.174102
0.284497 0.504323 0.172735
0.497997 0.512782 0.166883
0.746453 0.537355 0.146673
0.964977 0.598718 0.036156
0.376614 0.775541 0.000000
0.426231 0.775994 0.000000
0.578618 0.777880 0.000000
0.770195 0.783764 0.000000
0.972306 0.801329 0.000000
0.640286 0.999413 0.000000
0.657600 0.999543 0.000000
0.716102 1.000000 0.000000
0.829908 1.000000 0.000000
0.993851 1.000000 0.000000
0.101336 0.000000 0.530212
0.223839 0.000000 0.529811
0.466011 0.048722 0.528121
0.738507 0.175120 0.522622
0.962672 0.347676 0.503867
0.133425 0.200680 0.526239
0.240077 0.205884 0.525830
0.474025 0.226411 0.524101
0.740481 0.282055 0.518475
0.963238 0.412027 0.499257
0.222251 0.495281 0.508547
0.298715 0.497413 0.508094
0.506185 0.506185 0.506185
0.748531 0.531618 0.499956
0.965592 0.594667 0.479323
0.387467 0.774045 0.443345
0.435850 0.774501 0.442810
0.583882 0.776403 0.440560
0.772016 0.782335 0.433308
0.972897 0.800034 0.409329
0.644031 0.998987 0.000000
0.661002 0.999117 0.000000
0.718562 0.999660 0.000000
0.831214 1.000000 0.000000
0.994375 1.000000 0.000000
0.191593 0.000000 0.796785
0.276663 0.000000 0.796695
0.493563 0.000000 0.796316
0.745341 0.092117 0.795103
0.964650 0.314161 0.791181
0.210335 0.134504 0.795898
0.289958 0.142152 0.795807
0.501135 0.170530 0.795427
0.747242 0.239528 0.794208
0.965210 0.384168 0.790266
0.275380 0.472358 0.792129
0.340102 0.474593 0.792037
0.530058 0.483851 0.791648
0.754999 0.511993 0.790403
0.967538 0.581101 0.786375
0.420201 0.769188 0.779554
0.465192 0.769657 0.779454
0.599701 0.771610 0.779037
0.777701 0.777701 0.777701
0.974765 0.795842 0.773373
0.655473 0.997619 0.732280
0.671438 0.997750 0.732151
0.726186 0.998298 0.731608
0.835315 1.000000 0.729864
0.996033 1.000000 0.724187
0.347860 0.000000 1.000000
0.401050 0.000000 1.000000
0.564666 0.000000 1.000000
0.765537 0.000000 1.000000
0.970815 0.167250 1.000000
0.358524 0.000000 1.000000
0.410334 0.000000 1.000000
0.569837 0.000000 1.000000
0.767236 0.000000 1.000000
0.971356 0.277238 1.000000
0.400166 0.390382 1.000000
0.447178 0.393082 1.000000
0.590032 0.404212 1.000000
0.774188 0.437813 1.000000
0.973606 0.529346 1.000000
0.510550 0.752757 1.000000
0.544638 0.753271 1.000000
0.642435 0.755412 1.000000
0.794707 0.762069 1.000000
0.980596 0.781778 1.000000
0.687721 0.993189 1.000000
0.701148 0.993323 1.000000
0.748528 0.993884 1.000000
0.847797 0.995663 1.000000
1.000000 1.000000 1.000000
