luts/Rec709/DJI_Osmo_DLogM_to_Rec709_DJI_Look.cube
TITLE "OpenOSV D-Log M to Rec.709, DJI look - DJI Osmo 360 / Pocket 3"
LUT_3D_SIZE 5
DOMAIN_MIN 0.000000 0.000000 0.000000
DOMAIN_MAX 1.000000 1.000000 1.000000
0.000000 0.000000 0.000000
0.245391 0.012572 0.023491
0.569128 0.027901 0.053792
0.882467 0.040626 0.081959
1.000000 0.037277 0.094442
0.000274 0.215637 0.018990
0.188422 0.198717 0.008473
0.544302 0.160886 0.041325
0.872473 0.098116 0.075576
1.000000 0.044984 0.092204
0.000542 0.524213 0.040731
0.000754 0.521354 0.039159
0.471777 0.488162 0.013927
0.829770 0.423922 0.049120
1.000000 0.294154 0.068181
0.000718 0.830975 0.055871
0.000801 0.829664 0.054895
0.153400 0.813817 0.041525
0.753411 0.776575 0.012057
1.000000 0.657966 0.030013
0.000508 1.000000 0.022346
0.000535 1.000000 0.021467
0.000682 1.000000 0.017793
0.377165 1.000000 0.000000
0.960584 0.984851 0.000000
0.006318 0.024299 0.259435
0.251783 0.015242 0.237456
0.575079 0.030447 0.215317
0.886989 0.042577 0.194145
1.000000 0.037074 0.103519
0.000351 0.211945 0.214230
0.194744 0.194744 0.194744
0.550174 0.156796 0.177616
0.877080 0.092262 0.165899
1.000000 0.044779 0.101256
0.000553 0.523469 0.083327
0.000769 0.520154 0.066860
0.472595 0.486439 0.026242
0.830361 0.421863 0.057955
1.000000 0.291488 0.077122
0.000720 0.830633 0.064614
0.000804 0.829321 0.063624
0.154064 0.813455 0.050059
0.754021 0.776188 0.020163
1.000000 0.657461 0.038391
0.000509 1.000000 0.030561
0.000536 1.000000 0.029672
0.000684 1.000000 0.025957
0.377650 1.000000 0.000000
0.961089 0.985004 0.000000
0.016915 0.055373 0.609824
0.263011 0.045317 0.590823
0.584285 0.032722 0.562754
0.896457 0.045728 0.499571
1.000000 0.041305 0.419175
0.003005 0.189022 0.589777
0.209194 0.172299 0.573663
0.562855 0.130453 0.545513
0.892493 0.053462 0.491243
1.000000 0.048973 0.411288
0.000683 0.523656 0.532479
0.001042 0.520681 0.529647
0.487012 0.487012 0.487012
0.843760 0.421020 0.426203
1.000000 0.285745 0.357015
0.000783 0.835391 0.347332
0.000880 0.834036 0.344388
0.165068 0.817946 0.318663
0.764084 0.780046 0.254094
1.000000 0.658032 0.163026
0.000513 1.000000 0.066054
0.000540 1.000000 0.065123
0.000690 1.000000 0.061232
0.379685 1.000000 0.031459
0.963211 0.985641 0.000000
0.038133 0.082809 0.951336
0.269955 0.073538 0.934126
0.571458 0.060525 0.910979
0.906421 0.044993 0.878104
1.000000 0.040513 0.763210
0.018326 0.100139 0.948564
0.233535 0.083007 0.933566
0.560547 0.068857 0.908538
0.902599 0.052785 0.875343
1.000000 0.048251 0.759961
0.002489 0.478147 0.908114
0.003477 0.475409 0.906776
0.479740 0.442245 0.869758
0.856582 0.392885 0.836629
1.000000 0.245327 0.729164
0.000898 0.835710 0.851238
0.001021 0.834362 0.849786
0.181388 0.818165 0.828318
0.780430 0.780430 0.780430
1.000000 0.658011 0.661560
0.000557 1.000000 0.593210
0.000588 1.000000 0.591382
0.000762 1.000000 0.583722
0.398416 1.000000 0.531359
0.981790 0.996326 0.460215
0.055979 0.086363 1.000000
0.262256 0.078228 1.000000
0.535354 0.066545 1.000000
0.837558 0.050764 1.000000
1.000000 0.027390 1.000000
0.028076 0.095581 1.000000
0.229201 0.087562 1.000000
0.525272 0.074898 1.000000
0.833647 0.058733 1.000000
1.000000 0.035014 1.000000
0.005368 0.329579 1.000000
0.008546 0.325860 1.000000
0.460125 0.292146 1.000000
0.801045 0.232294 1.000000
1.000000 0.067863 1.000000
0.001722 0.730389 1.000000
0.001978 0.728945 1.000000
0.181787 0.713130 1.000000
0.717637 0.677266 1.000000
1.000000 0.625423 1.000000
0.000615 1.000000 1.000000
0.000650 1.000000 1.000000
0.000850 1.000000 1.000000
0.414819 1.000000 1.000000
1.000000 1.000000 1.000000
