luts/Rec709/DJI_Osmo_DLogM_to_Rec709_OpenOSV_Standard.cube
TITLE "OpenOSV D-Log M to Rec.709, OpenOSV standard - DJI Osmo 360 / Pocket 3"
LUT_3D_SIZE 9
DOMAIN_MIN 0.000000 0.000000 0.000000
DOMAIN_MAX 1.000000 1.000000 1.000000
0.000000 0.000000 0.000000
0.101070 0.000000 0.000000
0.254759 0.000000 0.000000
0.403255 0.000000 0.000000
0.570955 0.000000 0.000000
0.709632 0.000000 0.000000
0.830282 0.000000 0.000000
0.942808 0.000000 0.000000
1.000000 0.000000 0.000000
0.000000 0.092572 0.000000
0.087535 0.090366 0.000000
0.249698 0.077494 0.000000
0.400077 0.046308 0.000000
0.569230 0.000000 0.000000
0.708839 0.000000 0.000000
0.829879 0.000000 0.000000
0.942593 0.000000 0.000000
1.000000 0.000000 0.000000
0.000000 0.233339 0.000000
0.000000 0.232472 0.000000
0.220640 0.227778 0.000000
0.382616 0.219139 0.000000
0.559700 0.202800 0.000000
0.704537 0.169758 0.000000
0.827706 0.082683 0.000000
0.941439 0.000000 0.000000
1.000000 0.000000 0.000000
0.000000 0.369350 0.000000
0.000000 0.368803 0.000000
0.155764 0.365862 0.000000
0.349249 0.360547 0.000000
0.541296 0.350856 0.000000
0.696582 0.332851 0.000000
0.823755 0.298008 0.000000
0.939358 0.222617 0.000000
1.000000 0.000000 0.000000
0.000000 0.530109 0.000000
0.000000 0.529767 0.000000
0.000000 0.527928 0.000000
0.279948 0.524595 0.000000
0.502827 0.518483 0.000000
0.681432 0.507023 0.000000
0.816475 0.484955 0.000000
0.935582 0.442641 0.000000
1.000000 0.354745 0.000000
0.000000 0.673937 0.000000
0.000000 0.673785 0.000000
0.000000 0.672965 0.000000
0.022572 0.671491 0.000000
0.418316 0.668829 0.000000
0.650708 0.663975 0.000000
0.802691 0.654964 0.000000
0.928632 0.637652 0.000000
1.000000 0.601833 0.000000
0.000000 0.796702 0.000000
0.000000 0.796625 0.000000
0.000000 0.796213 0.000000
0.000000 0.795475 0.000000
0.189622 0.794149 0.000000
0.577827 0.791757 0.000000
0.775077 0.787404 0.000000
0.915510 0.779357 0.000000
1.000000 0.764021 0.000000
0.000000 0.910244 0.000000
0.000000 0.910203 0.000000
0.000000 0.909985 0.000000
0.000000 0.909594 0.000000
0.000000 0.908895 0.000000
0.315043 0.907640 0.000000
0.711764 0.905376 0.000000
0.889377 0.901261 0.000000
1.000000 0.893669 0.000000
0.000000 1.000000 0.000000
0.000000 1.000000 0.000000
0.000000 1.000000 0.000000
0.000000 1.000000 0.000000
0.000000 1.000000 0.000000
0.000000 1.000000 0.000000
0.460733 1.000000 0.000000
0.830391 1.000000 0.000000
0.998742 1.000000 0.000000
0.000000 0.000000 0.097906
0.101322 0.000000 0.096856
0.254916 0.000000 0.090254
0.403419 0.000000 0.077063
0.571106 0.000000 0.044694
0.709753 0.000000 0.000000
0.830388 0.000000 0.000000
0.942864 0.000000 0.000000
1.000000 0.000000 0.000000
0.000000 0.090386 0.089428
0.088129 0.088129 0.088129
0.249965 0.074895 0.080817
0.400309 0.041885 0.065759
0.569419 0.000000 0.019572
0.708977 0.000000 0.000000
0.829985 0.000000 0.000000
0.942650 0.000000 0.000000
1.000000 0.000000 0.000000
0.000000 0.232551 0.000000
0.000000 0.231682 0.000000
0.221588 0.226979 0.000000
0.383231 0.218322 0.000000
0.560104 0.201943 0.000000
0.704750 0.168770 0.000000
0.827813 0.080635 0.000000
0.941496 0.000000 0.000000
1.000000 0.000000 0.000000
0.000000 0.368897 0.000000
0.000000 0.368349 0.000000
0.157901 0.365405 0.000000
0.350208 0.360083 0.000000
0.541827 0.350379 0.000000
0.696805 0.332349 0.000000
0.823864 0.297446 0.000000
0.939416 0.221865 0.000000
1.000000 0.000000 0.000000
0.000000 0.529826 0.000000
0.000000 0.529484 0.000000
0.000000 0.527642 0.000000
0.281142 0.524303 0.000000
0.503485 0.518182 0.000000
0.681675 0.506701 0.000000
0.816589 0.484610 0.000000
0.935640 0.442263 0.000000
1.000000 0.354273 0.000000
0.000000 0.673811 0.000000
0.000000 0.673658 0.000000
0.000000 0.672838 0.000000
0.034345 0.671363 0.000000
0.419116 0.668699 0.000000
0.650996 0.663841 0.000000
0.802814 0.654824 0.000000
0.928693 0.637497 0.000000
1.000000 0.601643 0.000000
0.000000 0.796638 0.000000
0.000000 0.796562 0.000000
0.000000 0.796149 0.000000
0.000000 0.795411 0.000000
0.191381 0.794085 0.000000
0.578260 0.791691 0.000000
0.775220 0.787337 0.000000
0.915576 0.779287 0.000000
1.000000 0.763945 0.000000
0.000000 0.910210 0.000000
0.000000 0.910169 0.000000
0.000000 0.909951 0.000000
0.000000 0.909561 0.000000
0.000000 0.908861 0.000000
0.316105 0.907606 0.000000
0.711968 0.905341 0.000000
0.889453 0.901225 0.000000
1.000000 0.893632 0.000000
0.000000 1.000000 0.000000
0.000000 1.000000 0.000000
0.000000 1.000000 0.000000
0.000000 1.000000 0.000000
0.000000 1.000000 0.000000
0.000000 1.000000 0.000000
0.461459 1.000000 0.000000
0.830496 1.000000 0.000000
0.998783 1.000000 0.000000
0.000000 0.000000 0.246783
0.098647 0.000000 0.246383
0.255394 0.000000 0.244137
0.403721 0.000000 0.239574
0.571270 0.000000 0.231202
0.709828 0.000000 0.215446
0.830429 0.000000 0.183985
0.942931 0.000000 0.106827
1.000000 0.000000 0.000000
0.000000 0.077431 0.243832
0.089502 0.074783 0.243359
0.250453 0.058610 0.240807
0.400613 0.000000 0.236180
0.569584 0.000000 0.227684
0.709053 0.000000 0.211666
0.830035 0.000000 0.179544
0.942720 0.000000 0.098982
1.000000 0.000000 0.000000
0.000000 0.227828 0.225413
0.000000 0.226942 0.224901
0.222138 0.222138 0.222138
0.383549 0.213285 0.217113
0.560278 0.196487 0.207838
0.704847 0.162222 0.190156
0.827909 0.066095 0.153600
0.941591 0.000000 0.033976
1.000000 0.000000 0.000000
0.000000 0.365973 0.188064
0.000000 0.365422 0.187449
0.159486 0.362458 0.184125
0.350999 0.357101 0.178030
0.542340 0.347330 0.166594
0.697075 0.329161 0.143931
0.824046 0.293938 0.090277
0.939556 0.217278 0.000000
1.000000 0.000000 0.000000
0.000000 0.528087 0.088273
0.000000 0.527743 0.086956
0.000000 0.525885 0.079536
0.283737 0.522519 0.064179
0.505007 0.516344 0.013332
0.682298 0.504759 0.000000
0.816933 0.482572 0.000000
0.935863 0.440098 0.000000
1.000000 0.351721 0.000000
0.000000 0.673106 0.000000
0.000000 0.672953 0.000000
0.000000 0.672131 0.000000
0.065363 0.670653 0.000000
0.422899 0.667982 0.000000
0.652431 0.663112 0.000000
0.803472 0.654069 0.000000
0.929020 0.636665 0.000000
1.000000 0.600626 0.000000
0.000000 0.796297 0.000000
0.000000 0.796220 0.000000
0.000000 0.795807 0.000000
0.000000 0.795067 0.000000
0.200535 0.793738 0.000000
0.580561 0.791340 0.000000
0.775989 0.786977 0.000000
0.915926 0.778911 0.000000
1.000000 0.763535 0.000000
0.000000 0.910029 0.000000
0.000000 0.909988 0.000000
0.000000 0.909770 0.000000
0.000000 0.909379 0.000000
0.000000 0.908679 0.000000
0.321730 0.907422 0.000000
0.713062 0.905156 0.000000
0.889859 0.901035 0.000000
1.000000 0.893433 0.000000
0.000000 1.000000 0.000000
0.000000 1.000000 0.000000
0.000000 1.000000 0.000000
0.000000 1.000000 0.000000
0.000000 1.000000 0.000000
0.000000 1.000000 0.000000
0.465331 1.000000 0.000000
0.831061 1.000000 0.000000
0.999003 1.000000 0.000000
0.000000 0.000000 0.390631
0.093272 0.000000 0.390378
0.253896 0.000000 0.389023
0.404261 0.000000 0.386442
0.571562 0.000000 0.381308
0.709963 0.000000 0.371966
0.830498 0.000000 0.354672
0.942967 0.000000 0.321486
1.000000 0.000000 0.251568
0.000000 0.045944 0.389096
0.091906 0.041326 0.388800
0.251322 0.000000 0.387208
0.401157 0.000000 0.384347
0.569879 0.000000 0.379185
0.709189 0.000000 0.369789
0.830104 0.000000 0.352389
0.942757 0.000000 0.318966
1.000000 0.000000 0.248338
0.000000 0.219137 0.377826
0.000000 0.218215 0.377521
0.223117 0.213215 0.375881
0.384117 0.203975 0.372934
0.560589 0.186339 0.367612
0.704986 0.149770 0.357912
0.827978 0.021997 0.339904
0.941628 0.000000 0.305116
1.000000 0.000000 0.230280
0.000000 0.360627 0.356805
0.000000 0.360068 0.356481
0.160847 0.357059 0.354744
0.351620 0.351620 0.351620
0.542683 0.341692 0.345970
0.697220 0.323206 0.335645
0.824117 0.287254 0.316372
0.939593 0.208146 0.278662
1.000000 0.000000 0.193870
0.000000 0.524736 0.315806
0.000000 0.524385 0.315441
0.000000 0.522492 0.313477
0.284505 0.519060 0.309936
0.505431 0.512763 0.303512
0.682456 0.500936 0.291688
0.817007 0.478530 0.269287
0.935901 0.435662 0.223779
1.000000 0.346155 0.100049
0.000000 0.671625 0.224707
0.000000 0.671470 0.224193
0.000000 0.670641 0.221421
0.068617 0.669151 0.216380
0.423414 0.666457 0.207073
0.652617 0.661545 0.189319
0.803563 0.652423 0.152563
0.929113 0.634878 0.028925
1.000000 0.598500 0.000000
0.000000 0.795606 0.000000
0.000000 0.795528 0.000000
0.000000 0.795115 0.000000
0.000000 0.794373 0.000000
0.207733 0.793041 0.000000
0.582529 0.790637 0.000000
0.776714 0.786263 0.000000
0.916310 0.778177 0.000000
1.000000 0.762760 0.000000
0.000000 0.909706 0.000000
0.000000 0.909665 0.000000
0.000000 0.909446 0.000000
0.000000 0.909055 0.000000
0.000000 0.908353 0.000000
0.331543 0.907094 0.000000
0.714998 0.904823 0.000000
0.890582 0.900695 0.000000
1.000000 0.893079 0.000000
0.000000 1.000000 0.000000
0.000000 1.000000 0.000000
0.000000 1.000000 0.000000
0.000000 1.000000 0.000000
0.000000 1.000000 0.000000
0.000000 1.000000 0.000000
0.472168 1.000000 0.000000
0.832065 1.000000 0.000000
0.999396 1.000000 0.000000
0.000000 0.000000 0.556407
0.082812 0.000000 0.556263
0.250242 0.000000 0.555491
0.402812 0.000000 0.554102
0.572084 0.000000 0.551416
0.710204 0.000000 0.546057
0.830620 0.000000 0.536071
0.943033 0.000000 0.516721
1.000000 0.000000 0.476928
0.000000 0.000000 0.555793
0.094234 0.000000 0.555649
0.252866 0.000000 0.554785
0.402127 0.000000 0.553153
0.570405 0.000000 0.550201
0.709430 0.000000 0.544805
0.830226 0.000000 0.534746
0.942823 0.000000 0.515244
1.000000 0.000000 0.475232
0.000000 0.202693 0.549422
0.000000 0.201696 0.549247
0.224855 0.196275 0.548307
0.385129 0.186196 0.546614
0.561143 0.166690 0.543551
0.705233 0.124477 0.537948
0.828103 0.000000 0.527484
0.941694 0.000000 0.507126
1.000000 0.000000 0.466050
0.000000 0.350878 0.537306
0.000000 0.350303 0.537119
0.163249 0.347210 0.536112
0.352725 0.341614 0.534300
0.543296 0.331386 0.531017
0.697478 0.312291 0.525000
0.824244 0.274915 0.513725
0.939660 0.190757 0.491758
1.000000 0.000000 0.449176
0.000000 0.518591 0.513393
0.000000 0.518228 0.513179
0.000000 0.516268 0.512028
0.285870 0.512714 0.509952
0.506185 0.506185 0.506185
0.682736 0.493966 0.499255
0.817139 0.471227 0.486507
0.935969 0.427627 0.462872
1.000000 0.335986 0.417353
0.000000 0.668948 0.463322
0.000000 0.668791 0.463073
0.000000 0.667950 0.461737
0.074074 0.666436 0.459341
0.424333 0.663701 0.455030
0.652948 0.658712 0.447231
0.803706 0.649440 0.432954
0.929183 0.631585 0.406215
1.000000 0.594456 0.353473
0.000000 0.794272 0.356009
0.000000 0.794195 0.355684
0.000000 0.793778 0.353944
0.000000 0.793031 0.350812
0.209598 0.791688 0.345149
0.583019 0.789266 0.334799
0.776879 0.784858 0.315474
0.916386 0.776707 0.277643
1.000000 0.761157 0.192401
0.000000 0.909020 0.000000
0.000000 0.908980 0.000000
0.000000 0.908760 0.000000
0.000000 0.908368 0.000000
0.000000 0.907665 0.000000
0.335529 0.906403 0.000000
0.715884 0.904127 0.000000
0.890974 0.899989 0.000000
1.000000 0.892353 0.000000
0.000000 1.000000 0.000000
0.000000 1.000000 0.000000
0.000000 1.000000 0.000000
0.000000 1.000000 0.000000
0.000000 1.000000 0.000000
0.000000 1.000000 0.000000
0.484138 1.000000 0.000000
0.833843 1.000000 0.000000
1.000000 1.000000 0.000000
0.000000 0.000000 0.696802
0.059740 0.000000 0.696737
0.243582 0.000000 0.696385
0.398709 0.000000 0.695754
0.570813 0.000000 0.694623
0.710632 0.000000 0.692429
0.830839 0.000000 0.688093
0.943149 0.000000 0.680077
1.000000 0.000000 0.664806
0.000000 0.000000 0.696522
0.074773 0.000000 0.696457
0.247698 0.000000 0.696104
0.401237 0.000000 0.695473
0.571341 0.000000 0.694269
0.709861 0.000000 0.691878
0.830446 0.000000 0.687528
0.942939 0.000000 0.679487
1.000000 0.000000 0.664162
0.000000 0.169405 0.693921
0.000000 0.168211 0.693843
0.227926 0.161671 0.693425
0.386930 0.149274 0.692675
0.562128 0.124095 0.691328
0.705674 0.055753 0.688897
0.828324 0.000000 0.684473
0.941812 0.000000 0.676290
1.000000 0.000000 0.660677
0.000000 0.332760 0.688622
0.000000 0.332153 0.688541
0.167453 0.328890 0.688110
0.354690 0.322976 0.687338
0.544384 0.312138 0.685950
0.697939 0.291786 0.683445
0.824471 0.251380 0.678882
0.939779 0.154926 0.670433
1.000000 0.000000 0.654276
0.000000 0.507064 0.678750
0.000000 0.506676 0.678665
0.000000 0.504586 0.678210
0.288291 0.500789 0.677393
0.507523 0.493869 0.675925
0.683236 0.481265 0.673274
0.817375 0.457896 0.668441
0.936091 0.412891 0.659471
1.000000 0.317018 0.642242
0.000000 0.664066 0.659642
0.000000 0.663905 0.659547
0.000000 0.663040 0.659040
0.082929 0.661485 0.658131
0.425968 0.658673 0.656496
0.653538 0.653538 0.653538
0.803960 0.643987 0.648132
0.929309 0.625550 0.638052
1.000000 0.586999 0.618507
0.000000 0.791867 0.619432
0.000000 0.791788 0.619314
0.000000 0.791366 0.618679
0.000000 0.790608 0.617538
0.212889 0.789248 0.615484
0.583891 0.786792 0.611756
0.777175 0.782322 0.604899
0.916521 0.774051 0.591961
1.000000 0.758258 0.566238
0.000000 0.907758 0.512451
0.000000 0.907717 0.512235
0.000000 0.907496 0.511078
0.000000 0.907101 0.508991
0.000000 0.906393 0.505203
0.337594 0.905122 0.498239
0.716300 0.902829 0.485465
0.891130 0.898661 0.461776
1.000000 0.890967 0.416137
0.000000 1.000000 0.000000
0.000000 1.000000 0.000000
0.000000 1.000000 0.000000
0.000000 1.000000 0.000000
0.000000 1.000000 0.000000
0.000000 1.000000 0.000000
0.486363 1.000000 0.000000
0.834258 1.000000 0.000000
1.000000 1.000000 0.000000
0.000000 0.000000 0.818167
0.000000 0.000000 0.818134
0.231213 0.000000 0.817956
0.391275 0.000000 0.817637
0.566817 0.000000 0.817065
0.709648 0.000000 0.816041
0.831229 0.000000 0.814049
0.943358 0.000000 0.810131
1.000000 0.000000 0.802914
0.000000 0.000000 0.818025
0.000000 0.000000 0.817992
0.235546 0.000000 0.817814
0.393851 0.000000 0.817494
0.568203 0.000000 0.816923
0.710273 0.000000 0.815897
0.830836 0.000000 0.813770
0.943148 0.000000 0.809846
1.000000 0.000000 0.802617
0.000000 0.081123 0.816955
0.000000 0.078600 0.816916
0.233308 0.063407 0.816706
0.390125 0.012869 0.816330
0.563873 0.000000 0.815656
0.706458 0.000000 0.814448
0.828720 0.000000 0.812269
0.942021 0.000000 0.808311
1.000000 0.000000 0.801018
0.000000 0.297677 0.814311
0.000000 0.297000 0.814271
0.174709 0.293345 0.814058
0.358173 0.286699 0.813676
0.546310 0.274432 0.812993
0.698758 0.251042 0.811766
0.824875 0.202669 0.809554
0.939991 0.043415 0.805535
1.000000 0.000000 0.798126
0.000000 0.484859 0.809491
0.000000 0.484443 0.809450
0.000000 0.482212 0.809231
0.292565 0.478198 0.808839
0.509887 0.470946 0.808137
0.684125 0.457710 0.806876
0.817796 0.433072 0.804602
0.936307 0.385177 0.800469
1.000000 0.279970 0.792843
0.000000 0.655004 0.800547
0.000000 0.654834 0.800504
0.000000 0.653924 0.800273
0.096746 0.652287 0.799861
0.428872 0.649325 0.799123
0.654587 0.643911 0.797797
0.804413 0.633816 0.795404
0.929534 0.614239 0.791050
1.000000 0.572857 0.783001
0.000000 0.787489 0.783371
0.000000 0.787408 0.783323
0.000000 0.786976 0.783070
0.000000 0.786199 0.782616
0.218642 0.784805 0.781803
0.585437 0.782287 0.780341
0.777701 0.777701 0.777701
0.916763 0.769208 0.772888
1.000000 0.752962 0.763957
0.000000 0.905482 0.747880
0.000000 0.905440 0.747822
0.000000 0.905216 0.747513
0.000000 0.904816 0.746959
0.000000 0.904099 0.745965
0.341251 0.902811 0.744178
0.717039 0.900489 0.740941
0.891409 0.896265 0.735011
1.000000 0.888465 0.723907
0.000000 1.000000 0.658899
0.000000 1.000000 0.658804
0.000000 1.000000 0.658295
0.000000 1.000000 0.657382
0.000000 1.000000 0.655740
0.000000 1.000000 0.652770
0.488909 1.000000 0.647340
0.834641 1.000000 0.637215
1.000000 1.000000 0.617572
0.000000 0.000000 0.931038
0.000000 0.000000 0.931021
0.207299 0.000000 0.930926
0.377637 0.000000 0.930756
0.559450 0.000000 0.930453
0.706371 0.000000 0.929910
0.830364 0.000000 0.928937
0.943729 0.000000 0.927043
1.000000 0.000000 0.923326
0.000000 0.000000 0.930963
0.000000 0.000000 0.930945
0.212121 0.000000 0.930850
0.380305 0.000000 0.930681
0.560894 0.000000 0.930377
0.707007 0.000000 0.929834
0.830683 0.000000 0.928861
0.943519 0.000000 0.926895
1.000000 0.000000 0.923174
0.000000 0.000000 0.930558
0.007567 0.000000 0.930541
0.236264 0.000000 0.930445
0.394281 0.000000 0.930275
0.566948 0.000000 0.929938
0.707850 0.000000 0.929301
0.829424 0.000000 0.928158
0.942395 0.000000 0.926099
1.000000 0.000000 0.922361
0.000000 0.221627 0.929229
0.000000 0.220716 0.929208
0.186966 0.215774 0.929096
0.364309 0.206648 0.928896
0.549700 0.189262 0.928537
0.700211 0.153392 0.927895
0.825594 0.039770 0.926743
0.940369 0.000000 0.924667
1.000000 0.000000 0.920900
0.000000 0.442262 0.926710
0.000000 0.441806 0.926689
0.000000 0.439357 0.926575
0.300046 0.434948 0.926372
0.514034 0.426962 0.926008
0.685701 0.412317 0.925357
0.818544 0.384783 0.924189
0.936693 0.329952 0.922083
1.000000 0.197206 0.918260
0.000000 0.637583 0.922122
0.000000 0.637396 0.922101
0.000000 0.636392 0.921984
0.117443 0.634585 0.921775
0.434010 0.631312 0.921402
0.656445 0.625315 0.920734
0.805219 0.614079 0.919535
0.929935 0.592071 0.917373
1.000000 0.544435 0.913447
0.000000 0.779396 0.913625
0.000000 0.779311 0.913602
0.000000 0.778858 0.913480
0.000000 0.778046 0.913261
0.228555 0.776586 0.912870
0.588165 0.773949 0.912169
0.778637 0.769141 0.910911
0.917193 0.760221 0.908642
1.000000 0.743096 0.904517
0.000000 0.901343 0.897370
0.000000 0.901301 0.897345
0.000000 0.901072 0.897211
0.000000 0.900662 0.896971
0.000000 0.899928 0.896542
0.347686 0.898610 0.895774
0.718351 0.896232 0.894395
0.891905 0.891905 0.891905
1.000000 0.883908 0.887370
0.000000 1.000000 0.864066
0.000000 1.000000 0.864036
0.000000 1.000000 0.863874
0.000000 1.000000 0.863585
0.000000 1.000000 0.863069
0.000000 1.000000 0.862142
0.493422 1.000000 0.860476
0.835322 1.000000 0.857461
1.000000 1.000000 0.851948
0.000000 0.000000 1.000000
0.000000 0.000000 1.000000
0.155717 0.000000 1.000000
0.351972 0.000000 1.000000
0.545489 0.000000 1.000000
0.700365 0.000000 1.000000
0.827387 0.000000 1.000000
0.942922 0.000000 1.000000
1.000000 0.000000 1.000000
0.000000 0.000000 1.000000
0.000000 0.000000 1.000000
0.162080 0.000000 1.000000
0.354833 0.000000 1.000000
0.547051 0.000000 1.000000
0.701024 0.000000 1.000000
0.827711 0.000000 1.000000
0.943091 0.000000 1.000000
1.000000 0.000000 1.000000
0.000000 0.000000 1.000000
0.000000 0.000000 1.000000
0.192602 0.000000 1.000000
0.369773 0.000000 1.000000
0.555184 0.000000 1.000000
0.704507 0.000000 1.000000
0.829435 0.000000 1.000000
0.943061 0.000000 1.000000
1.000000 0.000000 1.000000
0.000000 0.000000 1.000000
0.000000 0.000000 1.000000
0.207056 0.000000 1.000000
0.375016 0.000000 1.000000
0.555596 0.000000 1.000000
0.702776 0.000000 1.000000
0.826871 0.000000 1.000000
0.941043 0.000000 1.000000
1.000000 0.000000 1.000000
0.000000 0.353660 1.000000
0.000000 0.353090 1.000000
0.013368 0.350021 1.000000
0.312959 0.344471 1.000000
0.521206 0.334330 1.000000
0.688482 0.315413 1.000000
0.819872 0.278457 1.000000
0.937381 0.195828 1.000000
1.000000 0.000000 1.000000
0.000000 0.601503 1.000000
0.000000 0.601274 1.000000
0.000000 0.600045 1.000000
0.147339 0.597828 1.000000
0.443035 0.593800 1.000000
0.659715 0.586374 1.000000
0.806650 0.572294 1.000000
0.930649 0.544012 1.000000
1.000000 0.479503 1.000000
0.000000 0.763964 1.000000
0.000000 0.763872 1.000000
0.000000 0.763378 1.000000
0.000000 0.762492 1.000000
0.245262 0.760899 1.000000
0.592936 0.758018 1.000000
0.780296 0.752756 1.000000
0.917960 0.742957 1.000000
1.000000 0.724000 1.000000
0.000000 0.893707 1.000000
0.000000 0.893662 1.000000
0.000000 0.893423 1.000000
0.000000 0.892996 1.000000
0.000000 0.892230 1.000000
0.358889 0.890853 1.000000
0.720671 0.888369 1.000000
0.892787 0.883845 1.000000
1.000000 0.875471 1.000000
0.000000 1.000000 1.000000
0.000000 1.000000 1.000000
0.000000 1.000000 1.000000
0.000000 1.000000 1.000000
0.000000 1.000000 1.000000
0.000000 1.000000 1.000000
0.501376 1.000000 1.000000
0.836532 1.000000 1.000000
1.000000 1.000000 1.000000
