luts/Rec709/DJI_Osmo_DLogM_to_Rec709_OpenOSV_Standard.cube
TITLE "OpenOSV D-Log M to Rec.709, OpenOSV standard - DJI Osmo 360 / Pocket 3"
LUT_3D_SIZE 65
DOMAIN_MIN 0.000000 0.000000 0.000000
DOMAIN_MAX 1.000000 1.000000 1.000000
0.000000 0.000000 0.000000
0.031262 0.000000 0.000000
0.045034 0.000000 0.000000
0.056194 0.000000 0.000000
0.066124 0.000000 0.000000
0.075355 0.000000 0.000000
0.084157 0.000000 0.000000
0.092694 0.000000 0.000000
0.101070 0.000000 0.000000
0.124159 0.000000 0.000000
0.145066 0.000000 0.000000
0.164609 0.000000 0.000000
0.183311 0.000000 0.000000
0.201491 0.000000 0.000000
0.219363 0.000000 0.000000
0.237080 0.000000 0.000000
0.254759 0.000000 0.000000
0.272489 0.000000 0.000000
0.290347 0.000000 0.000000
0.308395 0.000000 0.000000
0.326690 0.000000 0.000000
0.345280 0.000000 0.000000
0.364210 0.000000 0.000000
0.383522 0.000000 0.000000
0.403255 0.000000 0.000000
0.423447 0.000000 0.000000
0.444133 0.000000 0.000000
0.465350 0.000000 0.000000
0.487131 0.000000 0.000000
0.509354 0.000000 0.000000
0.530778 0.000000 0.000000
0.551266 0.000000 0.000000
0.570955 0.000000 0.000000
0.589954 0.000000 0.000000
0.608353 0.000000 0.000000
0.626228 0.000000 0.000000
0.643641 0.000000 0.000000
0.660646 0.000000 0.000000
0.677287 0.000000 0.000000
0.693605 0.000000 0.000000
0.709632 0.000000 0.000000
0.725398 0.000000 0.000000
0.740929 0.000000 0.000000
0.756248 0.000000 0.000000
0.771374 0.000000 0.000000
0.786326 0.000000 0.000000
0.801119 0.000000 0.000000
0.815767 0.000000 0.000000
0.830282 0.000000 0.000000
0.844677 0.000000 0.000000
0.858962 0.000000 0.000000
0.873145 0.000000 0.000000
0.887235 0.000000 0.000000
0.901240 0.000000 0.000000
0.915166 0.000000 0.000000
0.929020 0.000000 0.000000
0.942808 0.000000 0.000000
0.956534 0.000000 0.000000
0.970204 0.000000 0.000000
0.983822 0.000000 0.000000
0.997392 0.000000 0.000000
1.000000 0.000000 0.000000
1.000000 0.000000 0.000000
1.000000 0.000000 0.000000
1.000000 0.000000 0.000000
0.000000 0.028633 0.000000
0.027075 0.027951 0.000000
0.042235 0.027198 0.000000
0.053977 0.026365 0.000000
0.064251 0.025438 0.000000
0.073717 0.024403 0.000000
0.082694 0.023238 0.000000
0.091367 0.021917 0.000000
0.099855 0.020402 0.000000
0.123172 0.014518 0.000000
0.144222 0.000000 0.000000
0.163865 0.000000 0.000000
0.182643 0.000000 0.000000
0.200884 0.000000 0.000000
0.218806 0.000000 0.000000
0.236565 0.000000 0.000000
0.254279 0.000000 0.000000
0.272040 0.000000 0.000000
0.289926 0.000000 0.000000
0.307999 0.000000 0.000000
0.326316 0.000000 0.000000
0.344926 0.000000 0.000000
0.363874 0.000000 0.000000
0.383203 0.000000 0.000000
0.402952 0.000000 0.000000
0.423158 0.000000 0.000000
0.443858 0.000000 0.000000
0.465087 0.000000 0.000000
0.486881 0.000000 0.000000
0.509122 0.000000 0.000000
0.530572 0.000000 0.000000
0.551083 0.000000 0.000000
0.570791 0.000000 0.000000
0.589806 0.000000 0.000000
0.608220 0.000000 0.000000
0.626107 0.000000 0.000000
0.643532 0.000000 0.000000
0.660546 0.000000 0.000000
0.677197 0.000000 0.000000
0.693522 0.000000 0.000000
0.709556 0.000000 0.000000
0.725329 0.000000 0.000000
0.740866 0.000000 0.000000
0.756190 0.000000 0.000000
0.771321 0.000000 0.000000
0.786277 0.000000 0.000000
0.801073 0.000000 0.000000
0.815725 0.000000 0.000000
0.830244 0.000000 0.000000
0.844642 0.000000 0.000000
0.858929 0.000000 0.000000
0.873115 0.000000 0.000000
0.887207 0.000000 0.000000
0.901214 0.000000 0.000000
0.915142 0.000000 0.000000
0.928998 0.000000 0.000000
0.942787 0.000000 0.000000
0.956515 0.000000 0.000000
0.970187 0.000000 0.000000
0.983806 0.000000 0.000000
0.997377 0.000000 0.000000
1.000000 0.000000 0.000000
1.000000 0.000000 0.000000
1.000000 0.000000 0.000000
1.000000 0.000000 0.000000
0.000000 0.041248 0.000000
0.021690 0.040777 0.000000
0.039003 0.040264 0.000000
0.051487 0.039706 0.000000
0.062174 0.039097 0.000000
0.071913 0.038432 0.000000
0.081090 0.037703 0.000000
0.089918 0.036903 0.000000
0.098531 0.036024 0.000000
0.122101 0.033049 0.000000
0.143309 0.029493 0.000000
0.163062 0.025115 0.000000
0.181923 0.019330 0.000000
0.200229 0.009860 0.000000
0.218205 0.000000 0.000000
0.236009 0.000000 0.000000
0.253762 0.000000 0.000000
0.271557 0.000000 0.000000
0.289472 0.000000 0.000000
0.307572 0.000000 0.000000
0.325913 0.000000 0.000000
0.344545 0.000000 0.000000
0.363513 0.000000 0.000000
0.382860 0.000000 0.000000
0.402626 0.000000 0.000000
0.422848 0.000000 0.000000
0.443562 0.000000 0.000000
0.464805 0.000000 0.000000
0.486611 0.000000 0.000000
0.508872 0.000000 0.000000
0.530351 0.000000 0.000000
0.550885 0.000000 0.000000
0.570614 0.000000 0.000000
0.589647 0.000000 0.000000
0.608076 0.000000 0.000000
0.625978 0.000000 0.000000
0.643414 0.000000 0.000000
0.660439 0.000000 0.000000
0.677099 0.000000 0.000000
0.693433 0.000000 0.000000
0.709475 0.000000 0.000000
0.725254 0.000000 0.000000
0.740797 0.000000 0.000000
0.756127 0.000000 0.000000
0.771263 0.000000 0.000000
0.786224 0.000000 0.000000
0.801025 0.000000 0.000000
0.815680 0.000000 0.000000
0.830202 0.000000 0.000000
0.844604 0.000000 0.000000
0.858894 0.000000 0.000000
0.873082 0.000000 0.000000
0.887177 0.000000 0.000000
0.901186 0.000000 0.000000
0.915116 0.000000 0.000000
0.928974 0.000000 0.000000
0.942765 0.000000 0.000000
0.956495 0.000000 0.000000
0.970168 0.000000 0.000000
0.983788 0.000000 0.000000
0.997360 0.000000 0.000000
1.000000 0.000000 0.000000
1.000000 0.000000 0.000000
1.000000 0.000000 0.000000
1.000000 0.000000 0.000000
0.000000 0.051469 0.000000
0.013716 0.051093 0.000000
0.035198 0.050685 0.000000
0.048668 0.050243 0.000000
0.059860 0.049763 0.000000
0.069923 0.049242 0.000000
0.079330 0.048675 0.000000
0.088334 0.048058 0.000000
0.097088 0.047387 0.000000
0.120939 0.045166 0.000000
0.142320 0.042633 0.000000
0.162194 0.039730 0.000000
0.181145 0.036351 0.000000
0.199523 0.032326 0.000000
0.217557 0.027346 0.000000
0.235410 0.020694 0.000000
0.253205 0.009204 0.000000
0.271037 0.000000 0.000000
0.288984 0.000000 0.000000
0.307113 0.000000 0.000000
0.325480 0.000000 0.000000
0.344135 0.000000 0.000000
0.363125 0.000000 0.000000
0.382492 0.000000 0.000000
0.402275 0.000000 0.000000
0.422514 0.000000 0.000000
0.443244 0.000000 0.000000
0.464501 0.000000 0.000000
0.486321 0.000000 0.000000
0.508603 0.000000 0.000000
0.530112 0.000000 0.000000
0.550673 0.000000 0.000000
0.570423 0.000000 0.000000
0.589476 0.000000 0.000000
0.607922 0.000000 0.000000
0.625838 0.000000 0.000000
0.643287 0.000000 0.000000
0.660324 0.000000 0.000000
0.676994 0.000000 0.000000
0.693337 0.000000 0.000000
0.709387 0.000000 0.000000
0.725174 0.000000 0.000000
0.740724 0.000000 0.000000
0.756060 0.000000 0.000000
0.771201 0.000000 0.000000
0.786167 0.000000 0.000000
0.800972 0.000000 0.000000
0.815632 0.000000 0.000000
0.830158 0.000000 0.000000
0.844563 0.000000 0.000000
0.858856 0.000000 0.000000
0.873047 0.000000 0.000000
0.887144 0.000000 0.000000
0.901156 0.000000 0.000000
0.915089 0.000000 0.000000
0.928949 0.000000 0.000000
0.942742 0.000000 0.000000
0.956473 0.000000 0.000000
0.970147 0.000000 0.000000
0.983769 0.000000 0.000000
0.997343 0.000000 0.000000
1.000000 0.000000 0.000000
1.000000 0.000000 0.000000
1.000000 0.000000 0.000000
1.000000 0.000000 0.000000
0.000000 0.060565 0.000000
0.000000 0.060245 0.000000
0.030583 0.059900 0.000000
0.045443 0.059526 0.000000
0.057269 0.059121 0.000000
0.067717 0.058683 0.000000
0.077393 0.058209 0.000000
0.086599 0.057694 0.000000
0.095512 0.057135 0.000000
0.119678 0.055308 0.000000
0.141250 0.053260 0.000000
0.161256 0.050965 0.000000
0.180306 0.048377 0.000000
0.198761 0.045431 0.000000
0.216858 0.042033 0.000000
0.234765 0.038043 0.000000
0.252605 0.033222 0.000000
0.270476 0.027098 0.000000
0.288459 0.018363 0.000000
0.306618 0.000000 0.000000
0.325013 0.000000 0.000000
0.343693 0.000000 0.000000
0.362706 0.000000 0.000000
0.382095 0.000000 0.000000
0.401898 0.000000 0.000000
0.422155 0.000000 0.000000
0.442901 0.000000 0.000000
0.464174 0.000000 0.000000
0.486008 0.000000 0.000000
0.508314 0.000000 0.000000
0.529856 0.000000 0.000000
0.550444 0.000000 0.000000
0.570219 0.000000 0.000000
0.589292 0.000000 0.000000
0.607756 0.000000 0.000000
0.625688 0.000000 0.000000
0.643151 0.000000 0.000000
0.660200 0.000000 0.000000
0.676881 0.000000 0.000000
0.693234 0.000000 0.000000
0.709293 0.000000 0.000000
0.725088 0.000000 0.000000
0.740645 0.000000 0.000000
0.755987 0.000000 0.000000
0.771135 0.000000 0.000000
0.786105 0.000000 0.000000
0.800916 0.000000 0.000000
0.815580 0.000000 0.000000
0.830110 0.000000 0.000000
0.844518 0.000000 0.000000
0.858815 0.000000 0.000000
0.873009 0.000000 0.000000
0.887110 0.000000 0.000000
0.901124 0.000000 0.000000
0.915059 0.000000 0.000000
0.928921 0.000000 0.000000
0.942716 0.000000 0.000000
0.956449 0.000000 0.000000
0.970125 0.000000 0.000000
0.983749 0.000000 0.000000
0.997324 0.000000 0.000000
1.000000 0.000000 0.000000
1.000000 0.000000 0.000000
1.000000 0.000000 0.000000
1.000000 0.000000 0.000000
0.000000 0.069019 0.000000
0.000000 0.068739 0.000000
0.024677 0.068436 0.000000
0.041698 0.068109 0.000000
0.054345 0.067756 0.000000
0.065263 0.067374 0.000000
0.075255 0.066961 0.000000
0.084694 0.066514 0.000000
0.093788 0.066031 0.000000
0.118306 0.064456 0.000000
0.140090 0.062707 0.000000
0.160241 0.060770 0.000000
0.179398 0.058617 0.000000
0.197938 0.056210 0.000000
0.216104 0.053501 0.000000
0.234068 0.050426 0.000000
0.251958 0.046896 0.000000
0.269872 0.042777 0.000000
0.287892 0.037852 0.000000
0.306086 0.031714 0.000000
0.324510 0.023382 0.000000
0.343218 0.007289 0.000000
0.362256 0.000000 0.000000
0.381667 0.000000 0.000000
0.401492 0.000000 0.000000
0.421768 0.000000 0.000000
0.442533 0.000000 0.000000
0.463823 0.000000 0.000000
0.485673 0.000000 0.000000
0.508002 0.000000 0.000000
0.529579 0.000000 0.000000
0.550198 0.000000 0.000000
0.569998 0.000000 0.000000
0.589093 0.000000 0.000000
0.607577 0.000000 0.000000
0.625526 0.000000 0.000000
0.643004 0.000000 0.000000
0.660067 0.000000 0.000000
0.676760 0.000000 0.000000
0.693123 0.000000 0.000000
0.709192 0.000000 0.000000
0.724995 0.000000 0.000000
0.740560 0.000000 0.000000
0.755909 0.000000 0.000000
0.771063 0.000000 0.000000
0.786040 0.000000 0.000000
0.800855 0.000000 0.000000
0.815524 0.000000 0.000000
0.830058 0.000000 0.000000
0.844471 0.000000 0.000000
0.858771 0.000000 0.000000
0.872969 0.000000 0.000000
0.887072 0.000000 0.000000
0.901089 0.000000 0.000000
0.915027 0.000000 0.000000
0.928891 0.000000 0.000000
0.942689 0.000000 0.000000
0.956424 0.000000 0.000000
0.970102 0.000000 0.000000
0.983727 0.000000 0.000000
0.997304 0.000000 0.000000
1.000000 0.000000 0.000000
1.000000 0.000000 0.000000
1.000000 0.000000 0.000000
1.000000 0.000000 0.000000
0.000000 0.077082 0.000000
0.000000 0.076831 0.000000
0.016064 0.076560 0.000000
0.037253 0.076268 0.000000
0.051014 0.075953 0.000000
0.062517 0.075612 0.000000
0.072887 0.075244 0.000000
0.082596 0.074847 0.000000
0.091898 0.074417 0.000000
0.116814 0.073024 0.000000
0.138832 0.071485 0.000000
0.159142 0.069792 0.000000
0.178418 0.067925 0.000000
0.197050 0.065859 0.000000
0.215291 0.063563 0.000000
0.233318 0.060998 0.000000
0.251261 0.058113 0.000000
0.269221 0.054843 0.000000
0.287282 0.051095 0.000000
0.305512 0.046730 0.000000
0.323969 0.041529 0.000000
0.342707 0.035086 0.000000
0.361772 0.026465 0.000000
0.381207 0.011393 0.000000
0.401054 0.000000 0.000000
0.421352 0.000000 0.000000
0.442136 0.000000 0.000000
0.463444 0.000000 0.000000
0.485311 0.000000 0.000000
0.507666 0.000000 0.000000
0.529282 0.000000 0.000000
0.549932 0.000000 0.000000
0.569761 0.000000 0.000000
0.588880 0.000000 0.000000
0.607385 0.000000 0.000000
0.625352 0.000000 0.000000
0.642846 0.000000 0.000000
0.659923 0.000000 0.000000
0.676629 0.000000 0.000000
0.693004 0.000000 0.000000
0.709083 0.000000 0.000000
0.724896 0.000000 0.000000
0.740469 0.000000 0.000000
0.755825 0.000000 0.000000
0.770986 0.000000 0.000000
0.785969 0.000000 0.000000
0.800790 0.000000 0.000000
0.815464 0.000000 0.000000
0.830003 0.000000 0.000000
0.844420 0.000000 0.000000
0.858724 0.000000 0.000000
0.872925 0.000000 0.000000
0.887032 0.000000 0.000000
0.901052 0.000000 0.000000
0.914992 0.000000 0.000000
0.928859 0.000000 0.000000
0.942659 0.000000 0.000000
0.956397 0.000000 0.000000
0.970077 0.000000 0.000000
0.983704 0.000000 0.000000
0.997282 0.000000 0.000000
1.000000 0.000000 0.000000
1.000000 0.000000 0.000000
1.000000 0.000000 0.000000
1.000000 0.000000 0.000000
0.000000 0.084900 0.000000
0.000000 0.084672 0.000000
0.000000 0.084427 0.000000
0.031788 0.084162 0.000000
0.047172 0.083876 0.000000
0.059423 0.083568 0.000000
0.070251 0.083236 0.000000
0.080280 0.082877 0.000000
0.089822 0.082489 0.000000
0.115188 0.081234 0.000000
0.137466 0.079853 0.000000
0.157952 0.078342 0.000000
0.177357 0.076683 0.000000
0.196090 0.074859 0.000000
0.214413 0.072847 0.000000
0.232508 0.070620 0.000000
0.250509 0.068144 0.000000
0.268520 0.065378 0.000000
0.286625 0.062267 0.000000
0.304894 0.058738 0.000000
0.323386 0.054691 0.000000
0.342156 0.049975 0.000000
0.361250 0.044349 0.000000
0.380712 0.037367 0.000000
0.400584 0.027979 0.000000
0.420904 0.011102 0.000000
0.441709 0.000000 0.000000
0.463037 0.000000 0.000000
0.484922 0.000000 0.000000
0.507304 0.000000 0.000000
0.528961 0.000000 0.000000
0.549647 0.000000 0.000000
0.569505 0.000000 0.000000
0.588650 0.000000 0.000000
0.607178 0.000000 0.000000
0.625165 0.000000 0.000000
0.642677 0.000000 0.000000
0.659769 0.000000 0.000000
0.676489 0.000000 0.000000
0.692876 0.000000 0.000000
0.708966 0.000000 0.000000
0.724788 0.000000 0.000000
0.740370 0.000000 0.000000
0.755735 0.000000 0.000000
0.770903 0.000000 0.000000
0.785892 0.000000 0.000000
0.800720 0.000000 0.000000
0.815399 0.000000 0.000000
0.829943 0.000000 0.000000
0.844365 0.000000 0.000000
0.858673 0.000000 0.000000
0.872878 0.000000 0.000000
0.886989 0.000000 0.000000
0.901012 0.000000 0.000000
0.914955 0.000000 0.000000
0.928825 0.000000 0.000000
0.942627 0.000000 0.000000
0.956367 0.000000 0.000000
0.970049 0.000000 0.000000
0.983678 0.000000 0.000000
0.997259 0.000000 0.000000
1.000000 0.000000 0.000000
1.000000 0.000000 0.000000
1.000000 0.000000 0.000000
1.000000 0.000000 0.000000
0.000000 0.092572 0.000000
0.000000 0.092364 0.000000
0.000000 0.092139 0.000000
0.024594 0.091896 0.000000
0.042656 0.091635 0.000000
0.055906 0.091353 0.000000
0.067302 0.091048 0.000000
0.077712 0.090720 0.000000
0.087535 0.090366 0.000000
0.113413 0.089222 0.000000
0.135983 0.087967 0.000000
0.156663 0.086597 0.000000
0.176210 0.085100 0.000000
0.195053 0.083460 0.000000
0.213465 0.081660 0.000000
0.231634 0.079679 0.000000
0.249698 0.077494 0.000000
0.267763 0.075073 0.000000
0.285916 0.072379 0.000000
0.304228 0.069367 0.000000
0.322759 0.065975 0.000000
0.341563 0.062122 0.000000
0.360688 0.057693 0.000000
0.380179 0.052516 0.000000
0.400077 0.046308 0.000000
0.420422 0.038534 0.000000
0.441250 0.027853 0.000000
0.462599 0.003652 0.000000
0.484504 0.000000 0.000000
0.506914 0.000000 0.000000
0.528616 0.000000 0.000000
0.549339 0.000000 0.000000
0.569230 0.000000 0.000000
0.588403 0.000000 0.000000
0.606955 0.000000 0.000000
0.624963 0.000000 0.000000
0.642494 0.000000 0.000000
0.659603 0.000000 0.000000
0.676337 0.000000 0.000000
0.692738 0.000000 0.000000
0.708839 0.000000 0.000000
0.724673 0.000000 0.000000
0.740264 0.000000 0.000000
0.755638 0.000000 0.000000
0.770814 0.000000 0.000000
0.785810 0.000000 0.000000
0.800644 0.000000 0.000000
0.815329 0.000000 0.000000
0.829879 0.000000 0.000000
0.844306 0.000000 0.000000
0.858618 0.000000 0.000000
0.872828 0.000000 0.000000
0.886942 0.000000 0.000000
0.900969 0.000000 0.000000
0.914916 0.000000 0.000000
0.928788 0.000000 0.000000
0.942593 0.000000 0.000000
0.956336 0.000000 0.000000
0.970020 0.000000 0.000000
0.983651 0.000000 0.000000
0.997234 0.000000 0.000000
1.000000 0.000000 0.000000
1.000000 0.000000 0.000000
1.000000 0.000000 0.000000
1.000000 0.000000 0.000000
0.000000 0.113720 0.000000
0.000000 0.113550 0.000000
0.000000 0.113367 0.000000
0.000000 0.113170 0.000000
0.022801 0.112958 0.000000
0.042730 0.112729 0.000000
0.056833 0.112483 0.000000
0.068845 0.112217 0.000000
0.079766 0.111931 0.000000
0.107531 0.111010 0.000000
0.131117 0.110003 0.000000
0.152458 0.108911 0.000000
0.172483 0.107724 0.000000
0.191693 0.106434 0.000000
0.210399 0.105028 0.000000
0.228811 0.103496 0.000000
0.247082 0.101823 0.000000
0.265326 0.099992 0.000000
0.283635 0.097986 0.000000
0.302084 0.095783 0.000000
0.320739 0.093356 0.000000
0.339655 0.090674 0.000000
0.358882 0.087699 0.000000
0.378466 0.084383 0.000000
0.398450 0.080666 0.000000
0.418873 0.076469 0.000000
0.439775 0.071682 0.000000
0.461192 0.066151 0.000000
0.483161 0.059634 0.000000
0.505660 0.051719 0.000000
0.527505 0.041560 0.000000
0.548350 0.026617 0.000000
0.568345 0.000000 0.000000
0.587609 0.000000 0.000000
0.606239 0.000000 0.000000
0.624316 0.000000 0.000000
0.641907 0.000000 0.000000
0.659070 0.000000 0.000000
0.675852 0.000000 0.000000
0.692295 0.000000 0.000000
0.708435 0.000000 0.000000
0.724302 0.000000 0.000000
0.739925 0.000000 0.000000
0.755326 0.000000 0.000000
0.770528 0.000000 0.000000
0.785547 0.000000 0.000000
0.800402 0.000000 0.000000
0.815106 0.000000 0.000000
0.829674 0.000000 0.000000
0.844116 0.000000 0.000000
0.858443 0.000000 0.000000
0.872666 0.000000 0.000000
0.886793 0.000000 0.000000
0.900831 0.000000 0.000000
0.914788 0.000000 0.000000
0.928670 0.000000 0.000000
0.942484 0.000000 0.000000
0.956234 0.000000 0.000000
0.969926 0.000000 0.000000
0.983564 0.000000 0.000000
0.997153 0.000000 0.000000
1.000000 0.000000 0.000000
1.000000 0.000000 0.000000
1.000000 0.000000 0.000000
1.000000 0.000000 0.000000
0.000000 0.132869 0.000000
0.000000 0.132724 0.000000
0.000000 0.132568 0.000000
0.000000 0.132399 0.000000
0.000000 0.132218 0.000000
0.020473 0.132022 0.000000
0.042699 0.131812 0.000000
0.057731 0.131586 0.000000
0.070399 0.131342 0.000000
0.100778 0.130557 0.000000
0.125639 0.129703 0.000000
0.147773 0.128778 0.000000
0.168356 0.127776 0.000000
0.187988 0.126689 0.000000
0.207029 0.125511 0.000000
0.225716 0.124231 0.000000
0.244219 0.122841 0.000000
0.262661 0.121328 0.000000
0.281144 0.119680 0.000000
0.299747 0.117883 0.000000
0.318539 0.115920 0.000000
0.337578 0.113771 0.000000
0.356917 0.111414 0.000000
0.376603 0.108823 0.000000
0.396680 0.105967 0.000000
0.417191 0.102808 0.000000
0.438172 0.099300 0.000000
0.459664 0.095383 0.000000
0.481703 0.090985 0.000000
0.504292 0.086005 0.000000
0.526295 0.080308 0.000000
0.547274 0.073692 0.000000
0.567383 0.065842 0.000000
0.586745 0.056191 0.000000
0.605460 0.043487 0.000000
0.623612 0.023016 0.000000
0.641270 0.000000 0.000000
0.658491 0.000000 0.000000
0.675325 0.000000 0.000000
0.691814 0.000000 0.000000
0.707996 0.000000 0.000000
0.723901 0.000000 0.000000
0.739557 0.000000 0.000000
0.754989 0.000000 0.000000
0.770218 0.000000 0.000000
0.785262 0.000000 0.000000
0.800140 0.000000 0.000000
0.814865 0.000000 0.000000
0.829451 0.000000 0.000000
0.843910 0.000000 0.000000
0.858254 0.000000 0.000000
0.872491 0.000000 0.000000
0.886631 0.000000 0.000000
0.900681 0.000000 0.000000
0.914649 0.000000 0.000000
0.928542 0.000000 0.000000
0.942365 0.000000 0.000000
0.956124 0.000000 0.000000
0.969825 0.000000 0.000000
0.983470 0.000000 0.000000
0.997066 0.000000 0.000000
1.000000 0.000000 0.000000
1.000000 0.000000 0.000000
1.000000 0.000000 0.000000
1.000000 0.000000 0.000000
0.000000 0.150769 0.000000
0.000000 0.150641 0.000000
0.000000 0.150503 0.000000
0.000000 0.150355 0.000000
0.000000 0.150195 0.000000
0.000000 0.150023 0.000000
0.017630 0.149838 0.000000
0.042667 0.149639 0.000000
0.058682 0.149424 0.000000
0.092972 0.148735 0.000000
0.119468 0.147986 0.000000
0.142564 0.147176 0.000000
0.163802 0.146300 0.000000
0.183921 0.145352 0.000000
0.203343 0.144326 0.000000
0.222341 0.143215 0.000000
0.241102 0.142010 0.000000
0.259766 0.140704 0.000000
0.278441 0.139285 0.000000
0.297213 0.137744 0.000000
0.316156 0.136067 0.000000
0.335330 0.134241 0.000000
0.354792 0.132250 0.000000
0.374590 0.130075 0.000000
0.394769 0.127695 0.000000
0.415374 0.125086 0.000000
0.436443 0.122219 0.000000
0.458016 0.119059 0.000000
0.480131 0.115565 0.000000
0.502809 0.111687 0.000000
0.524984 0.107361 0.000000
0.546109 0.102506 0.000000
0.566342 0.097016 0.000000
0.585811 0.090743 0.000000
0.604620 0.083475 0.000000
0.622853 0.074878 0.000000
0.640582 0.064366 0.000000
0.657866 0.050687 0.000000
0.674757 0.029617 0.000000
0.691296 0.000000 0.000000
0.707522 0.000000 0.000000
0.723468 0.000000 0.000000
0.739160 0.000000 0.000000
0.754625 0.000000 0.000000
0.769883 0.000000 0.000000
0.784955 0.000000 0.000000
0.799857 0.000000 0.000000
0.814604 0.000000 0.000000
0.829211 0.000000 0.000000
0.843689 0.000000 0.000000
0.858050 0.000000 0.000000
0.872302 0.000000 0.000000
0.886456 0.000000 0.000000
0.900520 0.000000 0.000000
0.914501 0.000000 0.000000
0.928404 0.000000 0.000000
0.942238 0.000000 0.000000
0.956006 0.000000 0.000000
0.969715 0.000000 0.000000
0.983369 0.000000 0.000000
0.996972 0.000000 0.000000
1.000000 0.000000 0.000000
1.000000 0.000000 0.000000
1.000000 0.000000 0.000000
1.000000 0.000000 0.000000
0.000000 0.167898 0.000000
0.000000 0.167783 0.000000
0.000000 0.167660 0.000000
0.000000 0.167526 0.000000
0.000000 0.167383 0.000000
0.000000 0.167229 0.000000
0.000000 0.167063 0.000000
0.013940 0.166884 0.000000
0.042631 0.166692 0.000000
0.083772 0.166075 0.000000
0.112457 0.165404 0.000000
0.136742 0.164679 0.000000
0.158761 0.163897 0.000000
0.179446 0.163051 0.000000
0.199305 0.162137 0.000000
0.218654 0.161149 0.000000
0.237706 0.160080 0.000000
0.256617 0.158922 0.000000
0.275506 0.157667 0.000000
0.294465 0.156307 0.000000
0.313573 0.154832 0.000000
0.332897 0.153230 0.000000
0.352492 0.151488 0.000000
0.372413 0.149593 0.000000
0.392704 0.147528 0.000000
0.413412 0.145276 0.000000
0.434576 0.142814 0.000000
0.456238 0.140120 0.000000
0.478434 0.137163 0.000000
0.501201 0.133912 0.000000
0.523564 0.130326 0.000000
0.544848 0.126357 0.000000
0.565216 0.121945 0.000000
0.584802 0.117017 0.000000
0.603712 0.111475 0.000000
0.622033 0.105192 0.000000
0.639840 0.097987 0.000000
0.657192 0.089598 0.000000
0.674143 0.079597 0.000000
0.690737 0.067205 0.000000
0.707012 0.050602 0.000000
0.723001 0.021391 0.000000
0.738733 0.000000 0.000000
0.754233 0.000000 0.000000
0.769524 0.000000 0.000000
0.784624 0.000000 0.000000
0.799553 0.000000 0.000000
0.814324 0.000000 0.000000
0.828953 0.000000 0.000000
0.843451 0.000000 0.000000
0.857830 0.000000 0.000000
0.872100 0.000000 0.000000
0.886269 0.000000 0.000000
0.900347 0.000000 0.000000
0.914340 0.000000 0.000000
0.928256 0.000000 0.000000
0.942101 0.000000 0.000000
0.955879 0.000000 0.000000
0.969598 0.000000 0.000000
0.983260 0.000000 0.000000
0.996871 0.000000 0.000000
1.000000 0.000000 0.000000
1.000000 0.000000 0.000000
1.000000 0.000000 0.000000
1.000000 0.000000 0.000000
0.000000 0.184550 0.000000
0.000000 0.184445 0.000000
0.000000 0.184333 0.000000
0.000000 0.184212 0.000000
0.000000 0.184081 0.000000
0.000000 0.183941 0.000000
0.000000 0.183790 0.000000
0.000000 0.183628 0.000000
0.008312 0.183453 0.000000
0.072590 0.182892 0.000000
0.104394 0.182283 0.000000
0.130192 0.181626 0.000000
0.153156 0.180917 0.000000
0.174506 0.180151 0.000000
0.194869 0.179325 0.000000
0.214618 0.178432 0.000000
0.234000 0.177466 0.000000
0.253188 0.176423 0.000000
0.272314 0.175293 0.000000
0.291481 0.174071 0.000000
0.310773 0.172748 0.000000
0.330260 0.171313 0.000000
0.350004 0.169757 0.000000
0.370058 0.168068 0.000000
0.390472 0.166233 0.000000
0.411292 0.164237 0.000000
0.432560 0.162064 0.000000
0.454318 0.159695 0.000000
0.476603 0.157107 0.000000
0.499456 0.154277 0.000000
0.522025 0.151174 0.000000
0.543482 0.147766 0.000000
0.563998 0.144012 0.000000
0.583710 0.139863 0.000000
0.602730 0.135261 0.000000
0.621147 0.130131 0.000000
0.639038 0.124380 0.000000
