luts/Rec709/DJI_Osmo_DLogM_to_Rec709_DJI_Look.cube
TITLE "OpenOSV D-Log M to Rec.709, DJI look - DJI Osmo 360 / Pocket 3"
LUT_3D_SIZE 9
DOMAIN_MIN 0.000000 0.000000 0.000000
DOMAIN_MAX 1.000000 1.000000 1.000000
0.000000 0.000000 0.000000
0.068402 0.003568 0.006583
0.245391 0.012572 0.023491
0.420528 0.021129 0.040029
0.569128 0.027901 0.053792
0.735495 0.035766 0.069357
0.882467 0.040626 0.081959
1.000000 0.041919 0.091016
1.000000 0.037277 0.094442
0.000085 0.060985 0.005631
0.053923 0.056536 0.002712
0.236549 0.035901 0.020724
0.417219 0.022698 0.039220
0.567325 0.029508 0.053158
0.734350 0.036954 0.068915
0.881865 0.041837 0.081570
1.000000 0.043135 0.090651
1.000000 0.038485 0.094090
0.000274 0.215637 0.018990
0.000315 0.214456 0.018668
0.188422 0.198717 0.008473
0.384280 0.179025 0.025793
0.544302 0.160886 0.041325
0.716419 0.144414 0.059105
0.872473 0.098116 0.075576
1.000000 0.049682 0.088698
1.000000 0.044984 0.092204
0.000442 0.379059 0.031841
0.000475 0.378325 0.031563
0.099945 0.368371 0.024561
0.336174 0.351201 0.013038
0.514634 0.332440 0.027860
0.692248 0.301420 0.046970
0.851429 0.258024 0.062347
0.984620 0.195349 0.075431
1.000000 0.056744 0.088844
0.000542 0.524213 0.040731
0.000567 0.523764 0.040484
0.000754 0.521354 0.039159
0.246803 0.504095 0.025110
0.471777 0.488162 0.013927
0.660730 0.462869 0.033457
0.829770 0.423922 0.049120
0.964513 0.369586 0.060901
1.000000 0.294154 0.068181
0.000698 0.678364 0.052555
0.000715 0.678060 0.052389
0.000819 0.676429 0.051504
0.030031 0.669443 0.046195
0.385131 0.648566 0.029346
0.609985 0.631698 0.017956
0.801287 0.593476 0.032649
0.943825 0.540351 0.044948
1.000000 0.472755 0.051512
0.000718 0.830975 0.055871
0.000730 0.830768 0.055717
0.000801 0.829664 0.054895
0.000969 0.827688 0.053427
0.153400 0.813817 0.041525
0.503399 0.793747 0.024903
0.753411 0.776575 0.012057
0.915552 0.721548 0.022957
1.000000 0.657966 0.030013
0.000645 0.957129 0.047877
0.000653 0.956963 0.047731
0.000696 0.956072 0.046947
0.000788 0.954479 0.045548
0.001028 0.951634 0.043058
0.273062 0.930633 0.024761
0.631182 0.910369 0.007625
0.869692 0.894193 0.000000
1.000000 0.823490 0.000392
0.000508 1.000000 0.022346
0.000512 1.000000 0.022207
0.000535 1.000000 0.021467
0.000581 1.000000 0.020146
0.000682 1.000000 0.017793
0.000981 1.000000 0.013609
0.377165 1.000000 0.000000
0.738899 0.999023 0.000000
0.960584 0.984851 0.000000
0.001754 0.006879 0.072567
0.070177 0.004395 0.066570
0.247031 0.013330 0.064939
0.421433 0.021499 0.061109
0.569365 0.027928 0.058883
0.735570 0.035734 0.070796
0.882539 0.040593 0.083394
1.000000 0.041887 0.092446
1.000000 0.037245 0.095864
0.000113 0.060354 0.061150
0.055770 0.055770 0.055770
0.238257 0.031524 0.048608
0.417499 0.022737 0.045142
0.567493 0.029498 0.056630
0.734425 0.036921 0.070353
0.881937 0.041805 0.083005
1.000000 0.043103 0.092081
1.000000 0.038453 0.095511
0.000273 0.214495 0.021016
0.000315 0.213310 0.020691
0.188645 0.197543 0.010363
0.384491 0.177796 0.027937
0.544505 0.159766 0.043352
0.716599 0.143370 0.060587
0.872681 0.096935 0.077086
1.000000 0.049649 0.090124
1.000000 0.044952 0.093622
0.000442 0.378462 0.033901
0.000475 0.377726 0.033622
0.100132 0.367762 0.026568
0.336339 0.350578 0.014960
0.514788 0.331793 0.029858
0.692372 0.300741 0.048387
0.851556 0.257374 0.063778
0.984762 0.194629 0.076879
1.000000 0.056711 0.090256
0.000542 0.523957 0.042753
0.000567 0.523507 0.042506
0.000755 0.521095 0.041178
0.246938 0.503832 0.027063
0.471906 0.487892 0.015832
0.660826 0.462553 0.034822
0.829863 0.423599 0.050502
0.964607 0.369252 0.062292
1.000000 0.293737 0.069581
0.000698 0.678191 0.053931
0.000715 0.677886 0.053765
0.000819 0.676255 0.052878
0.030161 0.669266 0.047552
0.385232 0.648388 0.030659
0.610083 0.631517 0.019241
0.801370 0.593286 0.033989
0.943907 0.540159 0.046300
1.000000 0.472552 0.052868
0.000718 0.830921 0.057238
0.000730 0.830715 0.057084
0.000802 0.829610 0.056260
0.000970 0.827634 0.054789
0.153505 0.813760 0.042860
0.503491 0.793689 0.026201
0.753507 0.776515 0.013325
0.915624 0.721468 0.024262
1.000000 0.657887 0.031325
0.000646 0.957124 0.049216
0.000653 0.956957 0.049069
0.000696 0.956067 0.048284
0.000788 0.954474 0.046883
0.001028 0.951629 0.044387
0.273149 0.930626 0.026054
0.631264 0.910362 0.008884
0.869778 0.894185 0.000000
1.000000 0.823469 0.001647
0.000509 1.000000 0.023633
0.000513 1.000000 0.023494
0.000535 1.000000 0.022752
0.000581 1.000000 0.021429
0.000683 1.000000 0.019072
0.000982 1.000000 0.014881
0.377241 1.000000 0.000000
0.738975 0.999048 0.000000
0.960663 0.984875 0.000000
0.006318 0.024299 0.259435
0.074976 0.021500 0.253785
0.251783 0.015242 0.237456
0.426701 0.023715 0.219849
0.575079 0.030447 0.215317
0.741078 0.038283 0.214149
0.886989 0.042577 0.194145
1.000000 0.042806 0.150137
1.000000 0.037074 0.103519
0.003128 0.043111 0.252858
0.063529 0.036393 0.248245
0.245470 0.016682 0.232998
0.423277 0.025385 0.215302
0.573172 0.032005 0.211131
0.739826 0.039419 0.210446
0.886264 0.043727 0.190361
1.000000 0.043940 0.145829
1.000000 0.038282 0.103162
0.000351 0.211945 0.214230
0.000423 0.210722 0.213319
0.194744 0.194744 0.194744
0.390377 0.174551 0.178192
0.550174 0.156796 0.177616
0.721951 0.140493 0.181360
0.877080 0.092262 0.165899
1.000000 0.049643 0.105208
1.000000 0.044779 0.101256
0.000485 0.378054 0.155787
0.000525 0.377296 0.154821
0.104862 0.367205 0.142002
0.340776 0.349815 0.120530
0.518894 0.330698 0.123610
0.696153 0.299357 0.132438
0.854041 0.255097 0.114093
0.985532 0.190727 0.084684
1.000000 0.056535 0.097860
0.000553 0.523469 0.083327
0.000579 0.522952 0.080814
0.000769 0.520154 0.066860
0.247683 0.502432 0.038227
0.472595 0.486439 0.026242
0.661338 0.460849 0.042202
0.830361 0.421863 0.057955
0.965112 0.367451 0.069787
1.000000 0.291488 0.077122
0.000699 0.677261 0.061366
0.000716 0.676956 0.061198
0.000821 0.675322 0.060299
0.030856 0.668314 0.054887
0.385773 0.647433 0.037760
0.610607 0.630547 0.026195
0.801812 0.592267 0.041216
0.944343 0.539128 0.053590
1.000000 0.471460 0.060173
0.000720 0.830633 0.064614
0.000732 0.830427 0.064458
0.000804 0.829321 0.063624
0.000972 0.827341 0.062137
0.154064 0.813455 0.050059
0.503983 0.793379 0.033201
0.754021 0.776188 0.020163
0.916014 0.721043 0.031290
1.000000 0.657461 0.038391
0.000647 0.957096 0.056429
0.000654 0.956930 0.056281
0.000697 0.956039 0.055487
0.000790 0.954446 0.054072
0.001031 0.951599 0.051551
0.273618 0.930590 0.033023
0.631706 0.910324 0.015670
0.870242 0.894141 0.002304
1.000000 0.823355 0.008406
0.000509 1.000000 0.030561
0.000513 1.000000 0.030421
0.000536 1.000000 0.029672
0.000582 1.000000 0.028336
0.000684 1.000000 0.025957
0.000984 1.000000 0.021726
0.377650 1.000000 0.000000
0.739379 0.999179 0.000000
0.961089 0.985004 0.000000
0.010993 0.041446 0.448137
0.080065 0.038658 0.442759
0.256744 0.031282 0.428078
0.431600 0.025263 0.412105
0.579933 0.032094 0.394554
0.745800 0.040115 0.368384
0.892054 0.044595 0.344431
1.000000 0.045278 0.311808
1.000000 0.039561 0.254252
0.009832 0.043154 0.445557
0.070208 0.040721 0.440807
0.250478 0.033219 0.425837
0.428233 0.026971 0.409617
0.578087 0.033686 0.392000
0.744608 0.041286 0.366045
0.891401 0.045787 0.342233
1.000000 0.046468 0.309534
1.000000 0.040731 0.251663
0.001392 0.203299 0.418457
0.001693 0.202022 0.417900
0.200980 0.185711 0.401228
0.396585 0.164985 0.384259
0.556438 0.148602 0.367168
0.728129 0.133059 0.344565
0.886212 0.065327 0.328782
1.000000 0.052865 0.297042
1.000000 0.047014 0.237271
0.000564 0.375565 0.380714
0.000618 0.374800 0.380084
0.111393 0.364655 0.367892
0.347211 0.347211 0.347211
0.525393 0.327916 0.327958
0.702509 0.296432 0.308798
0.861013 0.252635 0.290634
0.993224 0.187459 0.262613
1.000000 0.058304 0.208495
0.000615 0.525584 0.316827
0.000648 0.525121 0.316083
0.000901 0.522632 0.312081
0.256291 0.505229 0.286163
0.480977 0.489053 0.261948
0.669398 0.463015 0.252380
0.837589 0.423380 0.236732
0.970908 0.367680 0.205336
1.000000 0.288571 0.132135
0.000748 0.679471 0.218156
0.000766 0.679154 0.217505
0.000886 0.677456 0.214001
0.037136 0.670310 0.202818
0.391524 0.649228 0.173348
0.615808 0.631937 0.144425
0.805743 0.592743 0.129124
0.945124 0.537271 0.066816
1.000000 0.469500 0.073407
0.000722 0.830115 0.078027
0.000735 0.829908 0.077868
0.000807 0.828799 0.077017
0.000977 0.826815 0.075498
0.155064 0.812906 0.063152
0.504864 0.792821 0.045935
0.754939 0.775601 0.032605
0.916710 0.720277 0.044046
1.000000 0.656696 0.051194
0.000649 0.957046 0.069513
0.000656 0.956879 0.069362
0.000700 0.955988 0.068554
0.000793 0.954394 0.067113
0.001035 0.951545 0.064546
0.274454 0.930524 0.045666
0.632496 0.910255 0.027984
0.871070 0.894063 0.014353
1.000000 0.823150 0.020652
0.000511 1.000000 0.043106
0.000515 1.000000 0.042964
0.000538 1.000000 0.042202
0.000583 1.000000 0.040844
0.000686 1.000000 0.038425
0.000988 1.000000 0.034123
0.378381 1.000000 0.009543
0.740102 0.999414 0.000000
0.961851 0.985233 0.000000
0.016915 0.055373 0.609824
0.088259 0.052522 0.604450
0.263011 0.045317 0.590823
0.435402 0.037888 0.576692
0.584285 0.032722 0.562754
0.750149 0.041203 0.536778
0.896457 0.045728 0.499571
1.000000 0.046563 0.462013
1.000000 0.041305 0.419175
0.014048 0.057216 0.608599
0.078107 0.054636 0.603757
0.256831 0.047250 0.589836
0.432134 0.039683 0.575488
0.582471 0.034325 0.561461
0.748987 0.042392 0.535472
0.895837 0.046939 0.498272
1.000000 0.047776 0.460777
1.000000 0.042507 0.417947
0.003005 0.189022 0.589777
0.003678 0.187798 0.589433
0.209194 0.172299 0.573663
0.402546 0.153283 0.558794
0.562855 0.130453 0.545513
0.734692 0.115930 0.521121
0.892493 0.053462 0.491243
1.000000 0.054303 0.454065
1.000000 0.048973 0.411288
0.001290 0.366659 0.565378
0.001414 0.365878 0.564978
0.119096 0.355504 0.553844
0.353038 0.337874 0.535481
0.531156 0.317985 0.520147
0.708291 0.286738 0.494642
0.867015 0.243527 0.461014
1.000000 0.176273 0.430788
1.000000 0.060660 0.398955
0.000683 0.523656 0.532479
0.000722 0.523189 0.532034
0.001042 0.520681 0.529647
0.262354 0.503237 0.506477
0.487012 0.487012 0.487012
0.675378 0.460621 0.459808
0.843760 0.421020 0.426203
0.977717 0.365350 0.395156
1.000000 0.285745 0.357015
0.000807 0.680585 0.467126
0.000829 0.680274 0.466733
0.000971 0.678607 0.464626
0.045097 0.671480 0.454798
0.399267 0.650536 0.425233
0.623863 0.633486 0.402106
0.814088 0.594534 0.371392
0.955642 0.540613 0.341558
1.000000 0.471571 0.297510
0.000783 0.835391 0.347332
0.000797 0.835177 0.346870
0.000880 0.834036 0.344388
0.001082 0.831992 0.339928
0.165068 0.817946 0.318663
0.514413 0.797666 0.287150
0.764084 0.780046 0.254094
0.924160 0.723454 0.223938
1.000000 0.658032 0.163026
0.000652 0.956953 0.093519
0.000660 0.956787 0.093363
0.000704 0.955894 0.092529
0.000798 0.954298 0.091042
0.001044 0.951447 0.088391
0.275949 0.930404 0.068871
0.633906 0.910130 0.050590
0.872551 0.893921 0.036478
1.000000 0.822783 0.043076
0.000513 1.000000 0.066054
0.000517 1.000000 0.065907
0.000540 1.000000 0.065123
0.000586 1.000000 0.063724
0.000690 1.000000 0.061232
0.000995 1.000000 0.056800
0.379685 1.000000 0.031459
0.741394 0.999833 0.012808
0.963211 0.985641 0.000000
0.031258 0.071019 0.788233
0.106145 0.068062 0.782656
0.271885 0.061349 0.769989
0.432572 0.054608 0.757253
0.582698 0.047833 0.744501
0.755104 0.041636 0.727022
0.901257 0.046117 0.686155
1.000000 0.046920 0.636009
1.000000 0.041695 0.580558
0.018841 0.072741 0.788194
0.095495 0.069709 0.782487
0.266309 0.062784 0.769447
0.429505 0.055931 0.756525
0.580922 0.049092 0.743673
0.753953 0.042831 0.726175
0.900648 0.047334 0.685287
1.000000 0.048139 0.635099
1.000000 0.042904 0.579669
0.006417 0.174735 0.773798
0.007643 0.173665 0.773592
0.224352 0.158983 0.757605
0.403358 0.141947 0.744397
0.564021 0.117879 0.732551
0.746227 0.061010 0.720252
0.897366 0.053891 0.680605
1.000000 0.054703 0.630190
1.000000 0.049412 0.574895
0.002680 0.343596 0.752844
0.002883 0.342857 0.752592
0.140574 0.331819 0.740938
0.355514 0.315038 0.724582
0.531188 0.295201 0.710607
0.715183 0.265867 0.694109
0.873974 0.223424 0.656178
1.000000 0.150702 0.612108
1.000000 0.061182 0.566303
0.001524 0.508572 0.727302
0.001593 0.508149 0.727021
0.002096 0.505880 0.725516
0.271364 0.488235 0.702999
0.486114 0.472294 0.685611
0.681419 0.452617 0.667678
0.849675 0.412597 0.628276
0.983701 0.356063 0.579896
1.000000 0.273421 0.532147
0.000881 0.677628 0.688861
0.000906 0.677315 0.688566
0.001074 0.675637 0.686990
0.052326 0.668428 0.678027
0.405942 0.647496 0.650268
0.630436 0.630436 0.630436
0.820183 0.591115 0.590644
0.961759 0.537137 0.540990
1.000000 0.468136 0.492665
0.000827 0.837101 0.606545
0.000843 0.836891 0.606232
0.000936 0.835762 0.604553
0.001165 0.833742 0.601549
0.173120 0.819691 0.580931
0.522274 0.799517 0.551306
0.772431 0.782068 0.525576
0.932192 0.725207 0.477254
1.000000 0.660815 0.432803
0.000706 0.964723 0.468016
0.000715 0.964554 0.467682
0.000765 0.963648 0.465892
0.000875 0.962028 0.462691
0.001169 0.959133 0.456973
0.289243 0.937983 0.425373
0.646879 0.917573 0.392670
0.885310 0.901084 0.360453
1.000000 0.828593 0.319068
0.000517 1.000000 0.108863
0.000521 1.000000 0.108708
0.000545 1.000000 0.107882
0.000591 1.000000 0.106408
0.000697 1.000000 0.103781
0.001009 1.000000 0.099110
0.382015 1.000000 0.072367
0.743703 1.000000 0.052661
0.965642 0.986369 0.037035
0.038133 0.082809 0.951336
0.109675 0.079997 0.946064
0.269955 0.073538 0.934126
0.426110 0.067028 0.922315
0.571458 0.060525 0.910979
0.739925 0.052420 0.897385
0.906421 0.044993 0.878104
1.000000 0.045743 0.823155
1.000000 0.040513 0.763210
0.023370 0.084657 0.951910
0.099561 0.081659 0.946299
0.264550 0.075007 0.934016
0.423148 0.068391 0.922025
0.569755 0.061828 0.910595
0.738799 0.053686 0.896957
0.905823 0.046213 0.877671
1.000000 0.046965 0.822675
1.000000 0.041726 0.762701
0.018326 0.100139 0.948564
0.020965 0.098684 0.948482
0.233535 0.083007 0.933566
0.406610 0.075767 0.920512
0.560547 0.068857 0.908538
0.732690 0.060514 0.894658
0.902599 0.052785 0.875343
1.000000 0.053544 0.820096
1.000000 0.048251 0.759961
0.004555 0.300198 0.926720
0.004944 0.299462 0.926539
0.145770 0.289012 0.915507
0.354614 0.273275 0.900294
0.525078 0.254576 0.887961
0.704626 0.226302 0.875182
0.883632 0.179152 0.859175
1.000000 0.076620 0.814154
1.000000 0.060054 0.755015
0.002489 0.478147 0.908114
0.002606 0.477717 0.907903
0.003477 0.475409 0.906776
0.271155 0.458051 0.885472
0.479740 0.442245 0.869758
0.669672 0.422818 0.855056
0.856582 0.392885 0.836629
0.990743 0.334513 0.783462
1.000000 0.245327 0.729164
0.001511 0.650333 0.885591
0.001556 0.650021 0.885368
0.001851 0.648351 0.884178
0.059212 0.641171 0.875938
0.401977 0.620769 0.850194
0.619950 0.603961 0.833028
0.826708 0.581330 0.813566
0.968092 0.527125 0.758097
1.000000 0.457770 0.699689
0.000898 0.835710 0.851238
0.000915 0.835498 0.851009
0.001021 0.834362 0.849786
0.001287 0.832328 0.847598
0.181388 0.818165 0.828318
0.529941 0.797978 0.801383
0.780430 0.780430 0.780430
0.938746 0.722454 0.722076
1.000000 0.658011 0.661560
0.000737 0.967058 0.754563
0.000746 0.966890 0.754313
0.000801 0.965992 0.752969
0.000921 0.964386 0.750567
0.001249 0.961517 0.746272
0.297834 0.940362 0.715175
0.655370 0.920057 0.685128
0.894339 0.903743 0.660484
1.000000 0.830654 0.598257
0.000557 1.000000 0.593210
0.000562 1.000000 0.592922
0.000588 1.000000 0.591382
0.000641 1.000000 0.588632
0.000762 1.000000 0.583722
0.001134 1.000000 0.574950
0.398416 1.000000 0.531359
0.759920 1.000000 0.495433
0.981790 0.996326 0.460215
0.044454 0.089090 1.000000
0.113391 0.086396 1.000000
0.266062 0.080274 1.000000
0.415870 0.074054 1.000000
0.554580 0.067861 1.000000
0.715275 0.060131 1.000000
0.876574 0.051105 1.000000
1.000000 0.041723 1.000000
1.000000 0.036412 0.934654
0.031962 0.090854 1.000000
0.103978 0.088038 1.000000
0.260873 0.081743 1.000000
0.413020 0.075424 1.000000
0.552935 0.069175 1.000000
0.714177 0.061413 1.000000
0.875942 0.052354 1.000000
1.000000 0.042940 1.000000
1.000000 0.037620 0.934337
0.023732 0.098096 1.000000
0.026217 0.097941 1.000000
0.231142 0.089734 1.000000
0.397104 0.082830 1.000000
0.544039 0.076259 1.000000
0.708228 0.068316 1.000000
0.872538 0.059079 1.000000
1.000000 0.049493 1.000000
1.000000 0.044121 0.932636
0.008233 0.222662 1.000000
0.009214 0.221772 1.000000
0.154196 0.211178 1.000000
0.354449 0.194963 1.000000
0.517804 0.174166 1.000000
0.690100 0.141073 1.000000
0.866378 0.071264 1.000000
1.000000 0.061358 1.000000
1.000000 0.055879 0.929582
0.003646 0.424233 1.000000
0.003832 0.423764 1.000000
0.005267 0.421237 1.000000
0.269260 0.404182 1.000000
0.468827 0.388267 1.000000
0.650035 0.368079 1.000000
0.829863 0.337704 0.992562
1.000000 0.285473 0.975701
1.000000 0.180375 0.912994
0.002178 0.603375 1.000000
0.002246 0.603054 1.000000
0.002695 0.601335 1.000000
0.066043 0.594114 1.000000
0.393048 0.574351 1.000000
0.600606 0.557806 0.988485
0.797851 0.536663 0.973497
0.974899 0.504695 0.954790
1.000000 0.435048 0.885535
0.001327 0.789510 1.000000
0.001354 0.789288 1.000000
0.001516 0.788099 1.000000
0.001926 0.785972 1.000000
0.181300 0.772047 0.994321
0.513576 0.752378 0.969410
0.750291 0.734991 0.950994
0.944905 0.712915 0.931727
1.000000 0.648157 0.860014
0.000790 0.966024 0.985720
0.000801 0.965857 0.985518
0.000861 0.964959 0.984438
0.000993 0.963354 0.982508
0.001363 0.960487 0.979062
0.305977 0.939244 0.949363
0.663145 0.918975 0.922150
0.902683 0.902683 0.902682
1.000000 0.828023 0.827723
0.000575 1.000000 0.879913
0.000580 1.000000 0.879699
0.000607 1.000000 0.878556
0.000664 1.000000 0.876512
0.000793 1.000000 0.872861
0.001197 1.000000 0.866337
0.406979 1.000000 0.825441
0.768634 1.000000 0.795752
0.991305 0.999879 0.773507
0.055979 0.086363 1.000000
0.118874 0.083929 1.000000
0.262256 0.078228 1.000000
0.404361 0.072371 1.000000
0.535354 0.066545 1.000000
0.687263 0.059246 1.000000
0.837558 0.050764 1.000000
0.988001 0.040065 1.000000
1.000000 0.027390 1.000000
0.044488 0.088076 1.000000
0.110266 0.085528 1.000000
0.257332 0.079679 1.000000
0.401651 0.073730 1.000000
0.533779 0.067853 1.000000
0.686209 0.060524 1.000000
0.836945 0.052013 1.000000
0.987606 0.041289 1.000000
1.000000 0.028584 1.000000
0.028076 0.095581 1.000000
0.030561 0.095429 1.000000
0.229201 0.087562 1.000000
0.386507 0.081072 1.000000
0.525272 0.074898 1.000000
0.680493 0.067405 1.000000
0.833647 0.058733 1.000000
0.985487 0.047876 1.000000
1.000000 0.035014 1.000000
0.020940 0.108302 1.000000
0.023426 0.108148 1.000000
0.168016 0.102256 1.000000
0.356620 0.094469 1.000000
0.509662 0.087660 1.000000
0.669983 0.079865 1.000000
0.827684 0.070894 1.000000
0.981663 0.059793 1.000000
1.000000 0.046641 1.000000
0.005368 0.329579 1.000000
0.005702 0.328997 1.000000
0.008546 0.325860 1.000000
0.271026 0.309030 1.000000
0.460125 0.292146 1.000000
0.631931 0.269087 1.000000
0.801045 0.232294 1.000000
0.965325 0.160479 1.000000
1.000000 0.067863 1.000000
0.002870 0.534557 1.000000
0.002967 0.534223 1.000000
0.003613 0.532434 1.000000
0.075619 0.525042 1.000000
0.383885 0.506014 1.000000
0.579822 0.489727 1.000000
0.764441 0.468700 1.000000
0.930919 0.438605 1.000000
1.000000 0.386725 1.000000
0.001722 0.730389 1.000000
0.001758 0.730162 1.000000
0.001978 0.728945 1.000000
0.002543 0.726769 1.000000
0.181787 0.713130 1.000000
0.495480 0.694228 1.000000
0.717637 0.677266 1.000000
0.898704 0.657349 1.000000
1.000000 0.625423 1.000000
0.001051 0.902187 1.000000
0.001065 0.902013 1.000000
0.001148 0.901083 1.000000
0.001329 0.899420 1.000000
0.001845 0.896448 1.000000
0.299203 0.875792 1.000000
0.634899 0.856246 1.000000
0.854598 0.840269 1.000000
1.000000 0.819158 1.000000
0.000615 1.000000 1.000000
0.000620 1.000000 1.000000
0.000650 1.000000 1.000000
0.000710 1.000000 1.000000
0.000850 1.000000 1.000000
0.001296 1.000000 1.000000
0.414819 1.000000 1.000000
0.776464 1.000000 1.000000
1.000000 1.000000 1.000000
