luts/Rec709/DJI_Osmo_DLogM_to_Rec709_DJI_Look.cube
TITLE "OpenOSV D-Log M to Rec.709, DJI look - DJI Osmo 360 / Pocket 3"
LUT_3D_SIZE 65
DOMAIN_MIN 0.000000 0.000000 0.000000
DOMAIN_MAX 1.000000 1.000000 1.000000
0.000000 0.000000 0.000000
0.000269 0.000007 0.000022
0.000525 0.000012 0.000042
0.000957 0.000026 0.000079
0.007691 0.000375 0.000726
0.026424 0.001364 0.002535
0.048742 0.002544 0.004692
0.061945 0.003237 0.005965
0.068402 0.003568 0.006583
0.088573 0.004603 0.008515
0.109537 0.005676 0.010521
0.131144 0.006781 0.012588
0.153908 0.007943 0.014765
0.177341 0.009137 0.017005
0.200571 0.010316 0.019223
0.223115 0.011454 0.021371
0.245391 0.012572 0.023491
0.267576 0.013681 0.025600
0.289829 0.014787 0.027711
0.312361 0.015902 0.029847
0.334904 0.017011 0.031980
0.357060 0.018093 0.034071
0.378591 0.019133 0.036098
0.399798 0.020148 0.038089
0.420528 0.021129 0.040029
0.440571 0.022064 0.041897
0.459704 0.022940 0.043671
0.478079 0.023764 0.045366
0.496154 0.024561 0.047026
0.514375 0.025359 0.048695
0.532570 0.026177 0.050374
0.550682 0.027017 0.052060
0.569128 0.027901 0.053792
0.588319 0.028854 0.055613
0.608463 0.029881 0.057539
0.629256 0.030953 0.059533
0.650322 0.032024 0.061545
0.671352 0.033045 0.063527
0.692783 0.034000 0.065500
0.714346 0.034903 0.067454
0.735495 0.035766 0.069357
0.755768 0.036562 0.071164
0.775448 0.037305 0.072903
0.794621 0.037998 0.074579
0.813251 0.038637 0.076189
0.831304 0.039219 0.077729
0.848811 0.039744 0.079200
0.865843 0.040212 0.080608
0.882467 0.040626 0.081959
0.898720 0.040984 0.083254
0.914524 0.041281 0.084484
0.930001 0.041520 0.085661
0.945304 0.041705 0.086796
0.960685 0.041848 0.087913
0.976406 0.041959 0.089035
0.991793 0.041997 0.090095
1.000000 0.041919 0.091016
1.000000 0.041688 0.091736
1.000000 0.041318 0.092290
1.000000 0.040841 0.092740
1.000000 0.040285 0.093142
1.000000 0.039670 0.093540
1.000000 0.038969 0.093894
1.000000 0.038174 0.094196
1.000000 0.037277 0.094442
0.000000 0.000233 0.000000
0.000196 0.000209 0.000000
0.000442 0.000188 0.000000
0.000829 0.000183 0.000024
0.005293 0.000401 0.000448
0.022721 0.001323 0.002131
0.045273 0.002518 0.004309
0.061003 0.003349 0.005827
0.067471 0.003685 0.006446
0.087675 0.004730 0.008380
0.108675 0.005810 0.010390
0.130310 0.006916 0.012460
0.153091 0.008080 0.014638
0.176572 0.009276 0.016883
0.199872 0.010459 0.019107
0.222477 0.011600 0.021262
0.244800 0.012721 0.023386
0.267025 0.013832 0.025498
0.289310 0.014940 0.027613
0.311873 0.016056 0.029752
0.334452 0.017167 0.031888
0.356648 0.018251 0.033984
0.378214 0.019293 0.036014
0.399451 0.020310 0.038008
0.420212 0.021292 0.039950
0.440286 0.022228 0.041822
0.459449 0.023106 0.043599
0.477846 0.023932 0.045296
0.495936 0.024729 0.046957
0.514167 0.025527 0.048627
0.532379 0.026342 0.050309
0.550502 0.027177 0.051997
0.568956 0.028054 0.053732
0.588152 0.028998 0.055555
0.608301 0.030016 0.057484
0.629103 0.031079 0.059482
0.650179 0.032142 0.061497
0.671218 0.033158 0.063481
0.692655 0.034112 0.065456
0.714226 0.035016 0.067410
0.735386 0.035879 0.069315
0.755668 0.036676 0.071123
0.775356 0.037419 0.072862
0.794536 0.038113 0.074539
0.813173 0.038752 0.076150
0.831232 0.039334 0.077690
0.848745 0.039859 0.079162
0.865781 0.040327 0.080571
0.882409 0.040741 0.081922
0.898666 0.041100 0.083217
0.914473 0.041397 0.084448
0.929954 0.041636 0.085625
0.945259 0.041821 0.086760
0.960642 0.041964 0.087877
0.976364 0.042075 0.088999
0.991754 0.042113 0.090059
1.000000 0.042035 0.090981
1.000000 0.041804 0.091702
1.000000 0.041434 0.092256
1.000000 0.040957 0.092705
1.000000 0.040401 0.093108
1.000000 0.039786 0.093506
1.000000 0.039085 0.093861
1.000000 0.038289 0.094163
1.000000 0.037392 0.094409
0.000000 0.000438 0.000000
0.000118 0.000413 0.000000
0.000363 0.000391 0.000000
0.000709 0.000363 0.000000
0.003221 0.000424 0.000203
0.018859 0.001241 0.001710
0.041414 0.002436 0.003889
0.059994 0.003420 0.005683
0.066474 0.003757 0.006303
0.086715 0.004811 0.008240
0.107752 0.005905 0.010253
0.129417 0.007030 0.012324
0.152214 0.008211 0.014503
0.175744 0.009422 0.016751
0.199118 0.010613 0.018983
0.221789 0.011757 0.021144
0.244164 0.012881 0.023273
0.266432 0.013994 0.025390
0.288752 0.015104 0.027508
0.311347 0.016222 0.029650
0.333964 0.017335 0.031790
0.356204 0.018421 0.033889
0.377808 0.019465 0.035923
0.399078 0.020483 0.037920
0.419872 0.021468 0.039866
0.439979 0.022406 0.041741
0.459174 0.023285 0.043521
0.477595 0.024112 0.045220
0.495702 0.024910 0.046883
0.513945 0.025707 0.048555
0.532173 0.026520 0.050238
0.550309 0.027349 0.051929
0.568771 0.028219 0.053667
0.587972 0.029153 0.055493
0.608127 0.030161 0.057425
0.628938 0.031214 0.059426
0.650024 0.032269 0.061445
0.671073 0.033280 0.063432
0.692517 0.034233 0.065408
0.714098 0.035138 0.067364
0.735268 0.036002 0.069269
0.755562 0.036799 0.071079
0.775258 0.037542 0.072818
0.794446 0.038236 0.074496
0.813089 0.038876 0.076108
0.831155 0.039458 0.077649
0.848674 0.039983 0.079121
0.865714 0.040452 0.080530
0.882347 0.040866 0.081882
0.898608 0.041225 0.083177
0.914419 0.041522 0.084409
0.929903 0.041761 0.085586
0.945210 0.041946 0.086722
0.960595 0.042089 0.087839
0.976319 0.042199 0.088961
0.991712 0.042238 0.090021
1.000000 0.042160 0.090944
1.000000 0.041929 0.091665
1.000000 0.041559 0.092219
1.000000 0.041082 0.092668
1.000000 0.040526 0.093072
1.000000 0.039910 0.093470
1.000000 0.039209 0.093824
1.000000 0.038414 0.094126
1.000000 0.037517 0.094372
0.000000 0.000737 0.000000
0.000018 0.000706 0.000000
0.000277 0.000678 0.000000
0.000587 0.000648 0.000000
0.001677 0.000583 0.000009
0.014904 0.001199 0.001276
0.037145 0.002371 0.003424
0.058905 0.003520 0.005526
0.065398 0.003854 0.006148
0.085680 0.004900 0.008090
0.106760 0.005989 0.010107
0.128463 0.007112 0.012182
0.151276 0.008294 0.014362
0.174859 0.009517 0.016615
0.198311 0.010731 0.018853
0.221051 0.011902 0.021019
0.243479 0.013047 0.023152
0.265793 0.014168 0.025273
0.288151 0.015280 0.027395
0.310781 0.016400 0.029539
0.333440 0.017516 0.031684
0.355725 0.018604 0.033788
0.377370 0.019650 0.035826
0.398675 0.020670 0.037826
0.419505 0.021656 0.039776
0.439648 0.022596 0.041653
0.458878 0.023477 0.043437
0.477325 0.024305 0.045139
0.495450 0.025105 0.046803
0.513705 0.025902 0.048476
0.531952 0.026711 0.050163
0.550100 0.027534 0.051856
0.568571 0.028396 0.053597
0.587778 0.029320 0.055426
0.607940 0.030317 0.057362
0.628760 0.031359 0.059367
0.649858 0.032406 0.061390
0.670918 0.033412 0.063380
0.692369 0.034364 0.065358
0.713959 0.035268 0.067314
0.735142 0.036133 0.069220
0.755447 0.036930 0.071031
0.775152 0.037675 0.072772
0.794348 0.038369 0.074450
0.812999 0.039009 0.076063
0.831072 0.039592 0.077604
0.848597 0.040117 0.079077
0.865643 0.040586 0.080487
0.882281 0.041000 0.081839
0.898546 0.041359 0.083135
0.914361 0.041656 0.084367
0.929848 0.041895 0.085544
0.945158 0.042081 0.086680
0.960544 0.042223 0.087797
0.976271 0.042334 0.088920
0.991667 0.042372 0.089980
1.000000 0.042295 0.090903
1.000000 0.042063 0.091625
1.000000 0.041694 0.092179
1.000000 0.041217 0.092629
1.000000 0.040661 0.093032
1.000000 0.040044 0.093430
1.000000 0.039343 0.093785
1.000000 0.038547 0.094087
1.000000 0.037650 0.094333
0.000001 0.002057 0.000066
0.000003 0.001867 0.000030
0.000133 0.001684 0.000000
0.000425 0.001509 0.000000
0.000934 0.001333 0.000000
0.010953 0.001392 0.000826
0.032458 0.002442 0.002905
0.055366 0.003609 0.005120
0.064226 0.004055 0.005973
0.084555 0.005080 0.007920
0.105683 0.006148 0.009944
0.127430 0.007252 0.012025
0.150263 0.008415 0.014208
0.173904 0.009625 0.016468
0.197443 0.010832 0.018715
0.220262 0.012002 0.020889
0.242749 0.013157 0.023028
0.265111 0.014303 0.025151
0.287508 0.015446 0.027275
0.310172 0.016589 0.029421
0.332874 0.017710 0.031570
0.355210 0.018800 0.033679
0.376899 0.019849 0.035721
0.398242 0.020871 0.037725
0.419110 0.021859 0.039678
0.439292 0.022801 0.041560
0.458559 0.023684 0.043347
0.477035 0.024514 0.045052
0.495179 0.025314 0.046718
0.513446 0.026111 0.048392
0.531714 0.026917 0.050081
0.549877 0.027734 0.051777
0.568357 0.028586 0.053522
0.587569 0.029499 0.055354
0.607739 0.030485 0.057294
0.628569 0.031516 0.059303
0.649680 0.032554 0.061330
0.670751 0.033553 0.063323
0.692209 0.034504 0.065303
0.713811 0.035409 0.067260
0.735006 0.036274 0.069168
0.755323 0.037072 0.070980
0.775038 0.037817 0.072721
0.794243 0.038511 0.074401
0.812902 0.039152 0.076014
0.830983 0.039735 0.077556
0.848514 0.040260 0.079030
0.865566 0.040730 0.080440
0.882209 0.041144 0.081792
0.898479 0.041503 0.083089
0.914299 0.041800 0.084321
0.929790 0.042039 0.085499
0.945103 0.042225 0.086635
0.960490 0.042368 0.087753
0.976219 0.042478 0.088876
0.991618 0.042517 0.089937
1.000000 0.042439 0.090860
1.000000 0.042208 0.091582
1.000000 0.041838 0.092137
1.000000 0.041361 0.092587
1.000000 0.040805 0.092990
1.000000 0.040188 0.093388
1.000000 0.039487 0.093743
1.000000 0.038691 0.094045
1.000000 0.037794 0.094291
0.000015 0.012970 0.001086
0.000018 0.012471 0.001018
0.000023 0.011944 0.000947
0.000030 0.011391 0.000877
0.000081 0.010799 0.000795
0.006555 0.009873 0.000439
0.026782 0.008444 0.001954
0.050552 0.008651 0.004273
0.062431 0.008708 0.005444
0.082960 0.008360 0.007494
0.104279 0.008247 0.009613
0.126195 0.008388 0.011775
0.149129 0.008881 0.014015
0.172861 0.009845 0.016301
0.196495 0.011022 0.018559
0.219404 0.012166 0.020744
0.241960 0.013297 0.022892
0.264380 0.014427 0.025022
0.286823 0.015563 0.027151
0.309525 0.016717 0.029301
0.332271 0.017872 0.031451
0.354656 0.018999 0.033562
0.376392 0.020063 0.035608
0.397775 0.021087 0.037616
0.418685 0.022077 0.039573
0.438908 0.023021 0.041459
0.458216 0.023906 0.043250
0.476722 0.024738 0.044958
0.494887 0.025539 0.046626
0.513168 0.026336 0.048301
0.531457 0.027139 0.049993
0.549636 0.027949 0.051693
0.568127 0.028792 0.053440
0.587345 0.029693 0.055277
0.607522 0.030666 0.057221
0.628364 0.031685 0.059234
0.649488 0.032712 0.061265
0.670571 0.033706 0.063262
0.692038 0.034654 0.065244
0.713651 0.035560 0.067202
0.734859 0.036426 0.069111
0.755190 0.037225 0.070924
0.774915 0.037970 0.072667
0.794130 0.038665 0.074348
0.812798 0.039306 0.075962
0.830887 0.039889 0.077505
0.848426 0.040415 0.078979
0.865484 0.040884 0.080390
0.882132 0.041299 0.081743
0.898407 0.041658 0.083040
0.914232 0.041956 0.084273
0.929726 0.042195 0.085451
0.945042 0.042380 0.086587
0.960432 0.042523 0.087705
0.976163 0.042633 0.088828
0.991566 0.042672 0.089889
1.000000 0.042595 0.090813
1.000000 0.042363 0.091536
1.000000 0.041994 0.092091
1.000000 0.041516 0.092541
1.000000 0.040960 0.092944
1.000000 0.040344 0.093342
1.000000 0.039642 0.093697
1.000000 0.038846 0.094000
1.000000 0.037948 0.094246
0.000042 0.031079 0.002810
0.000045 0.030487 0.002732
0.000050 0.029852 0.002649
0.000053 0.029176 0.002566
0.000061 0.028445 0.002473
0.001978 0.027510 0.002233
0.020126 0.025784 0.001322
0.044370 0.023695 0.002916
0.059788 0.022110 0.004434
0.080441 0.019725 0.006530
0.101910 0.018094 0.008712
0.124008 0.016800 0.010960
0.147124 0.015733 0.013307
0.171135 0.014870 0.015736
0.195092 0.014208 0.018149
0.218291 0.013815 0.020468
0.241054 0.013882 0.022709
0.263577 0.014668 0.024874
0.286075 0.015762 0.027011
0.308825 0.016880 0.029168
0.331626 0.018012 0.031326
0.354070 0.019135 0.033443
0.375854 0.020228 0.035492
0.397275 0.021296 0.037501
0.418227 0.022312 0.039460
0.438494 0.023259 0.041350
0.457846 0.024146 0.043146
0.476385 0.024979 0.044857
0.494573 0.025781 0.046527
0.512869 0.026578 0.048204
0.531181 0.027378 0.049899
0.549376 0.028181 0.051602
0.567879 0.029013 0.053353
0.587104 0.029902 0.055193
0.607290 0.030860 0.057142
0.628143 0.031866 0.059160
0.649281 0.032883 0.061196
0.670377 0.033870 0.063197
0.691854 0.034816 0.065180
0.713478 0.035723 0.067140
0.734702 0.036589 0.069051
0.755047 0.037389 0.070865
0.774783 0.038134 0.072609
0.794008 0.038830 0.074290
0.812686 0.039471 0.075905
0.830784 0.040055 0.077449
0.848330 0.040581 0.078924
0.865395 0.041051 0.080336
0.882049 0.041465 0.081689
0.898330 0.041825 0.082987
0.914159 0.042122 0.084220
0.929658 0.042362 0.085399
0.944978 0.042547 0.086536
0.960369 0.042690 0.087654
0.976103 0.042800 0.088777
0.991510 0.042839 0.089839
1.000000 0.042762 0.090763
1.000000 0.042531 0.091486
1.000000 0.042161 0.092042
1.000000 0.041684 0.092492
1.000000 0.041127 0.092895
1.000000 0.040510 0.093293
1.000000 0.039808 0.093649
1.000000 0.039012 0.093951
1.000000 0.038114 0.094198
0.000071 0.050595 0.004668
0.000074 0.050080 0.004598
0.000079 0.049522 0.004522
0.000083 0.048923 0.004445
0.000088 0.048273 0.004362
0.000122 0.047523 0.004230
0.013113 0.046028 0.003455
0.037291 0.044011 0.002274
0.056785 0.042159 0.003267
0.077482 0.038260 0.005350
0.099011 0.034402 0.007533
0.121185 0.031595 0.009793
0.144360 0.029324 0.012164
0.168503 0.027313 0.014640
0.192668 0.025401 0.017128
0.216123 0.023511 0.019553
0.239180 0.021683 0.021940
0.262068 0.020021 0.024302
0.284924 0.018695 0.026639
0.307952 0.017983 0.028950
0.330914 0.018288 0.031181
0.353428 0.019352 0.033309
0.375275 0.020401 0.035367
0.396746 0.021448 0.037383
0.417744 0.022484 0.039346
0.438053 0.023483 0.041236
0.457448 0.024403 0.043034
0.476023 0.025238 0.044748
0.494236 0.026042 0.046421
0.512547 0.026839 0.048099
0.530885 0.027635 0.049797
0.549098 0.028430 0.051504
0.567612 0.029251 0.053259
0.586845 0.030127 0.055104
0.607039 0.031070 0.057057
0.627905 0.032062 0.059081
0.649058 0.033067 0.061122
0.670169 0.034046 0.063127
0.691655 0.034990 0.065112
0.713293 0.035897 0.067073
0.734533 0.036765 0.068985
0.754894 0.037565 0.070801
0.774641 0.038311 0.072546
0.793877 0.039007 0.074229
0.812566 0.039649 0.075845
0.830673 0.040233 0.077390
0.848227 0.040760 0.078865
0.865300 0.041230 0.080278
0.881960 0.041645 0.081632
0.898247 0.042004 0.082930
0.914082 0.042302 0.084164
0.929585 0.042541 0.085343
0.944908 0.042727 0.086480
0.960302 0.042870 0.087599
0.976038 0.042980 0.088722
0.991450 0.043019 0.089784
1.000000 0.042942 0.090709
1.000000 0.042711 0.091433
1.000000 0.042341 0.091989
1.000000 0.041863 0.092439
1.000000 0.041306 0.092843
1.000000 0.040689 0.093241
1.000000 0.039987 0.093596
1.000000 0.039191 0.093899
1.000000 0.038293 0.094146
0.000085 0.060985 0.005631
0.000090 0.060826 0.005595
0.000095 0.060656 0.005557
0.000100 0.060476 0.005519
0.000105 0.060286 0.005482
0.000115 0.060073 0.005434
0.006737 0.059348 0.004918
0.030075 0.057963 0.003816
0.053923 0.056536 0.002712
0.074715 0.054748 0.004356
0.096118 0.052867 0.006420
0.118262 0.049458 0.008621
0.141400 0.046136 0.010952
0.165566 0.043425 0.013402
0.189813 0.040948 0.015880
0.213377 0.038472 0.018311
0.236549 0.035901 0.020724
0.259584 0.033213 0.023141
0.282642 0.030439 0.025573
0.305950 0.027674 0.028036
0.329326 0.025069 0.030499
0.352315 0.022878 0.032896
0.374530 0.021529 0.035156
0.396161 0.021731 0.037246
0.417219 0.022698 0.039220
0.437586 0.023657 0.041119
0.457030 0.024591 0.042921
0.475636 0.025485 0.044634
0.493872 0.026322 0.046307
0.512201 0.027120 0.047987
0.530565 0.027912 0.049688
0.548798 0.028699 0.051399
0.567325 0.029508 0.053158
0.586566 0.030369 0.055007
0.606770 0.031297 0.056965
0.627649 0.032273 0.058995
0.648819 0.033265 0.061042
0.669945 0.034236 0.063051
0.691442 0.035178 0.065039
0.713094 0.036086 0.067001
0.734350 0.036954 0.068915
0.754728 0.037755 0.070733
0.774489 0.038501 0.072479
0.793737 0.039198 0.074163
0.812436 0.039840 0.075780
0.830554 0.040425 0.077326
0.848117 0.040952 0.078802
0.865197 0.041422 0.080215
0.881865 0.041837 0.081570
0.898158 0.042197 0.082869
0.913998 0.042495 0.084103
0.929506 0.042734 0.085283
0.944833 0.042920 0.086421
0.960229 0.043063 0.087539
0.975969 0.043173 0.088663
0.991385 0.043212 0.089726
1.000000 0.043135 0.090651
1.000000 0.042904 0.091375
1.000000 0.042534 0.091932
1.000000 0.042056 0.092382
1.000000 0.041499 0.092786
1.000000 0.040882 0.093185
1.000000 0.040180 0.093540
1.000000 0.039383 0.093843
1.000000 0.038485 0.094090
0.000107 0.077995 0.007126
0.000111 0.077841 0.007091
0.000116 0.077676 0.007054
0.000121 0.077498 0.007013
0.000127 0.077309 0.006973
0.000132 0.077112 0.006934
0.000145 0.076883 0.006876
0.009381 0.075959 0.006183
0.035197 0.074442 0.004965
0.068612 0.072046 0.003369
0.090210 0.070181 0.004978
0.112440 0.068224 0.007116
0.135486 0.066161 0.009340
0.159650 0.064045 0.011678
0.184005 0.062581 0.014037
0.207681 0.061637 0.016333
0.230829 0.060978 0.018581
0.253767 0.060483 0.020809
0.276670 0.060084 0.023036
0.299777 0.059742 0.025284
0.323000 0.059423 0.027545
0.345916 0.059082 0.029778
0.368163 0.058680 0.031947
0.390107 0.057257 0.034147
0.411912 0.053023 0.036506
0.433154 0.047877 0.038872
0.453573 0.042055 0.041206
0.473154 0.036060 0.043474
0.492241 0.030844 0.045644
0.511073 0.028158 0.047614
0.529473 0.029310 0.049296
0.547660 0.030920 0.050949
0.566173 0.032136 0.052686
0.585672 0.031148 0.054697
0.605905 0.032025 0.056672
0.626828 0.032951 0.058720
0.648051 0.033902 0.060784
0.669228 0.034845 0.062808
0.690758 0.035779 0.064804
0.712454 0.036689 0.066771
0.733765 0.037559 0.068690
0.754198 0.038363 0.070513
0.773999 0.039112 0.072263
0.793286 0.039810 0.073951
0.812021 0.040454 0.075571
0.830171 0.041040 0.077120
0.847763 0.041568 0.078600
0.864868 0.042039 0.080015
0.881557 0.042455 0.081372
0.897871 0.042816 0.082673
0.913731 0.043114 0.083909
0.929254 0.043354 0.085090
0.944594 0.043540 0.086230
0.959997 0.043682 0.087349
0.975746 0.043792 0.088474
0.991178 0.043832 0.089538
1.000000 0.043755 0.090465
1.000000 0.043524 0.091191
1.000000 0.043154 0.091749
1.000000 0.042676 0.092201
1.000000 0.042118 0.092605
1.000000 0.041500 0.093003
1.000000 0.040797 0.093359
1.000000 0.039999 0.093663
1.000000 0.039100 0.093910
0.000129 0.095787 0.008684
0.000133 0.095638 0.008650
0.000137 0.095477 0.008613
0.000143 0.095305 0.008573
0.000149 0.095119 0.008530
0.000155 0.094923 0.008487
0.000160 0.094716 0.008445
0.000185 0.094451 0.008359
0.012487 0.093325 0.007484
0.062007 0.090149 0.005129
0.083817 0.088301 0.004058
0.106265 0.086362 0.005605
0.129419 0.084326 0.007828
0.153763 0.082162 0.010174
0.178466 0.079907 0.012559
0.202564 0.077844 0.014891
0.226015 0.076387 0.017162
0.249207 0.075303 0.019411
0.272322 0.074450 0.021654
0.295595 0.073747 0.023914
0.319015 0.073137 0.026190
0.342156 0.072563 0.028441
0.364623 0.071975 0.030628
0.386631 0.071350 0.032772
0.408187 0.070664 0.034874
0.429069 0.069887 0.036912
0.449046 0.068990 0.038865
0.468121 0.067955 0.040733
0.486757 0.066788 0.042560
0.505431 0.065524 0.044394
0.524429 0.062263 0.046409
0.543714 0.055204 0.048731
0.563333 0.047687 0.051157
0.583465 0.041725 0.053569
0.603978 0.040563 0.055720
0.624923 0.041619 0.057772
0.646508 0.040130 0.060050
0.668450 0.035507 0.062544
0.690017 0.036430 0.064550
0.711761 0.037342 0.066521
0.733131 0.038216 0.068446
0.753622 0.039022 0.070275
0.773469 0.039773 0.072029
0.792797 0.040473 0.073721
0.811570 0.041119 0.075345
0.829756 0.041706 0.076898
0.847379 0.042235 0.078381
0.864512 0.042708 0.079799
0.881225 0.043124 0.081158
0.897561 0.043486 0.082461
0.913441 0.043785 0.083700
0.928981 0.044025 0.084882
0.944334 0.044211 0.086023
0.959745 0.044353 0.087143
0.975505 0.044463 0.088269
0.990953 0.044503 0.089335
1.000000 0.044427 0.090264
1.000000 0.044196 0.090992
1.000000 0.043826 0.091551
1.000000 0.043347 0.092004
1.000000 0.042789 0.092408
1.000000 0.042170 0.092808
1.000000 0.041466 0.093164
1.000000 0.040667 0.093468
1.000000 0.039767 0.093716
0.000152 0.114219 0.010291
0.000156 0.114075 0.010257
0.000160 0.113920 0.010221
0.000165 0.113753 0.010182
0.000170 0.113574 0.010139
0.000177 0.113381 0.010094
0.000184 0.113176 0.010048
0.000190 0.112962 0.010004
0.000240 0.112634 0.009865
0.054902 0.108915 0.006967
0.076943 0.107084 0.005876
0.099628 0.105165 0.004763
0.122938 0.103153 0.006250
0.147436 0.101018 0.008598
0.172489 0.098784 0.011008
0.197057 0.096498 0.013377
0.220848 0.094170 0.015675
0.244324 0.092159 0.017946
0.267675 0.090610 0.020207
0.291130 0.089364 0.022480
0.314760 0.088320 0.024772
0.338142 0.087402 0.027041
0.360856 0.086539 0.029247
0.383049 0.085689 0.031405
0.404793 0.084819 0.033520
0.425865 0.083892 0.035573
0.446031 0.082874 0.037539
0.465252 0.081739 0.039415
0.483988 0.080488 0.041247
0.502723 0.079145 0.043081
0.521533 0.078154 0.044927
0.540113 0.077490 0.046764
0.558905 0.076973 0.048643
0.578359 0.076459 0.050617
0.598807 0.075783 0.052724
0.620461 0.071082 0.055216
0.642976 0.062084 0.058067
0.665437 0.053416 0.060869
0.687612 0.049745 0.063249
0.709987 0.046063 0.065596
0.732447 0.038922 0.068184
0.753003 0.039732 0.070019
0.772897 0.040485 0.071778
0.792270 0.041187 0.073474
0.811085 0.041834 0.075103
0.829309 0.042423 0.076659
0.846966 0.042954 0.078145
0.864128 0.043427 0.079566
0.880867 0.043845 0.080928
0.897227 0.044207 0.082234
0.913129 0.044506 0.083474
0.928687 0.044747 0.084658
0.944055 0.044933 0.085800
0.959475 0.045075 0.086921
0.975245 0.045185 0.088049
0.990711 0.045225 0.089116
1.000000 0.045149 0.090048
1.000000 0.044919 0.090778
1.000000 0.044549 0.091339
1.000000 0.044070 0.091792
1.000000 0.043510 0.092197
1.000000 0.042891 0.092597
1.000000 0.042186 0.092954
1.000000 0.041386 0.093259
1.000000 0.040485 0.093507
0.000175 0.133372 0.011954
0.000179 0.133230 0.011921
0.000183 0.133078 0.011884
0.000188 0.132914 0.011845
0.000193 0.132738 0.011804
0.000199 0.132549 0.011759
0.000207 0.132345 0.011710
0.000214 0.132129 0.011661
0.000220 0.131903 0.011613
0.044478 0.128530 0.009010
0.069544 0.126565 0.007775
0.092488 0.124653 0.006641
0.116029 0.122653 0.005486
0.140639 0.120538 0.006950
0.166037 0.118317 0.009381
0.191113 0.116041 0.011789
0.215299 0.113733 0.014118
0.239091 0.111363 0.016413
0.262706 0.108944 0.018693
0.286366 0.106890 0.020981
0.310217 0.105212 0.023288
0.333857 0.103793 0.025578
0.356847 0.102535 0.027806
0.379239 0.101365 0.029978
0.401189 0.100233 0.032108
0.422466 0.099092 0.034175
0.442837 0.097900 0.036156
0.462222 0.096624 0.038043
0.481069 0.095253 0.039880
0.499874 0.093798 0.041714
0.518773 0.092723 0.043564
0.537418 0.092065 0.045402
0.556236 0.091642 0.047278
0.575683 0.091324 0.049242
0.596107 0.090974 0.051330
0.617313 0.090333 0.053525
0.638936 0.089077 0.055788
0.660627 0.086901 0.058074
0.682743 0.083632 0.060400
0.705881 0.073599 0.063202
0.729139 0.060022 0.066260
0.750744 0.052972 0.068727
0.771453 0.047702 0.070979
0.791703 0.041955 0.073209
0.810563 0.042605 0.074842
0.828828 0.043196 0.076402
0.846521 0.043728 0.077892
0.863715 0.044202 0.079316
0.880482 0.044621 0.080680
0.896868 0.044983 0.081989
0.912793 0.045284 0.083231
0.928370 0.045524 0.084418
0.943755 0.045711 0.085561
0.959184 0.045853 0.086684
0.974966 0.045963 0.087812
0.990451 0.046002 0.088881
1.000000 0.045927 0.089815
1.000000 0.045697 0.090548
1.000000 0.045327 0.091111
1.000000 0.044847 0.091565
1.000000 0.044287 0.091971
1.000000 0.043666 0.092371
1.000000 0.042960 0.092728
1.000000 0.042160 0.093034
1.000000 0.041257 0.093283
0.000200 0.153632 0.013710
0.000204 0.153493 0.013676
0.000208 0.153345 0.013641
0.000213 0.153185 0.013602
0.000218 0.153013 0.013561
0.000224 0.152828 0.013516
0.000230 0.152629 0.013468
0.000238 0.152415 0.013417
0.000246 0.152187 0.013363
0.017630 0.150072 0.011904
0.061539 0.147180 0.009793
0.084767 0.145271 0.008640
0.108595 0.143273 0.007463
0.133308 0.141170 0.006250
0.159037 0.138949 0.007655
0.184638 0.136663 0.010102
0.209297 0.134346 0.012468
0.233449 0.131972 0.014790
0.257363 0.129519 0.017094
0.281256 0.126972 0.019399
0.305345 0.124394 0.021726
0.329265 0.122203 0.024039
0.352562 0.120335 0.026293
0.375178 0.118674 0.028483
0.397353 0.117137 0.030631
0.418855 0.115665 0.032716
0.439453 0.114204 0.034715
0.459022 0.112713 0.036615
0.477994 0.111169 0.038458
0.496878 0.109563 0.040294
0.515874 0.108335 0.042149
0.534600 0.107588 0.043994
0.553463 0.107129 0.045875
0.572924 0.106831 0.047840
0.593350 0.106572 0.049927
0.614568 0.106110 0.052118
0.636206 0.105124 0.054369
