luts/Rec709/DJI_Osmo_DLogM_to_Rec709_OpenOSV_Standard.cube
TITLE "OpenOSV D-Log M to Rec.709, OpenOSV standard - DJI Osmo 360 / Pocket 3"
LUT_3D_SIZE 5
DOMAIN_MIN 0.000000 0.000000 0.000000
DOMAIN_MAX 1.000000 1.000000 1.000000
0.000000 0.000000 0.000000
0.254759 0.000000 0.000000
0.570955 0.000000 0.000000
0.830282 0.000000 0.000000
1.000000 0.000000 0.000000
0.000000 0.233339 0.000000
0.220640 0.227778 0.000000
0.559700 0.202800 0.000000
0.827706 0.082683 0.000000
1.000000 0.000000 0.000000
0.000000 0.530109 0.000000
0.000000 0.527928 0.000000
0.502827 0.518483 0.000000
0.816475 0.484955 0.000000
1.000000 0.354745 0.000000
0.000000 0.796702 0.000000
0.000000 0.796213 0.000000
0.189622 0.794149 0.000000
0.775077 0.787404 0.000000
1.000000 0.764021 0.000000
0.000000 1.000000 0.000000
0.000000 1.000000 0.000000
0.000000 1.000000 0.000000
0.460733 1.000000 0.000000
0.998742 1.000000 0.000000
0.000000 0.000000 0.246783
0.255394 0.000000 0.244137
0.571270 0.000000 0.231202
0.830429 0.000000 0.183985
1.000000 0.000000 0.000000
0.000000 0.227828 0.225413
0.222138 0.222138 0.222138
0.560278 0.196487 0.207838
0.827909 0.066095 0.153600
1.000000 0.000000 0.000000
0.000000 0.528087 0.088273
0.000000 0.525885 0.079536
0.505007 0.516344 0.013332
0.816933 0.482572 0.000000
1.000000 0.351721 0.000000
0.000000 0.796297 0.000000
0.000000 0.795807 0.000000
0.200535 0.793738 0.000000
0.775989 0.786977 0.000000
1.000000 0.763535 0.000000
0.000000 1.000000 0.000000
0.000000 1.000000 0.000000
0.000000 1.000000 0.000000
0.465331 1.000000 0.000000
0.999003 1.000000 0.000000
0.000000 0.000000 0.556407
0.250242 0.000000 0.555491
0.572084 0.000000 0.551416
0.830620 0.000000 0.536071
1.000000 0.000000 0.476928
0.000000 0.202693 0.549422
0.224855 0.196275 0.548307
0.561143 0.166690 0.543551
0.828103 0.000000 0.527484
1.000000 0.000000 0.466050
0.000000 0.518591 0.513393
0.000000 0.516268 0.512028
0.506185 0.506185 0.506185
0.817139 0.471227 0.486507
1.000000 0.335986 0.417353
0.000000 0.794272 0.356009
0.000000 0.793778 0.353944
0.209598 0.791688 0.345149
0.776879 0.784858 0.315474
1.000000 0.761157 0.192401
0.000000 1.000000 0.000000
0.000000 1.000000 0.000000
0.000000 1.000000 0.000000
0.484138 1.000000 0.000000
1.000000 1.000000 0.000000
0.000000 0.000000 0.818167
0.231213 0.000000 0.817956
0.566817 0.000000 0.817065
0.831229 0.000000 0.814049
1.000000 0.000000 0.802914
0.000000 0.081123 0.816955
0.233308 0.063407 0.816706
0.563873 0.000000 0.815656
0.828720 0.000000 0.812269
1.000000 0.000000 0.801018
0.000000 0.484859 0.809491
0.000000 0.482212 0.809231
0.509887 0.470946 0.808137
0.817796 0.433072 0.804602
1.000000 0.279970 0.792843
0.000000 0.787489 0.783371
0.000000 0.786976 0.783070
0.218642 0.784805 0.781803
0.777701 0.777701 0.777701
1.000000 0.752962 0.763957
0.000000 1.000000 0.658899
0.000000 1.000000 0.658295
0.000000 1.000000 0.655740
0.488909 1.000000 0.647340
1.000000 1.000000 0.617572
0.000000 0.000000 1.000000
0.155717 0.000000 1.000000
0.545489 0.000000 1.000000
0.827387 0.000000 1.000000
1.000000 0.000000 1.000000
0.000000 0.000000 1.000000
0.192602 0.000000 1.000000
0.555184 0.000000 1.000000
0.829435 0.000000 1.000000
1.000000 0.000000 1.000000
0.000000 0.353660 1.000000
0.013368 0.350021 1.000000
0.521206 0.334330 1.000000
0.819872 0.278457 1.000000
1.000000 0.000000 1.000000
0.000000 0.763964 1.000000
0.000000 0.763378 1.000000
0.245262 0.760899 1.000000
0.780296 0.752756 1.000000
1.000000 0.724000 1.000000
0.000000 1.000000 1.000000
0.000000 1.000000 1.000000
0.000000 1.000000 1.000000
0.501376 1.000000 1.000000
1.000000 1.000000 1.000000
