luts/Rec2100_PQ/DJI_Osmo_DLogM_to_Rec2100_PQ_BT2408_DeepBlacks_Natural.cube
TITLE "OpenOSV D-Log M to Rec.2100 PQ, BT.2408 Deep Blacks + Natural - DJI Osmo 360 / Pocket 3"
LUT_3D_SIZE 65
DOMAIN_MIN 0.000000 0.000000 0.000000
DOMAIN_MAX 1.000000 1.000000 1.000000
0.000001 0.000001 0.000001
0.001855 0.000333 0.000001
0.004943 0.000891 0.000001
0.008753 0.001628 0.000001
0.013108 0.002529 0.000001
0.017919 0.003584 0.000001
0.023130 0.004792 0.000001
0.028704 0.006151 0.000001
0.034617 0.007662 0.000001
0.052741 0.012683 0.000001
0.070805 0.018208 0.000001
0.088527 0.024074 0.000001
0.105855 0.030202 0.000001
0.122780 0.036534 0.000001
0.139303 0.043030 0.000001
0.155437 0.049658 0.000001
0.171190 0.056392 0.000001
0.186579 0.063211 0.000001
0.201615 0.070096 0.000001
0.216313 0.077035 0.000001
0.230686 0.084012 0.000001
0.244744 0.091020 0.000001
0.258503 0.098047 0.000001
0.271975 0.105089 0.000001
0.285173 0.112139 0.000001
0.298108 0.119191 0.000001
0.310794 0.126245 0.000001
0.323242 0.133294 0.000001
0.335469 0.140340 0.000001
0.347482 0.147381 0.000001
0.359295 0.154417 0.000001
0.370921 0.161448 0.000001
0.382368 0.168477 0.000001
0.393654 0.175502 0.000001
0.404780 0.182526 0.000001
0.415763 0.189554 0.000001
0.426619 0.196583 0.000001
0.437345 0.203619 0.000001
0.447955 0.210667 0.000001
0.458459 0.217722 0.000001
0.468864 0.224793 0.000001
0.479179 0.231879 0.000001
0.489412 0.238985 0.000001
0.499571 0.246110 0.000001
0.509650 0.253262 0.000001
0.519670 0.260438 0.000001
0.529635 0.267643 0.000001
0.539539 0.274880 0.000001
0.549399 0.282148 0.000001
0.559206 0.289451 0.000001
0.568982 0.296792 0.000001
0.578715 0.304167 0.000001
0.588415 0.311583 0.000001
0.598086 0.319039 0.000001
0.607727 0.326538 0.000001
0.617338 0.334078 0.000001
0.626926 0.341660 0.000001
0.636493 0.349288 0.000001
0.646040 0.356963 0.000001
0.655563 0.364679 0.000001
0.665074 0.372440 0.000001
0.674562 0.380249 0.000001
0.684036 0.388105 0.000001
0.693496 0.396008 0.000001
0.702933 0.403957 0.000001
0.001608 0.004768 0.000001
0.005813 0.006060 0.000001
0.009872 0.007396 0.000001
0.014197 0.008790 0.000001
0.018829 0.010251 0.000001
0.023769 0.011787 0.000001
0.029013 0.013406 0.000001
0.034554 0.015115 0.000001
0.040383 0.016919 0.000001
0.058113 0.022503 0.000001
0.075712 0.028257 0.000001
0.092972 0.034141 0.000001
0.109864 0.040151 0.000001
0.126388 0.046275 0.000001
0.142543 0.052502 0.000001
0.158343 0.058819 0.000001
0.173796 0.065217 0.000001
0.188911 0.071683 0.000001
0.203702 0.078209 0.000001
0.218180 0.084784 0.000001
0.232351 0.091401 0.000001
0.246232 0.098054 0.000001
0.259831 0.104735 0.000001
0.273159 0.111438 0.000001
0.286229 0.118160 0.000001
0.299050 0.124897 0.000001
0.311634 0.131646 0.000001
0.323992 0.138404 0.000001
0.336135 0.145171 0.000001
0.348076 0.151946 0.000001
0.359826 0.158728 0.000001
0.371394 0.165519 0.000001
0.382790 0.172318 0.000001
0.394030 0.179126 0.000001
0.405118 0.185944 0.000001
0.416069 0.192773 0.000001
0.426889 0.199619 0.000001
0.437584 0.206480 0.000001
0.448172 0.213359 0.000001
0.458657 0.220259 0.000001
0.469042 0.227181 0.000001
0.479336 0.234127 0.000001
0.489553 0.241100 0.000001
0.499691 0.248102 0.000001
0.509769 0.255135 0.000001
0.519776 0.262200 0.000001
0.529726 0.269299 0.000001
0.539626 0.276436 0.000001
0.549474 0.283612 0.000001
0.559278 0.290828 0.000001
0.569047 0.298084 0.000001
0.578773 0.305384 0.000001
0.588471 0.312725 0.000001
0.598134 0.320110 0.000001
0.607773 0.327542 0.000001
0.617378 0.335022 0.000001
0.626965 0.342546 0.000001
0.636526 0.350120 0.000001
0.646067 0.357744 0.000001
0.655594 0.365412 0.000001
0.665099 0.373130 0.000001
0.674588 0.380899 0.000001
0.684058 0.388713 0.000001
0.693516 0.396572 0.000001
0.702953 0.404483 0.000001
0.004281 0.012071 0.000001
0.009690 0.013535 0.000001
0.014480 0.015051 0.000001
0.019259 0.016625 0.000001
0.024169 0.018262 0.000001
0.029270 0.019968 0.000001
0.034589 0.021746 0.000001
0.040140 0.023602 0.000001
0.045931 0.025540 0.000001
0.063375 0.031417 0.000001
0.080580 0.037317 0.000001
0.097425 0.043236 0.000001
0.113915 0.049191 0.000001
0.130054 0.055193 0.000001
0.145855 0.061246 0.000001
0.161328 0.067351 0.000001
0.176481 0.073504 0.000001
0.191324 0.079706 0.000001
0.205868 0.085951 0.000001
0.220120 0.092236 0.000001
0.234092 0.098558 0.000001
0.247788 0.104911 0.000001
0.261222 0.111293 0.000001
0.274404 0.117702 0.000001
0.287339 0.124133 0.000001
0.300042 0.130587 0.000001
0.312521 0.137060 0.000001
0.324784 0.143550 0.000001
0.336843 0.150057 0.000001
0.348708 0.156581 0.000001
0.360390 0.163123 0.000001
0.371898 0.169682 0.000001
0.383240 0.176259 0.000001
0.394435 0.182853 0.000001
0.405481 0.189469 0.000001
0.416394 0.196107 0.000001
0.427175 0.202769 0.000001
0.437844 0.209454 0.000001
0.448404 0.216166 0.000001
0.458862 0.222909 0.000001
0.469231 0.229678 0.000001
0.479509 0.236484 0.000001
0.489709 0.243321 0.000001
0.499834 0.250195 0.000001
0.509892 0.257107 0.000001
0.519889 0.264059 0.000001
0.529831 0.271051 0.000001
0.539720 0.278085 0.000001
0.549560 0.285162 0.000001
0.559360 0.292286 0.000001
0.569117 0.299457 0.000001
0.578838 0.306672 0.000001
0.588532 0.313938 0.000001
0.598185 0.321253 0.000001
0.607816 0.328614 0.000001
0.617425 0.336027 0.000001
0.627006 0.343494 0.000001
0.636565 0.351009 0.000001
0.646107 0.358576 0.000001
0.655625 0.366195 0.000001
0.665131 0.373866 0.000001
0.674613 0.381586 0.000001
0.684084 0.389357 0.000001
0.693535 0.397181 0.000001
0.702973 0.405053 0.000001
0.007574 0.020408 0.000001
0.013698 0.021898 0.000001
0.019022 0.023447 0.000001
0.024164 0.025059 0.000001
0.029318 0.026738 0.000001
0.034572 0.028486 0.000001
0.039973 0.030307 0.000001
0.045552 0.032203 0.000001
0.051327 0.034179 0.000001
0.068553 0.040134 0.000001
0.085420 0.046055 0.000001
0.101889 0.051942 0.000001
0.117999 0.057818 0.000001
0.133776 0.063701 0.000001
0.149233 0.069600 0.000001
0.164385 0.075523 0.000001
0.179242 0.081472 0.000001
0.193816 0.087449 0.000001
0.208109 0.093457 0.000001
0.222136 0.099494 0.000001
0.235901 0.105559 0.000001
0.249412 0.111652 0.000001
0.262678 0.117771 0.000001
0.275707 0.123917 0.000001
0.288507 0.130087 0.000001
0.301086 0.136281 0.000001
0.313452 0.142498 0.000001
0.325618 0.148739 0.000001
0.337587 0.155003 0.000001
0.349373 0.161291 0.000001
0.360986 0.167601 0.000001
0.372431 0.173938 0.000001
0.383722 0.180300 0.000001
0.394861 0.186690 0.000001
0.405866 0.193108 0.000001
0.416730 0.199555 0.000001
0.427483 0.206032 0.000001
0.438123 0.212545 0.000001
0.448653 0.219091 0.000001
0.459088 0.225672 0.000001
0.469432 0.232293 0.000001
0.479688 0.238952 0.000001
0.489871 0.245652 0.000001
0.499981 0.252395 0.000001
0.510025 0.259183 0.000001
0.520010 0.266016 0.000001
0.529937 0.272896 0.000001
0.539818 0.279825 0.000001
0.549651 0.286802 0.000001
0.559439 0.293829 0.000001
0.569195 0.300909 0.000001
0.578907 0.308041 0.000001
0.588591 0.315226 0.000001
0.598247 0.322463 0.000001
0.607871 0.329755 0.000001
0.617469 0.337100 0.000001
0.627051 0.344500 0.000001
0.636608 0.351957 0.000001
0.646143 0.359466 0.000001
0.655662 0.367029 0.000001
0.665159 0.374650 0.000001
0.674645 0.382320 0.000001
0.684110 0.390046 0.000001
0.693561 0.397829 0.000001
0.702999 0.405664 0.000001
0.011324 0.029352 0.000001
0.017884 0.030810 0.000001
0.023590 0.032333 0.000001
0.029016 0.033922 0.000001
0.034370 0.035581 0.000001
0.039757 0.037310 0.000001
0.045237 0.039113 0.000001
0.050848 0.040993 0.000001
0.056616 0.042952 0.000001
0.073667 0.048849 0.000001
0.090236 0.054698 0.000001
0.106364 0.060492 0.000001
0.122121 0.066253 0.000001
0.137550 0.071999 0.000001
0.152674 0.077742 0.000001
0.167514 0.083490 0.000001
0.182079 0.089249 0.000001
0.196381 0.095023 0.000001
0.210427 0.100815 0.000001
0.224226 0.106629 0.000001
0.237784 0.112463 0.000001
0.251104 0.118321 0.000001
0.264197 0.124201 0.000001
0.277071 0.130108 0.000001
0.289732 0.136037 0.000001
0.302181 0.141992 0.000001
0.314436 0.147972 0.000001
0.326497 0.153979 0.000001
0.338375 0.160014 0.000001
0.350078 0.166076 0.000001
0.361617 0.172169 0.000001
0.372995 0.178290 0.000001
0.384226 0.184446 0.000001
0.395316 0.190634 0.000001
0.406272 0.196857 0.000001
0.417101 0.203116 0.000001
0.427810 0.209415 0.000001
0.438420 0.215753 0.000001
0.448917 0.222132 0.000001
0.459326 0.228554 0.000001
0.469645 0.235021 0.000001
0.479882 0.241534 0.000001
0.490048 0.248096 0.000001
0.500142 0.254706 0.000001
0.510168 0.261367 0.000001
0.520140 0.268077 0.000001
0.530057 0.274843 0.000001
0.539925 0.281662 0.000001
0.549748 0.288535 0.000001
0.559529 0.295465 0.000001
0.569275 0.302449 0.000001
0.578981 0.309492 0.000001
0.588655 0.316592 0.000001
0.598304 0.323749 0.000001
0.607925 0.330964 0.000001
0.617527 0.338241 0.000001
0.627095 0.345574 0.000001
0.636647 0.352964 0.000001
0.646183 0.360412 0.000001
0.655693 0.367921 0.000001
0.665194 0.375485 0.000001
0.674671 0.383107 0.000001
0.684139 0.390789 0.000001
0.693591 0.398520 0.000001
0.703019 0.406318 0.000001
0.015445 0.038702 0.000001
0.022257 0.040104 0.000001
0.028230 0.041571 0.000001
0.033870 0.043107 0.000001
0.039383 0.044713 0.000001
0.044879 0.046391 0.000001
0.050426 0.048145 0.000001
0.056066 0.049974 0.000001
0.061831 0.051883 0.000001
0.078733 0.057637 0.000001
0.095037 0.063347 0.000001
0.110848 0.068999 0.000001
0.126275 0.074611 0.000001
0.141371 0.080200 0.000001
0.156175 0.085777 0.000001
0.170709 0.091346 0.000001
0.184987 0.096920 0.000001
0.199022 0.102500 0.000001
0.212819 0.108090 0.000001
0.226387 0.113694 0.000001
0.239736 0.119316 0.000001
0.252865 0.124955 0.000001
0.265785 0.130615 0.000001
0.278497 0.136296 0.000001
0.291011 0.142003 0.000001
0.303332 0.147733 0.000001
0.315468 0.153491 0.000001
0.327423 0.159277 0.000001
0.339206 0.165093 0.000001
0.350824 0.170942 0.000001
0.362284 0.176824 0.000001
0.373594 0.182741 0.000001
0.384765 0.188693 0.000001
0.395797 0.194687 0.000001
0.406702 0.200718 0.000001
0.417489 0.206794 0.000001
0.428164 0.212914 0.000001
0.438731 0.219079 0.000001
0.449203 0.225293 0.000001
0.459581 0.231553 0.000001
0.469877 0.237869 0.000001
0.480089 0.244233 0.000001
0.490234 0.250653 0.000001
0.500310 0.257126 0.000001
0.510325 0.263657 0.000001
0.520276 0.270244 0.000001
0.530183 0.276891 0.000001
0.540040 0.283599 0.000001
0.549849 0.290365 0.000001
0.559625 0.297190 0.000001
0.569356 0.304080 0.000001
0.579063 0.311029 0.000001
0.588730 0.318040 0.000001
0.598372 0.325117 0.000001
0.607989 0.332252 0.000001
0.617580 0.339450 0.000001
0.627148 0.346713 0.000001
0.636695 0.354036 0.000001
0.646226 0.361421 0.000001
0.655736 0.368868 0.000001
0.665228 0.376377 0.000001
0.674709 0.383944 0.000001
0.684168 0.391574 0.000001
0.693617 0.399262 0.000001
0.703049 0.407008 0.000001
0.019880 0.048347 0.000001
0.026816 0.049678 0.000001
0.032966 0.051076 0.000001
0.038759 0.052542 0.000001
0.044392 0.054079 0.000001
0.049973 0.055688 0.000001
0.055572 0.057372 0.000001
0.061235 0.059132 0.000001
0.066995 0.060971 0.000001
0.083763 0.066526 0.000001
0.099826 0.072051 0.000001
0.115344 0.077524 0.000001
0.130458 0.082960 0.000001
0.145239 0.088372 0.000001
0.159733 0.093768 0.000001
0.173970 0.099157 0.000001
0.187965 0.104542 0.000001
0.201733 0.109929 0.000001
0.215285 0.115324 0.000001
0.228624 0.120729 0.000001
0.241758 0.126145 0.000001
0.254693 0.131579 0.000001
0.267434 0.137030 0.000001
0.279984 0.142502 0.000001
0.292352 0.147995 0.000001
0.304539 0.153516 0.000001
0.316551 0.159063 0.000001
0.328398 0.164639 0.000001
0.340083 0.170247 0.000001
0.351608 0.175891 0.000001
0.362990 0.181570 0.000001
0.374225 0.187288 0.000001
0.385331 0.193046 0.000001
0.396304 0.198848 0.000001
0.407159 0.204695 0.000001
0.417900 0.210589 0.000001
0.428532 0.216533 0.000001
0.439066 0.222526 0.000001
0.449501 0.228574 0.000001
0.459852 0.234675 0.000001
0.470118 0.240834 0.000001
0.480312 0.247051 0.000001
0.490431 0.253326 0.000001
0.500493 0.259662 0.000001
0.510487 0.266062 0.000001
0.520426 0.272524 0.000001
0.530321 0.279049 0.000001
0.540160 0.285639 0.000001
0.549964 0.292293 0.000001
0.559725 0.299014 0.000001
0.569451 0.305802 0.000001
0.579148 0.312653 0.000001
0.588808 0.319574 0.000001
0.598443 0.326564 0.000001
0.608052 0.333617 0.000001
0.617638 0.340738 0.000001
0.627202 0.347924 0.000001
0.636743 0.355178 0.000001
0.646272 0.362496 0.000001
0.655777 0.369879 0.000001
0.665266 0.377328 0.000001
0.674741 0.384838 0.000001
0.684204 0.392411 0.000001
0.693647 0.400050 0.000001
0.703076 0.407746 0.000001
0.024587 0.058214 0.000001
0.031558 0.059470 0.000001
0.037811 0.060791 0.000001
0.043706 0.062180 0.000001
0.049422 0.063637 0.000001
0.055063 0.065167 0.000001
0.060700 0.066771 0.000001
0.066376 0.068449 0.000001
0.072128 0.070206 0.000001
0.088767 0.075527 0.000001
0.104606 0.080834 0.000001
0.119851 0.086102 0.000001
0.134668 0.091339 0.000001
0.149146 0.096559 0.000001
0.163341 0.101764 0.000001
0.177288 0.106961 0.000001
0.191008 0.112155 0.000001
0.204515 0.117351 0.000001
0.217818 0.122551 0.000001
0.230930 0.127760 0.000001
0.243850 0.132981 0.000001
0.256590 0.138214 0.000001
0.269150 0.143466 0.000001
0.281534 0.148737 0.000001
0.293751 0.154030 0.000001
0.305799 0.159348 0.000001
0.317688 0.164694 0.000001
0.329420 0.170071 0.000001
0.341003 0.175480 0.000001
0.352438 0.180926 0.000001
0.363734 0.186411 0.000001
0.374897 0.191936 0.000001
0.385933 0.197506 0.000001
0.396845 0.203120 0.000001
0.407647 0.208786 0.000001
0.418343 0.214501 0.000001
0.428929 0.220270 0.000001
0.439419 0.226095 0.000001
0.449822 0.231976 0.000001
0.460142 0.237919 0.000001
0.470381 0.243923 0.000001
0.480547 0.249988 0.000001
0.490645 0.256120 0.000001
0.500685 0.262317 0.000001
0.510661 0.268582 0.000001
0.520589 0.274913 0.000001
0.530464 0.281314 0.000001
0.540293 0.287785 0.000001
0.550084 0.294326 0.000001
0.559834 0.300938 0.000001
0.569553 0.307621 0.000001
0.579236 0.314374 0.000001
0.588891 0.321201 0.000001
0.598519 0.328098 0.000001
0.608121 0.335065 0.000001
0.617700 0.342105 0.000001
0.627258 0.349212 0.000001
0.636800 0.356390 0.000001
0.646317 0.363640 0.000001
0.655823 0.370956 0.000001
0.665310 0.378342 0.000001
0.674779 0.385795 0.000001
0.684236 0.393311 0.000001
0.693679 0.400896 0.000001
0.703105 0.408537 0.000001
0.029537 0.068254 0.000001
0.036476 0.069432 0.000001
0.042772 0.070673 0.000001
0.048723 0.071980 0.000001
0.054490 0.073355 0.000001
0.060169 0.074800 0.000001
0.065825 0.076317 0.000001
0.071503 0.077909 0.000001
0.077241 0.079576 0.000001
0.093753 0.084640 0.000001
0.109378 0.089708 0.000001
0.124366 0.094751 0.000001
0.138902 0.099775 0.000001
0.153092 0.104786 0.000001
0.167000 0.109790 0.000001
0.180664 0.114790 0.000001
0.194113 0.119789 0.000001
0.207361 0.124791 0.000001
0.220421 0.129798 0.000001
0.233303 0.134814 0.000001
0.246012 0.139842 0.000001
0.258555 0.144882 0.000001
0.270931 0.149940 0.000001
0.283148 0.155017 0.000001
0.295211 0.160116 0.000001
0.307120 0.165241 0.000001
0.318878 0.170394 0.000001
0.330495 0.175576 0.000001
0.341969 0.180796 0.000001
0.353309 0.186052 0.000001
0.364519 0.191346 0.000001
0.375604 0.196685 0.000001
0.386572 0.202070 0.000001
0.397421 0.207503 0.000001
0.408165 0.212990 0.000001
0.418807 0.218530 0.000001
0.429345 0.224127 0.000001
0.439797 0.229785 0.000001
0.450166 0.235502 0.000001
0.460448 0.241285 0.000001
0.470660 0.247135 0.000001
0.480802 0.253051 0.000001
0.490871 0.259035 0.000001
0.500887 0.265092 0.000001
0.510848 0.271218 0.000001
0.520757 0.277419 0.000001
0.530620 0.283694 0.000001
0.540434 0.290042 0.000001
0.550214 0.296465 0.000001
0.559951 0.302963 0.000001
0.569656 0.309540 0.000001
0.579334 0.316192 0.000001
0.588981 0.322919 0.000001
0.598598 0.329720 0.000001
0.608196 0.336599 0.000001
0.617767 0.343551 0.000001
0.627323 0.350578 0.000001
0.636857 0.357681 0.000001
0.646369 0.364856 0.000001
0.655870 0.372102 0.000001
0.665351 0.379421 0.000001
0.674824 0.386804 0.000001
0.684275 0.394268 0.000001
0.693709 0.401793 0.000001
0.703135 0.409381 0.000001
0.044428 0.096875 0.000001
0.051045 0.097841 0.000001
0.057230 0.098863 0.000001
0.063150 0.099943 0.000001
0.068908 0.101084 0.000001
0.074574 0.102288 0.000001
0.080201 0.103558 0.000001
0.085828 0.104893 0.000001
0.091485 0.106299 0.000001
0.107601 0.110602 0.000001
0.122669 0.114949 0.000001
0.136997 0.119311 0.000001
0.150816 0.123689 0.000001
0.164261 0.128079 0.000001
0.177419 0.132485 0.000001
0.190342 0.136905 0.000001
0.203067 0.141339 0.000001
0.215619 0.145787 0.000001
0.228017 0.150252 0.000001
0.240271 0.154732 0.000001
0.252387 0.159230 0.000001
0.264376 0.163748 0.000001
0.276238 0.168285 0.000001
0.287978 0.172846 0.000001
0.299598 0.177431 0.000001
0.311099 0.182045 0.000001
0.322486 0.186690 0.000001
0.333760 0.191366 0.000001
0.344922 0.196080 0.000001
0.355980 0.200835 0.000001
0.366932 0.205632 0.000001
0.377786 0.210479 0.000001
0.388537 0.215373 0.000001
0.399201 0.220323 0.000001
0.409766 0.225331 0.000001
0.420252 0.230398 0.000001
0.430655 0.235530 0.000001
0.440980 0.240729 0.000001
0.451231 0.245998 0.000001
0.461415 0.251338 0.000001
0.471534 0.256756 0.000001
0.481590 0.262252 0.000001
0.491591 0.267825 0.000001
0.501540 0.273480 0.000001
0.511444 0.279219 0.000001
0.521293 0.285042 0.000001
0.531108 0.290950 0.000001
0.540882 0.296946 0.000001
0.550618 0.303028 0.000001
0.560322 0.309197 0.000001
0.569998 0.315454 0.000001
0.579642 0.321801 0.000001
0.589265 0.328234 0.000001
0.598859 0.334755 0.000001
0.608432 0.341362 0.000001
0.617986 0.348058 0.000001
0.627519 0.354839 0.000001
0.637041 0.361705 0.000001
0.646540 0.368652 0.000001
0.656025 0.375687 0.000001
0.665492 0.382801 0.000001
0.674954 0.389996 0.000001
0.684394 0.397270 0.000001
0.693827 0.404618 0.000001
0.703242 0.412045 0.000001
0.058846 0.122911 0.000001
0.065013 0.123705 0.000001
0.070908 0.124546 0.000001
0.076623 0.125440 0.000001
0.082222 0.126385 0.000001
0.087755 0.127386 0.000001
0.093258 0.128444 0.000001
0.098759 0.129561 0.000001
0.104284 0.130741 0.000001
0.119972 0.134372 0.000001
0.134546 0.138073 0.000001
0.148329 0.141814 0.000001
0.161565 0.145595 0.000001
0.174408 0.149413 0.000001
0.186953 0.153264 0.000001
0.199264 0.157151 0.000001
0.211388 0.161067 0.000001
0.223356 0.165012 0.000001
0.235185 0.168987 0.000001
0.246895 0.172989 0.000001
0.258497 0.177019 0.000001
0.269991 0.181077 0.000001
0.281390 0.185164 0.000001
0.292698 0.189280 0.000001
0.303913 0.193428 0.000001
0.315039 0.197608 0.000001
0.326079 0.201823 0.000001
0.337028 0.206074 0.000001
0.347897 0.210366 0.000001
0.358682 0.214700 0.000001
0.369386 0.219082 0.000001
0.380007 0.223512 0.000001
0.390557 0.227994 0.000001
0.401024 0.232536 0.000001
0.411427 0.237137 0.000001
0.421754 0.241801 0.000001
0.432017 0.246534 0.000001
0.442215 0.251337 0.000001
0.452351 0.256214 0.000001
0.462432 0.261171 0.000001
0.472455 0.266206 0.000001
0.482429 0.271326 0.000001
0.492354 0.276530 0.000001
0.502235 0.281825 0.000001
0.512069 0.287206 0.000001
0.521866 0.292683 0.000001
0.531626 0.298253 0.000001
0.541356 0.303917 0.000001
0.551053 0.309679 0.000001
0.560720 0.315537 0.000001
0.570354 0.321492 0.000001
0.579974 0.327543 0.000001
0.589563 0.333693 0.000001
0.599137 0.339942 0.000001
0.608685 0.346285 0.000001
0.618223 0.352725 0.000001
0.627739 0.359263 0.000001
0.637240 0.365896 0.000001
0.646721 0.372617 0.000001
0.656189 0.379438 0.000001
0.665653 0.386342 0.000001
0.675095 0.393345 0.000001
0.684523 0.400427 0.000001
0.693945 0.407599 0.000001
0.703351 0.414857 0.000001
0.072598 0.146602 0.000001
0.078298 0.147260 0.000001
0.083837 0.147959 0.000001
0.089273 0.148700 0.000001
0.094640 0.149489 0.000001
0.099972 0.150323 0.000001
0.105292 0.151209 0.000001
0.110623 0.152146 0.000001
0.115981 0.153137 0.000001
0.131199 0.156204 0.000001
0.145305 0.159352 0.000001
0.158604 0.162557 0.000001
0.171346 0.165817 0.000001
0.183680 0.169128 0.000001
0.195711 0.172489 0.000001
0.207510 0.175897 0.000001
0.219125 0.179349 0.000001
0.230591 0.182843 0.000001
0.241934 0.186378 0.000001
0.253172 0.189952 0.000001
0.264318 0.193564 0.000001
0.275382 0.197214 0.000001
0.286368 0.200900 0.000001
0.297284 0.204623 0.000001
0.308131 0.208386 0.000001
0.318910 0.212185 0.000001
0.329626 0.216025 0.000001
0.340278 0.219909 0.000001
0.350866 0.223833 0.000001
0.361392 0.227805 0.000001
0.371857 0.231825 0.000001
0.382260 0.235897 0.000001
0.392607 0.240026 0.000001
0.402892 0.244212 0.000001
0.413124 0.248461 0.000001
0.423300 0.252775 0.000001
0.433421 0.257159 0.000001
0.443494 0.261616 0.000001
0.453512 0.266150 0.000001
0.463486 0.270763 0.000001
0.473420 0.275460 0.000001
0.483301 0.280244 0.000001
0.493148 0.285117 0.000001
0.502957 0.290082 0.000001
0.512730 0.295143 0.000001
0.522472 0.300301 0.000001
0.532176 0.305557 0.000001
0.541859 0.310917 0.000001
0.551510 0.316375 0.000001
0.561140 0.321939 0.000001
0.570746 0.327607 0.000001
0.580322 0.333380 0.000001
0.589890 0.339256 0.000001
0.599431 0.345240 0.000001
0.608958 0.351330 0.000001
0.618468 0.357521 0.000001
0.627964 0.363817 0.000001
0.637451 0.370221 0.000001
0.646916 0.376725 0.000001
0.656372 0.383322 0.000001
0.665813 0.390029 0.000001
0.675245 0.396830 0.000001
0.684662 0.403723 0.000001
0.694069 0.410714 0.000001
0.703467 0.417795 0.000001
0.085701 0.168345 0.000001
0.090950 0.168892 0.000001
0.096123 0.169475 0.000001
0.101247 0.170096 0.000001
0.106347 0.170755 0.000001
0.111441 0.171456 0.000001
0.116546 0.172200 0.000001
0.121677 0.172988 0.000001
0.126848 0.173824 0.000001
0.141559 0.176423 0.000001
0.155204 0.179107 0.000001
0.168060 0.181856 0.000001
0.180359 0.184667 0.000001
0.192250 0.187539 0.000001
0.203838 0.190470 0.000001
0.215193 0.193456 0.000001
0.226369 0.196496 0.000001
0.237404 0.199588 0.000001
0.248321 0.202732 0.000001
0.259145 0.205921 0.000001
0.269889 0.209158 0.000001
0.280568 0.212440 0.000001
0.291182 0.215767 0.000001
0.301744 0.219139 0.000001
0.312254 0.222554 0.000001
0.322719 0.226016 0.000001
0.333132 0.229521 0.000001
0.343504 0.233073 0.000001
0.353827 0.236673 0.000001
0.364108 0.240322 0.000001
0.374345 0.244024 0.000001
0.384542 0.247779 0.000001
0.394692 0.251593 0.000001
0.404797 0.255468 0.000001
0.414859 0.259403 0.000001
0.424884 0.263407 0.000001
0.434870 0.267482 0.000001
0.444814 0.271631 0.000001
0.454717 0.275857 0.000001
0.464585 0.280164 0.000001
0.474416 0.284557 0.000001
0.484215 0.289037 0.000001
0.493981 0.293609 0.000001
0.503721 0.298276 0.000001
0.513428 0.303040 0.000001
0.523106 0.307904 0.000001
0.532761 0.312871 0.000001
0.542391 0.317944 0.000001
0.551999 0.323120 0.000001
0.561586 0.328408 0.000001
0.571149 0.333801 0.000001
0.580699 0.339309 0.000001
0.590227 0.344926 0.000001
0.599743 0.350653 0.000001
0.609246 0.356494 0.000001
0.618734 0.362448 0.000001
0.628211 0.368507 0.000001
0.637674 0.374678 0.000001
0.647121 0.380961 0.000001
0.656561 0.387352 0.000001
0.665989 0.393845 0.000001
0.675407 0.400450 0.000001
0.684814 0.407157 0.000001
0.694207 0.413967 0.000001
0.703597 0.420873 0.000001
0.098199 0.188451 0.000001
0.103030 0.188910 0.000001
0.107841 0.189399 0.000001
0.112650 0.189922 0.000001
0.117469 0.190478 0.000001
0.122310 0.191068 0.000001
0.127184 0.191697 0.000001
0.132100 0.192364 0.000001
0.137066 0.193074 0.000001
0.151247 0.195282 0.000001
0.164434 0.197578 0.000001
0.176866 0.199939 0.000001
0.188758 0.202367 0.000001
0.200250 0.204862 0.000001
0.211444 0.207419 0.000001
0.222409 0.210036 0.000001
0.233198 0.212714 0.000001
0.243849 0.215450 0.000001
0.254394 0.218243 0.000001
0.264852 0.221088 0.000001
0.275239 0.223989 0.000001
0.285569 0.226941 0.000001
0.295851 0.229945 0.000001
0.306090 0.232998 0.000001
0.316292 0.236101 0.000001
0.326460 0.239256 0.000001
0.336599 0.242458 0.000001
0.346706 0.245711 0.000001
0.356784 0.249017 0.000001
0.366834 0.252377 0.000001
0.376854 0.255793 0.000001
0.386839 0.259264 0.000001
0.396809 0.262792 0.000001
0.406737 0.266384 0.000001
0.416641 0.270042 0.000001
0.426514 0.273765 0.000001
