luts/Rec2100_PQ/DJI_Osmo_DLogM_to_Rec2100_PQ_BT2408_DeepBlacks_Natural.cube
TITLE "OpenOSV D-Log M to Rec.2100 PQ, BT.2408 Deep Blacks + Natural - DJI Osmo 360 / Pocket 3"
LUT_3D_SIZE 9
DOMAIN_MIN 0.000000 0.000000 0.000000
DOMAIN_MAX 1.000000 1.000000 1.000000
0.000001 0.000001 0.000001
0.034617 0.007662 0.000001
0.171190 0.056392 0.000001
0.285173 0.112139 0.000001
0.382368 0.168477 0.000001
0.468864 0.224793 0.000001
0.549399 0.282148 0.000001
0.626926 0.341660 0.000001
0.702933 0.403957 0.000001
0.029537 0.068254 0.000001
0.077241 0.079576 0.000001
0.194113 0.119789 0.000001
0.295211 0.160116 0.000001
0.386572 0.202070 0.000001
0.470660 0.247135 0.000001
0.550214 0.296465 0.000001
0.627323 0.350578 0.000001
0.703135 0.409381 0.000001
0.132628 0.241281 0.000001
0.164984 0.244140 0.000001
0.251773 0.257085 0.000001
0.327945 0.274008 0.000001
0.403320 0.294807 0.000001
0.478843 0.319906 0.000001
0.554233 0.350630 0.000001
0.629361 0.388570 0.000001
0.704198 0.434571 0.000001
0.210067 0.350330 0.000001
0.229451 0.351287 0.000001
0.294166 0.356053 0.000001
0.356981 0.363401 0.000001
0.421852 0.374063 0.000001
0.489769 0.388781 0.000001
0.560335 0.408502 0.000001
0.632693 0.434684 0.000001
0.706012 0.468908 0.000001
0.277964 0.438318 0.000001
0.289548 0.438712 0.000001
0.335314 0.440756 0.000001
0.386383 0.444164 0.000001
0.442579 0.449647 0.000001
0.503661 0.458068 0.000001
0.569082 0.470446 0.000001
0.637912 0.488042 0.000001
0.709011 0.512434 0.000001
0.343342 0.518251 0.000001
0.350251 0.518435 0.000001
0.380901 0.519414 0.000001
0.420086 0.521113 0.000001
0.467187 0.523992 0.000001
0.521216 0.528718 0.000001
0.581094 0.536209 0.000001
0.645698 0.547596 0.000001
0.713792 0.564278 0.000001
0.409159 0.595005 0.000001
0.413257 0.595100 0.000001
0.432841 0.595602 0.000001
0.460855 0.596493 0.000001
0.497984 0.598038 0.000001
0.543844 0.600672 0.000001
0.597263 0.605060 0.000001
0.656825 0.612117 0.000001
0.721065 0.623029 0.000001
0.476552 0.670449 0.000001
0.478959 0.670500 0.000001
0.491025 0.670769 0.000001
0.509747 0.671241 0.000001
0.536913 0.672085 0.000001
0.573426 0.673544 0.000001
0.618977 0.676055 0.000001
0.672272 0.680254 0.000001
0.731655 0.687053 0.000001
0.545714 0.745094 0.000001
0.547114 0.745122 0.000001
0.554335 0.745262 0.000001
0.566174 0.745522 0.000001
0.584633 0.745980 0.000001
0.611562 0.746782 0.000001
0.647935 0.748182 0.000001
0.693411 0.750593 0.000001
0.746575 0.751829 0.000001
0.003156 0.000001 0.019448
0.039757 0.003710 0.044653
0.173419 0.054010 0.098570
0.286041 0.110399 0.126866
0.382693 0.167269 0.138270
0.468975 0.223992 0.129001
0.549425 0.281632 0.000001
0.626947 0.341348 0.000001
0.702946 0.403765 0.000001
0.034194 0.069416 0.070962
0.080234 0.080234 0.080234
0.195628 0.119372 0.108512
0.295888 0.159334 0.127355
0.386842 0.201293 0.134127
0.470757 0.246510 0.120221
0.550242 0.296021 0.000001
0.627344 0.350293 0.000001
0.703149 0.409206 0.000001
0.134655 0.241089 0.104668
0.166327 0.243928 0.105247
0.252337 0.256809 0.106667
0.328226 0.273684 0.104163
0.403446 0.294464 0.087415
0.478902 0.319586 0.000001
0.554264 0.350368 0.000001
0.629379 0.388371 0.000001
0.704208 0.434428 0.000001
0.211084 0.350110 0.000001
0.230252 0.351068 0.000001
0.294551 0.355841 0.000001
0.357182 0.363197 0.000001
0.421965 0.373877 0.000001
0.489829 0.388600 0.000001
0.560370 0.408343 0.000001
0.632708 0.434554 0.000001
0.706019 0.468802 0.000001
0.278552 0.438206 0.000001
0.290065 0.438602 0.000001
0.335632 0.440643 0.000001
0.386574 0.444059 0.000001
0.442690 0.449542 0.000001
0.503725 0.457968 0.000001
0.569117 0.470357 0.000001
0.637933 0.487961 0.000001
0.709024 0.512363 0.000001
0.343684 0.518190 0.000001
0.350573 0.518379 0.000001
0.381140 0.519355 0.000001
0.420244 0.521053 0.000001
0.467287 0.523933 0.000001
0.521278 0.528663 0.000001
0.581130 0.536156 0.000001
0.645719 0.547544 0.000001
0.713806 0.564232 0.000001
0.409360 0.594971 0.000001
0.413450 0.595064 0.000001
0.433007 0.595571 0.000001
0.460979 0.596462 0.000001
0.498074 0.598004 0.000001
0.543898 0.600640 0.000001
0.597300 0.605029 0.000001
0.656840 0.612088 0.000001
0.721082 0.623002 0.000001
0.476669 0.670427 0.000001
0.479072 0.670478 0.000001
0.491125 0.670750 0.000001
0.509834 0.671225 0.000001
0.536979 0.672066 0.000001
0.573481 0.673525 0.000001
0.619007 0.676036 0.000001
0.672295 0.680234 0.000001
0.731673 0.687040 0.000001
0.545781 0.745083 0.000001
0.547184 0.745111 0.000001
0.554401 0.745252 0.000001
0.566233 0.745512 0.000001
0.584683 0.745969 0.000001
0.611602 0.746772 0.000001
0.647966 0.748175 0.000001
0.693430 0.750582 0.000001
0.746582 0.751829 0.000001
0.030215 0.000001 0.121812
0.069396 0.000001 0.141968
0.185067 0.030692 0.200506
0.291171 0.099569 0.243408
0.384932 0.160626 0.270575
0.469998 0.219830 0.286684
0.549922 0.279054 0.293958
0.627175 0.339756 0.291165
0.703049 0.402795 0.268661
0.056328 0.073872 0.165381
0.096293 0.082590 0.177778
0.204407 0.116970 0.218119
0.300254 0.155274 0.249796
0.388905 0.197346 0.272394
0.471738 0.243403 0.286685
0.550722 0.293835 0.293182
0.627567 0.348845 0.289891
0.703248 0.408283 0.266604
0.145959 0.241832 0.245566
0.174592 0.244489 0.247645
0.256662 0.256662 0.256662
0.330816 0.272905 0.267173
0.404947 0.293283 0.277442
0.479716 0.318277 0.285329
0.554679 0.349152 0.288425
0.629581 0.387380 0.282547
0.704305 0.433703 0.254563
0.217055 0.349909 0.267090
0.235167 0.350842 0.267564
0.297314 0.355507 0.269809
0.358876 0.362731 0.272849
0.423004 0.373279 0.276233
0.490443 0.387920 0.278652
0.560707 0.407651 0.277436
0.632884 0.433909 0.266802
0.706099 0.468268 0.226926
0.281844 0.437871 0.259183
0.292993 0.438260 0.259207
0.337521 0.440290 0.259286
0.387776 0.443681 0.259211
0.443443 0.449147 0.258526
0.504182 0.457546 0.255946
0.569383 0.469926 0.248116
0.638072 0.487544 0.224953
0.709091 0.511989 0.103565
0.345534 0.517897 0.182246
0.352299 0.518084 0.181766
0.382411 0.519062 0.179120
0.421119 0.520762 0.174017
0.467853 0.523640 0.163477
0.521621 0.528370 0.137714
0.581328 0.535866 0.000001
0.645829 0.547277 0.000001
0.713870 0.563989 0.000001
0.410437 0.594794 0.000001
0.414481 0.594886 0.000001
0.433861 0.595390 0.000001
0.461636 0.596281 0.000001
0.498537 0.597829 0.000001
0.544205 0.600467 0.000001
0.597487 0.604863 0.000001
0.656952 0.611932 0.000001
0.721143 0.622852 0.000001
0.477298 0.670332 0.000001
0.479693 0.670379 0.000001
0.491677 0.670649 0.000001
0.510296 0.671127 0.000001
0.537343 0.671964 0.000001
0.573739 0.673429 0.000001
0.619176 0.675940 0.000001
0.672403 0.680145 0.000001
0.731735 0.686945 0.000001
0.546149 0.745030 0.000001
0.547550 0.745055 0.000001
0.554737 0.745199 0.000001
0.566536 0.745452 0.000001
0.584937 0.745916 0.000001
0.611802 0.746719 0.000001
0.648113 0.748122 0.000001
0.693529 0.750533 0.000001
0.746645 0.751829 0.000001
0.072724 0.000001 0.232216
0.107016 0.000001 0.243822
0.206570 0.000001 0.284224
0.299499 0.064649 0.320025
0.388744 0.145970 0.348572
0.471774 0.211630 0.367867
0.550792 0.274215 0.380372
0.627626 0.336874 0.387179
0.703285 0.401081 0.387154
0.087926 0.070450 0.249844
0.120934 0.077436 0.260001
0.218226 0.107972 0.295827
0.307451 0.145733 0.326883
0.392424 0.189259 0.351118
0.473449 0.237416 0.368619
0.551581 0.289768 0.380401
0.628012 0.346228 0.386879
0.703487 0.406664 0.386662
0.163414 0.242437 0.324733
0.188018 0.244825 0.326888
0.263987 0.255951 0.336430
0.335261 0.271242 0.348048
0.407538 0.291011 0.360309
0.481163 0.315858 0.371493
0.555467 0.346967 0.380209
0.630013 0.385643 0.385159
0.704534 0.432444 0.383948
0.226994 0.349573 0.354152
0.243513 0.350468 0.354760
0.302200 0.354951 0.357701
0.361951 0.361951 0.361951
0.424946 0.372277 0.367412
0.491635 0.386767 0.373437
0.561408 0.406467 0.378776
0.633285 0.432826 0.381586
0.706329 0.467376 0.378714
0.287651 0.437484 0.364626
0.298216 0.437867 0.364802
0.341018 0.439866 0.365708
0.390087 0.443208 0.367125
0.444953 0.448606 0.369137
0.505155 0.456947 0.371564
0.569987 0.469287 0.373670
0.638436 0.486911 0.373731
0.709302 0.511405 0.368063
0.348961 0.517625 0.358825
0.355518 0.517807 0.358851
0.384868 0.518784 0.358982
0.422884 0.520468 0.359169
0.469060 0.523327 0.359364
0.522420 0.528042 0.359343
0.581840 0.535511 0.358417
0.646146 0.546899 0.354753
0.714045 0.563613 0.343676
0.412406 0.594566 0.319854
0.416382 0.594661 0.319778
0.435453 0.595159 0.319353
0.462875 0.596053 0.318574
0.499433 0.597594 0.317110
0.544813 0.600229 0.314277
0.597874 0.604617 0.308513
0.657188 0.611677 0.295840
0.721276 0.622596 0.263034
0.478418 0.670151 0.000001
0.480782 0.670205 0.000001
0.492655 0.670474 0.000001
0.511119 0.670950 0.000001
0.537982 0.671790 0.000001
0.574198 0.673257 0.000001
0.619484 0.675771 0.000001
0.672590 0.679978 0.000001
0.731849 0.686790 0.000001
0.546803 0.744932 0.000001
0.548190 0.744953 0.000001
0.555339 0.745101 0.000001
0.567081 0.745361 0.000001
0.585394 0.745818 0.000001
0.612160 0.746620 0.000001
0.648364 0.748020 0.000001
0.693696 0.750437 0.000001
0.746754 0.751829 0.000001
0.126140 0.000001 0.342015
0.152492 0.000001 0.347833
0.235291 0.000001 0.371200
0.314715 0.000001 0.395509
0.395011 0.101293 0.418504
0.474828 0.193772 0.437802
0.552323 0.264707 0.451904
0.628419 0.331460 0.461906
0.703713 0.397943 0.467924
0.131684 0.000001 0.342791
0.156645 0.000001 0.348512
0.238639 0.062891 0.373203
0.318769 0.117408 0.398829
0.398267 0.170411 0.421095
0.476391 0.225064 0.438793
0.553082 0.281896 0.452207
0.628799 0.341341 0.461899
0.703909 0.403696 0.467773
0.188820 0.241558 0.397542
0.208695 0.243605 0.399439
0.275954 0.253379 0.408021
0.342680 0.267421 0.418930
0.411965 0.286432 0.431088
0.483675 0.311215 0.443022
0.556852 0.342875 0.453518
0.630764 0.382431 0.461798
0.704950 0.430162 0.466937
0.242662 0.348657 0.426532
0.256985 0.349491 0.427144
0.310447 0.353699 0.430170
0.367234 0.360356 0.434631
0.428319 0.370347 0.440601
0.493714 0.384611 0.447664
0.562645 0.404291 0.454945
0.633995 0.430849 0.461312
0.706729 0.465757 0.465309
0.297291 0.436729 0.441802
0.306957 0.437104 0.442020
0.347010 0.439045 0.443132
0.394105 0.442310 0.444924
0.447608 0.447608 0.447608
0.506868 0.455847 0.451248
0.571062 0.468119 0.455544
0.639083 0.485749 0.459647
0.709681 0.510349 0.462017
0.354831 0.517120 0.447419
0.361043 0.517301 0.447494
0.389127 0.518266 0.447891
0.425967 0.519933 0.448553
0.471188 0.522765 0.449591
0.523843 0.527442 0.451115
0.582760 0.534877 0.453015
0.646721 0.546250 0.454762
0.714396 0.562970 0.454937
0.415927 0.594256 0.441255
0.419787 0.594349 0.441269
0.438327 0.594850 0.441336
0.465148 0.595737 0.441452
0.501110 0.597269 0.441619
0.545981 0.599891 0.441812
0.598658 0.604265 0.441867
0.657691 0.611310 0.441232
0.721592 0.622228 0.438439
0.480485 0.669952 0.408961
0.482811 0.670003 0.408928
0.494481 0.670272 0.408761
0.512676 0.670750 0.408465
0.539217 0.671587 0.407918
0.575106 0.673048 0.406882
0.620114 0.675554 0.404874
0.673003 0.679750 0.400822
0.732097 0.686556 0.392084
0.547957 0.744753 0.000001
0.549329 0.744781 0.000001
0.556410 0.744925 0.000001
0.568037 0.745181 0.000001
0.586209 0.745639 0.000001
0.612798 0.746448 0.000001
0.648830 0.747851 0.000001
0.694007 0.750267 0.000001
0.746945 0.751829 0.000001
0.185791 0.000001 0.445649
0.204217 0.000001 0.448253
0.269263 0.000001 0.459863
0.336109 0.000001 0.474224
0.406416 0.000001 0.489755
0.479918 0.140263 0.505301
0.554963 0.244064 0.519293
0.629816 0.320829 0.530444
0.704464 0.392040 0.538997
0.189522 0.000001 0.445958
0.207293 0.000001 0.448538
0.270963 0.000001 0.460042
0.337107 0.000001 0.474294
0.407556 0.100133 0.490341
0.481320 0.194906 0.506316
0.555683 0.265415 0.519700
0.630189 0.331834 0.530570
0.704660 0.398134 0.538990
0.223419 0.234788 0.471646
0.238421 0.236508 0.473083
0.294527 0.244990 0.479773
0.354584 0.257895 0.488769
0.419299 0.276447 0.499495
0.487951 0.301786 0.510819
0.559257 0.334908 0.521616
0.632098 0.376359 0.531163
0.705689 0.425922 0.538913
0.265953 0.346117 0.495979
0.277601 0.346871 0.496529
0.323882 0.350715 0.499282
0.376080 0.356913 0.503446
0.434061 0.366455 0.509201
0.497312 0.380452 0.516339
0.564804 0.400193 0.524211
0.635252 0.427181 0.531966
0.707440 0.462790 0.538683
0.312612 0.435190 0.511895
0.321023 0.435546 0.512115
0.357009 0.437410 0.513262
0.400964 0.440551 0.515127
0.452198 0.445691 0.517983
0.509863 0.453774 0.522010
0.572952 0.465956 0.527107
0.640234 0.483634 0.532751
0.710351 0.508432 0.538021
0.364590 0.516173 0.521569
0.370281 0.516349 0.521661
0.396358 0.517292 0.522143
0.431283 0.518932 0.522958
0.474900 0.521715 0.524293
0.526336 0.526336 0.526336
0.584387 0.533721 0.529196
0.647745 0.545058 0.532705
0.715016 0.561812 0.536191
0.421961 0.593689 0.524892
0.425615 0.593782 0.524924
0.443292 0.594279 0.525113
0.469100 0.595151 0.525437
0.504048 0.596673 0.525982
0.548043 0.599284 0.526845
0.600036 0.603634 0.528124
0.658587 0.610657 0.529748
0.722155 0.621561 0.531256
0.484120 0.669620 0.518229
0.486371 0.669670 0.518236
0.497703 0.669939 0.518273
0.515437 0.670411 0.518335
0.541428 0.671247 0.518433
0.576752 0.672704 0.518578
0.621273 0.675200 0.518742
0.673770 0.679387 0.518774
0.732591 0.686184 0.518177
0.550102 0.744560 0.487882
0.551450 0.744588 0.487868
0.558405 0.744735 0.487785
0.569842 0.744988 0.487642
0.587753 0.745445 0.487378
0.614039 0.746251 0.486890
0.649753 0.747650 0.485979
0.694640 0.750058 0.484208
0.747360 0.751829 0.480629
0.248011 0.000001 0.540795
0.260087 0.000001 0.541877
0.308116 0.000001 0.547091
0.362565 0.000001 0.554506
0.423254 0.000001 0.563946
0.489198 0.000001 0.574627
0.559423 0.182292 0.586059
0.632241 0.297730 0.597153
0.705792 0.380441 0.606685
0.250392 0.000001 0.540903
0.262197 0.000001 0.541980
0.309459 0.000001 0.547169
0.363410 0.000001 0.554540
0.423773 0.000001 0.563946
0.489509 0.000001 0.574597
0.560075 0.222748 0.586478
0.632594 0.311646 0.597334
0.705982 0.387271 0.606742
0.267302 0.206036 0.548541
0.277890 0.207768 0.549469
0.321498 0.216531 0.553973
0.372713 0.230443 0.560444
0.430945 0.251254 0.568815
0.495022 0.280303 0.578474
0.563359 0.318098 0.588540
0.634418 0.364266 0.598233
0.706976 0.417803 0.607023
0.298284 0.339054 0.566204
0.307102 0.339725 0.566644
0.344638 0.343198 0.568880
0.390332 0.348939 0.572353
0.443565 0.358071 0.577350
0.503394 0.371962 0.583875
0.568522 0.392131 0.591511
0.637433 0.420154 0.599610
0.708690 0.457216 0.607446
0.335594 0.431869 0.580383
0.342452 0.432200 0.580586
0.372999 0.433946 0.581647
0.412335 0.436928 0.583398
0.459978 0.441867 0.586128
0.515007 0.449755 0.590088
0.576231 0.461851 0.595317
0.642244 0.479666 0.601493
0.711539 0.504887 0.607997
0.380146 0.514331 0.591130
0.385098 0.514504 0.591225
0.408267 0.515417 0.591723
0.440240 0.517010 0.592578
0.481270 0.519727 0.593984
0.530668 0.524263 0.596185
0.587230 0.531561 0.599389
0.649544 0.542866 0.603594
0.716117 0.559696 0.608449
0.432003 0.592637 0.598253
0.435348 0.592726 0.598296
0.451668 0.593220 0.598528
0.475849 0.594082 0.598930
0.509136 0.595579 0.599610
0.551641 0.598157 0.600729
0.602470 0.602470 0.602470
0.660169 0.609460 0.604946
0.723147 0.620357 0.608038
0.490345 0.669016 0.600371
0.492480 0.669067 0.600388
0.503243 0.669335 0.600481
0.520212 0.669803 0.600646
0.545273 0.670630 0.600936
0.579647 0.672079 0.601411
0.623300 0.674562 0.602179
0.675136 0.678730 0.603317
0.733470 0.685510 0.604760
0.553839 0.744219 0.593242
0.555147 0.744247 0.593242
0.561889 0.744391 0.593259
0.573003 0.744644 0.593293
0.590476 0.745101 0.593346
0.616226 0.745899 0.593425
0.651385 0.747297 0.593540
0.695785 0.749698 0.593661
0.748119 0.751829 0.593633
0.311328 0.000001 0.628327
0.318924 0.000001 0.628775
0.352297 0.000001 0.631038
0.394602 0.000001 0.634574
0.445342 0.000001 0.639720
0.503494 0.000001 0.646510
0.567586 0.000001 0.654585
0.636379 0.228159 0.663784
0.708098 0.355176 0.673302
0.312801 0.000001 0.628359
0.320291 0.000001 0.628805
0.353300 0.000001 0.631059
0.395293 0.000001 0.634592
0.445789 0.000001 0.639720
0.503776 0.000001 0.646498
0.567758 0.000001 0.654566
0.636701 0.256427 0.663979
0.708275 0.363931 0.673391
0.320333 0.000001 0.628529
0.327317 0.000001 0.628965
0.358511 0.000001 0.631181
0.398913 0.000001 0.634661
0.448542 0.133534 0.640135
0.506275 0.210657 0.647491
0.570173 0.274530 0.655987
0.638385 0.337139 0.664964
0.709232 0.401203 0.673830
0.340062 0.318644 0.638349
0.346284 0.319297 0.638663
0.374568 0.322700 0.640262
0.412073 0.328467 0.642839
0.458635 0.337927 0.646718
0.513352 0.352787 0.652091
0.574782 0.374897 0.658839
0.641197 0.405818 0.666527
0.710877 0.446278 0.674556
0.367764 0.424228 0.649419
0.372956 0.424539 0.649590
0.397140 0.426173 0.650481
0.430319 0.428997 0.651961
0.472708 0.433748 0.654331
0.523635 0.441506 0.657878
0.581832 0.453680 0.662757
0.645722 0.471966 0.668830
0.713617 0.498140 0.675675
0.403558 0.510601 0.659468
0.407589 0.510768 0.659552
0.426947 0.511642 0.660026
0.454770 0.513170 0.660828
0.491885 0.515796 0.662171
0.538036 0.520222 0.664308
0.592135 0.527429 0.667495
0.652686 0.538737 0.671847
0.718050 0.555749 0.677199
0.448016 0.590635 0.667841
0.450921 0.590725 0.667889
0.465287 0.591203 0.668125
0.487045 0.592045 0.668548
0.517723 0.593515 0.669259
0.557823 0.596044 0.670455
0.606693 0.600300 0.672339
0.662944 0.607239 0.675130
0.724900 0.618129 0.678871
0.500697 0.667908 0.673658
0.502650 0.667958 0.673680
0.512548 0.668217 0.673798
0.528292 0.668681 0.674002
0.551865 0.669496 0.674358
0.584647 0.670931 0.674964
0.626858 0.673391 0.675972
0.677532 0.677532 0.677532
0.735022 0.684284 0.679772
0.560234 0.743594 0.675015
0.561472 0.743619 0.675028
0.567865 0.743759 0.675072
0.578452 0.744015 0.675162
0.595188 0.744468 0.675308
0.620038 0.745262 0.675567
0.654254 0.746645 0.676001
0.697802 0.749040 0.676691
0.749464 0.751829 0.677705
0.375851 0.000001 0.710398
0.380499 0.000001 0.710592
0.402473 0.000001 0.711592
0.433382 0.000001 0.713260
0.473793 0.000001 0.715904
0.523263 0.000001 0.719844
0.580547 0.000001 0.725221
0.643949 0.000001 0.731890
0.712039 0.278331 0.739854
0.376743 0.000001 0.710408
0.381356 0.000001 0.710599
0.403176 0.000001 0.711599
0.433909 0.000001 0.713260
0.474170 0.000001 0.715904
0.523513 0.000001 0.719838
0.580704 0.000001 0.725211
0.644046 0.000001 0.731873
0.712211 0.297143 0.739952
0.381385 0.000001 0.710448
0.385801 0.000001 0.710639
0.406832 0.000001 0.711636
0.436708 0.000001 0.713280
0.476156 0.000001 0.715911
0.524837 0.000001 0.719817
0.581543 0.000001 0.725156
0.644999 0.244974 0.732249
0.713095 0.361156 0.740444
0.390532 0.238628 0.712110
0.394662 0.239846 0.712308
0.414485 0.246127 0.713328
0.443037 0.256467 0.715030
0.481263 0.272707 0.717711
0.528963 0.296698 0.721688
0.584973 0.329708 0.727082
0.647516 0.371958 0.733747
0.714632 0.422649 0.741265
0.409636 0.405078 0.719770
0.413289 0.405390 0.719892
0.431037 0.407031 0.720561
0.457067 0.409887 0.721695
0.492552 0.414778 0.723546
0.537559 0.422914 0.726423
0.591119 0.435962 0.730569
0.651629 0.455888 0.736038
0.717206 0.484541 0.742585
0.436387 0.502554 0.728022
0.439440 0.502712 0.728098
0.454466 0.503549 0.728500
0.477110 0.505028 0.729195
0.508866 0.507582 0.730355
0.550190 0.511931 0.732253
0.600402 0.519126 0.735147
0.658067 0.530600 0.739257
0.721402 0.548123 0.744542
0.472101 0.586661 0.736125
0.474463 0.586747 0.736167
0.486325 0.587211 0.736396
0.504801 0.588031 0.736789
0.531737 0.589460 0.737474
0.568169 0.591933 0.738619
0.613900 0.596126 0.740462
0.667734 0.603020 0.743247
0.727954 0.613952 0.747121
0.517196 0.665803 0.743254
0.518892 0.665848 0.743282
0.527542 0.666109 0.743405
0.541505 0.666565 0.743619
0.562818 0.667368 0.743991
0.593111 0.668773 0.744630
0.632974 0.671203 0.745702
0.681701 0.675299 0.747403
0.737745 0.682016 0.749928
0.570865 0.742441 0.748256
0.571987 0.742469 0.748267
0.577848 0.742609 0.748330
0.587603 0.742858 0.748433
0.603171 0.743303 0.748620
0.626568 0.744089 0.748948
0.659219 0.745463 0.749500
0.701325 0.747833 0.750409
0.751829 0.751829 0.751829
