luts/Rec2100_PQ/DJI_Osmo_DLogM_to_Rec2100_PQ_BT2408_DeepBlacks_Punchy.cube
TITLE "OpenOSV D-Log M to Rec.2100 PQ, BT.2408 Deep Blacks + Punchy - DJI Osmo 360 / Pocket 3"
LUT_3D_SIZE 5
DOMAIN_MIN 0.000000 0.000000 0.000000
DOMAIN_MAX 1.000000 1.000000 1.000000
0.000001 0.000001 0.000001
0.232778 0.022052 0.000001
0.422245 0.105997 0.000001
0.575988 0.231235 0.000001
0.724941 0.367332 0.000001
0.078184 0.255617 0.000001
0.252070 0.260384 0.000001
0.426471 0.278533 0.000001
0.577236 0.322825 0.000001
0.725327 0.404785 0.000001
0.230797 0.446500 0.000001
0.310139 0.447487 0.000001
0.442747 0.451537 0.000001
0.582350 0.463638 0.000001
0.726944 0.495833 0.000001
0.376309 0.601317 0.000001
0.405646 0.601604 0.000001
0.483739 0.602809 0.000001
0.597399 0.606570 0.000001
0.731949 0.617884 0.000001
0.518153 0.750664 0.000001
0.528227 0.750749 0.000001
0.563442 0.751121 0.000001
0.636126 0.751829 0.000001
0.746691 0.751829 0.000001
0.020416 0.000001 0.267806
0.238147 0.003249 0.266817
0.423366 0.093296 0.262584
0.576313 0.226481 0.247989
0.725043 0.365833 0.184601
0.094727 0.251741 0.257736
0.256662 0.256662 0.256662
0.427552 0.275344 0.252047
0.577563 0.320637 0.236026
0.725430 0.403688 0.164017
0.236251 0.445723 0.203006
0.312980 0.446712 0.201322
0.443698 0.450792 0.193991
0.582661 0.462961 0.167322
0.727041 0.495314 0.012529
0.377946 0.601090 0.000001
0.406935 0.601377 0.000001
0.484424 0.602587 0.000001
0.597676 0.606355 0.000001
0.732049 0.617685 0.000001
0.518669 0.750589 0.000001
0.528703 0.750681 0.000001
0.563805 0.751050 0.000001
0.636328 0.751829 0.000001
0.746782 0.751829 0.000001
0.100618 0.000001 0.459374
0.258379 0.000001 0.459176
0.427969 0.025085 0.458333
0.577686 0.204257 0.455609
0.725468 0.359330 0.446498
0.148714 0.233988 0.457399
0.274205 0.239669 0.457195
0.432003 0.260952 0.456336
0.578921 0.311000 0.453572
0.725858 0.398973 0.444299
0.256777 0.442400 0.448742
0.324204 0.443422 0.448525
0.447608 0.447608 0.447608
0.583969 0.460077 0.444630
0.727463 0.493094 0.434635
0.384580 0.600132 0.416200
0.412181 0.600425 0.415919
0.487249 0.601641 0.414719
0.598839 0.605438 0.410808
0.732450 0.616847 0.397436
0.520826 0.750296 0.000001
0.530698 0.750388 0.000001
0.565318 0.750759 0.000001
0.637192 0.751829 0.000001
0.747138 0.751829 0.000001
0.223774 0.000001 0.614745
0.306569 0.000001 0.614684
0.441577 0.000001 0.614440
0.581961 0.086380 0.613659
0.726821 0.335839 0.611125
0.244433 0.150259 0.614170
0.317352 0.161068 0.614112
0.445192 0.198580 0.613865
0.583158 0.273685 0.613079
0.727202 0.382584 0.610539
0.305505 0.431170 0.611741
0.354213 0.432286 0.611677
0.459298 0.436862 0.611426
0.588040 0.450409 0.610622
0.728792 0.485753 0.608032
0.403590 0.597035 0.603654
0.427550 0.597334 0.603591
0.495854 0.598576 0.603323
0.602470 0.602470 0.602470
0.733726 0.614132 0.599707
0.527462 0.749358 0.573806
0.536847 0.749450 0.573730
0.570028 0.749825 0.573388
0.639886 0.751014 0.572307
0.748274 0.751829 0.568788
0.359449 0.000001 0.751829
0.392642 0.000001 0.751829
0.477027 0.000001 0.751829
0.594712 0.000001 0.751829
0.731027 0.194456 0.751829
0.366474 0.000001 0.751829
0.398009 0.000001 0.751829
0.479754 0.000001 0.751829
0.595793 0.000001 0.751829
0.731400 0.307045 0.751829
0.392129 0.386333 0.751829
0.418228 0.387943 0.751829
0.490571 0.394486 0.751829
0.600223 0.413244 0.751829
0.732934 0.458945 0.751829
0.449711 0.586631 0.751829
0.466656 0.586953 0.751829
0.519906 0.588301 0.751829
0.613404 0.592513 0.751829
0.737711 0.605080 0.751829
0.546560 0.746328 0.751829
0.554671 0.746420 0.751829
0.583964 0.746800 0.751829
0.648122 0.748020 0.751829
0.751829 0.751829 0.751829
