luts/Rec2100_PQ/DJI_Osmo_DLogM_to_Rec2100_PQ_BT2408_DeepBlacks_Natural.cube
TITLE "OpenOSV D-Log M to Rec.2100 PQ, BT.2408 Deep Blacks + Natural - DJI Osmo 360 / Pocket 3"
LUT_3D_SIZE 5
DOMAIN_MIN 0.000000 0.000000 0.000000
DOMAIN_MAX 1.000000 1.000000 1.000000
0.000001 0.000001 0.000001
0.171190 0.056392 0.000001
0.382368 0.168477 0.000001
0.549399 0.282148 0.000001
0.702933 0.403957 0.000001
0.132628 0.241281 0.000001
0.251773 0.257085 0.000001
0.403320 0.294807 0.000001
0.554233 0.350630 0.000001
0.704198 0.434571 0.000001
0.277964 0.438318 0.000001
0.335314 0.440756 0.000001
0.442579 0.449647 0.000001
0.569082 0.470446 0.000001
0.709011 0.512434 0.000001
0.409159 0.595005 0.000001
0.432841 0.595602 0.000001
0.497984 0.598038 0.000001
0.597263 0.605060 0.000001
0.721065 0.623029 0.000001
0.545714 0.745094 0.000001
0.554335 0.745262 0.000001
0.584633 0.745980 0.000001
0.647935 0.748182 0.000001
0.746575 0.751829 0.000001
0.030215 0.000001 0.121812
0.185067 0.030692 0.200506
0.384932 0.160626 0.270575
0.549922 0.279054 0.293958
0.703049 0.402795 0.268661
0.145959 0.241832 0.245566
0.256662 0.256662 0.256662
0.404947 0.293283 0.277442
0.554679 0.349152 0.288425
0.704305 0.433703 0.254563
0.281844 0.437871 0.259183
0.337521 0.440290 0.259286
0.443443 0.449147 0.258526
0.569383 0.469926 0.248116
0.709091 0.511989 0.103565
0.410437 0.594794 0.000001
0.433861 0.595390 0.000001
0.498537 0.597829 0.000001
0.597487 0.604863 0.000001
0.721143 0.622852 0.000001
0.546149 0.745030 0.000001
0.554737 0.745199 0.000001
0.584937 0.745916 0.000001
0.648113 0.748122 0.000001
0.746645 0.751829 0.000001
0.126140 0.000001 0.342015
0.235291 0.000001 0.371200
0.395011 0.101293 0.418504
0.552323 0.264707 0.451904
0.703713 0.397943 0.467924
0.188820 0.241558 0.397542
0.275954 0.253379 0.408021
0.411965 0.286432 0.431088
0.556852 0.342875 0.453518
0.704950 0.430162 0.466937
0.297291 0.436729 0.441802
0.347010 0.439045 0.443132
0.447608 0.447608 0.447608
0.571062 0.468119 0.455544
0.709681 0.510349 0.462017
0.415927 0.594256 0.441255
0.438327 0.594850 0.441336
0.501110 0.597269 0.441619
0.598658 0.604265 0.441867
0.721592 0.622228 0.438439
0.547957 0.744753 0.000001
0.556410 0.744925 0.000001
0.586209 0.745639 0.000001
0.648830 0.747851 0.000001
0.746945 0.751829 0.000001
0.248011 0.000001 0.540795
0.308116 0.000001 0.547091
0.423254 0.000001 0.563946
0.559423 0.182292 0.586059
0.705792 0.380441 0.606685
0.267302 0.206036 0.548541
0.321498 0.216531 0.553973
0.430945 0.251254 0.568815
0.563359 0.318098 0.588540
0.706976 0.417803 0.607023
0.335594 0.431869 0.580383
0.372999 0.433946 0.581647
0.459978 0.441867 0.586128
0.576231 0.461851 0.595317
0.711539 0.504887 0.607997
0.432003 0.592637 0.598253
0.451668 0.593220 0.598528
0.509136 0.595579 0.599610
0.602470 0.602470 0.602470
0.723147 0.620357 0.608038
0.553839 0.744219 0.593242
0.561889 0.744391 0.593259
0.590476 0.745101 0.593346
0.651385 0.747297 0.593540
0.748119 0.751829 0.593633
0.375851 0.000001 0.710398
0.402473 0.000001 0.711592
0.473793 0.000001 0.715904
0.580547 0.000001 0.725221
0.712039 0.278331 0.739854
0.381385 0.000001 0.710448
0.406832 0.000001 0.711636
0.476156 0.000001 0.715911
0.581543 0.000001 0.725156
0.713095 0.361156 0.740444
0.409636 0.405078 0.719770
0.431037 0.407031 0.720561
0.492552 0.414778 0.723546
0.591119 0.435962 0.730569
0.717206 0.484541 0.742585
0.472101 0.586661 0.736125
0.486325 0.587211 0.736396
0.531737 0.589460 0.737474
0.613900 0.596126 0.740462
0.727954 0.613952 0.747121
0.570865 0.742441 0.748256
0.577848 0.742609 0.748330
0.603171 0.743303 0.748620
0.659219 0.745463 0.749500
0.751829 0.751829 0.751829
