luts/Rec2100_PQ/DJI_Osmo_DLogM_to_Rec2100_PQ_ACES2_Detailed.cube
TITLE "OpenOSV D-Log M to Rec.2100 PQ, ACES 2 Detailed (indoor) - DJI Osmo 360 / Pocket 3"
LUT_3D_SIZE 65
DOMAIN_MIN 0.000000 0.000000 0.000000
DOMAIN_MAX 1.000000 1.000000 1.000000
0.000001 0.000001 0.000001
0.003757 0.000095 0.000001
0.009193 0.000225 0.000001
0.015335 0.000392 0.000001
0.021921 0.000593 0.000001
0.028830 0.000830 0.000001
0.035994 0.001105 0.000001
0.043370 0.001418 0.000001
0.050928 0.001773 0.000001
0.072790 0.003004 0.000001
0.093101 0.004447 0.000001
0.111948 0.006079 0.000001
0.129544 0.007893 0.000001
0.146072 0.009884 0.000001
0.161677 0.012051 0.000001
0.176478 0.014394 0.000001
0.190578 0.016913 0.000001
0.204059 0.019610 0.000001
0.216997 0.022485 0.000001
0.229450 0.025542 0.000001
0.241471 0.028780 0.000001
0.253109 0.032202 0.000001
0.264404 0.035810 0.000001
0.275389 0.039604 0.000001
0.286096 0.043586 0.000001
0.296555 0.047755 0.000001
0.306789 0.052113 0.000001
0.316820 0.056659 0.000001
0.326669 0.061390 0.000001
0.336351 0.066308 0.000001
0.345883 0.071409 0.000001
0.355277 0.076691 0.000001
0.364548 0.082150 0.000001
0.373706 0.087785 0.000001
0.382763 0.093588 0.000001
0.391725 0.099557 0.000001
0.400601 0.105687 0.000001
0.409400 0.111969 0.000001
0.418121 0.118398 0.000001
0.426775 0.124969 0.000001
0.435366 0.131673 0.000001
0.443898 0.138503 0.000001
0.452370 0.145452 0.000001
0.460791 0.152512 0.000001
0.469162 0.159675 0.000001
0.477479 0.166931 0.000001
0.485747 0.174276 0.000001
0.493965 0.181699 0.000001
0.502142 0.189195 0.000001
0.510264 0.196754 0.000001
0.518335 0.204369 0.000001
0.526363 0.212034 0.000001
0.534333 0.219746 0.000001
0.542249 0.227496 0.000001
0.550112 0.235276 0.000001
0.557918 0.243086 0.000001
0.565663 0.250918 0.000001
0.573345 0.258771 0.000001
0.580960 0.266637 0.000001
0.588504 0.274518 0.000001
0.595977 0.282406 0.000001
0.603374 0.290303 0.000001
0.610686 0.298206 0.000001
0.617913 0.306110 0.000001
0.625050 0.314018 0.000001
0.000443 0.004855 0.000001
0.004668 0.005116 0.000001
0.010189 0.005400 0.000001
0.016343 0.005707 0.000001
0.022912 0.006040 0.000001
0.029789 0.006399 0.000001
0.036915 0.006789 0.000001
0.044250 0.007210 0.000001
0.051765 0.007665 0.000001
0.073507 0.009140 0.000001
0.093719 0.010754 0.000001
0.112483 0.012502 0.000001
0.130011 0.014388 0.000001
0.146480 0.016415 0.000001
0.162035 0.018588 0.000001
0.176796 0.020912 0.000001
0.190860 0.023390 0.000001
0.204312 0.026025 0.000001
0.217223 0.028823 0.000001
0.229652 0.031787 0.000001
0.241653 0.034920 0.000001
0.253274 0.038224 0.000001
0.264553 0.041704 0.000001
0.275523 0.045362 0.000001
0.286218 0.049199 0.000001
0.296666 0.053217 0.000001
0.306890 0.057418 0.000001
0.316912 0.061801 0.000001
0.326751 0.066367 0.000001
0.336428 0.071116 0.000001
0.345951 0.076046 0.000001
0.355342 0.081155 0.000001
0.364609 0.086441 0.000001
0.373761 0.091901 0.000001
0.382817 0.097531 0.000001
0.391773 0.103327 0.000001
0.400646 0.109286 0.000001
0.409439 0.115399 0.000001
0.418160 0.121663 0.000001
0.426807 0.128072 0.000001
0.435397 0.134617 0.000001
0.443928 0.141292 0.000001
0.452398 0.148090 0.000001
0.460820 0.155004 0.000001
0.469184 0.162026 0.000001
0.477502 0.169148 0.000001
0.485765 0.176362 0.000001
0.493986 0.183660 0.000001
0.502159 0.191034 0.000001
0.510279 0.198479 0.000001
0.518349 0.205987 0.000001
0.526373 0.213551 0.000001
0.534343 0.221164 0.000001
0.542260 0.228820 0.000001
0.550125 0.236512 0.000001
0.557926 0.244241 0.000001
0.565671 0.251995 0.000001
0.573353 0.259774 0.000001
0.580968 0.267573 0.000001
0.588513 0.275390 0.000001
0.595988 0.283219 0.000001
0.603377 0.291058 0.000001
0.610692 0.298908 0.000001
0.617919 0.306764 0.000001
0.625056 0.314628 0.000001
0.001133 0.011687 0.000001
0.005675 0.011970 0.000001
0.011266 0.012273 0.000001
0.017425 0.012600 0.000001
0.023972 0.012952 0.000001
0.030815 0.013331 0.000001
0.037900 0.013738 0.000001
0.045190 0.014175 0.000001
0.052659 0.014646 0.000001
0.074274 0.016153 0.000001
0.094380 0.017781 0.000001
0.113055 0.019525 0.000001
0.130509 0.021391 0.000001
0.146918 0.023383 0.000001
0.162421 0.025506 0.000001
0.177136 0.027766 0.000001
0.191163 0.030167 0.000001
0.204582 0.032715 0.000001
0.217463 0.035414 0.000001
0.229868 0.038268 0.000001
0.241848 0.041283 0.000001
0.253449 0.044460 0.000001
0.264709 0.047805 0.000001
0.275666 0.051320 0.000001
0.286347 0.055008 0.000001
0.296783 0.058871 0.000001
0.306998 0.062912 0.000001
0.317010 0.067131 0.000001
0.326841 0.071528 0.000001
0.336508 0.076105 0.000001
0.346026 0.080862 0.000001
0.355411 0.085796 0.000001
0.364673 0.090904 0.000001
0.373820 0.096189 0.000001
0.382868 0.101641 0.000001
0.391823 0.107262 0.000001
0.400694 0.113047 0.000001
0.409482 0.118989 0.000001
0.418196 0.125082 0.000001
0.426846 0.131324 0.000001
0.435430 0.137707 0.000001
0.443955 0.144223 0.000001
0.452428 0.150866 0.000001
0.460844 0.157629 0.000001
0.469209 0.164505 0.000001
0.477520 0.171485 0.000001
0.485788 0.178564 0.000001
0.494005 0.185732 0.000001
0.502171 0.192982 0.000001
0.510296 0.200308 0.000001
0.518366 0.207702 0.000001
0.526388 0.215157 0.000001
0.534356 0.222667 0.000001
0.542272 0.230227 0.000001
0.550133 0.237828 0.000001
0.557934 0.245468 0.000001
0.565684 0.253143 0.000001
0.573361 0.260845 0.000001
0.580976 0.268572 0.000001
0.588518 0.276320 0.000001
0.595993 0.284085 0.000001
0.603385 0.291865 0.000001
0.610697 0.299660 0.000001
0.617925 0.307466 0.000001
0.625062 0.315280 0.000001
0.002006 0.019240 0.000001
0.006783 0.019521 0.000001
0.012429 0.019823 0.000001
0.018586 0.020147 0.000001
0.025107 0.020496 0.000001
0.031912 0.020870 0.000001
0.038953 0.021272 0.000001
0.046195 0.021703 0.000001
0.053615 0.022166 0.000001
0.075095 0.023643 0.000001
0.095086 0.025232 0.000001
0.113668 0.026928 0.000001
0.131044 0.028736 0.000001
0.147386 0.030661 0.000001
0.162834 0.032708 0.000001
0.177502 0.034883 0.000001
0.191487 0.037191 0.000001
0.204871 0.039637 0.000001
0.217722 0.042225 0.000001
0.230101 0.044961 0.000001
0.242058 0.047850 0.000001
0.253637 0.050894 0.000001
0.264879 0.054099 0.000001
0.275820 0.057468 0.000001
0.286488 0.061004 0.000001
0.296912 0.064711 0.000001
0.307115 0.068589 0.000001
0.317118 0.072643 0.000001
0.326938 0.076870 0.000001
0.336596 0.081274 0.000001
0.346107 0.085855 0.000001
0.355484 0.090612 0.000001
0.364739 0.095544 0.000001
0.373886 0.100647 0.000001
0.382923 0.105922 0.000001
0.391876 0.111365 0.000001
0.400736 0.116972 0.000001
0.409525 0.122739 0.000001
0.418238 0.128659 0.000001
0.426883 0.134731 0.000001
0.435470 0.140944 0.000001
0.443989 0.147297 0.000001
0.452456 0.153781 0.000001
0.460870 0.160389 0.000001
0.469233 0.167114 0.000001
0.477547 0.173950 0.000001
0.485809 0.180886 0.000001
0.494026 0.187920 0.000001
0.502192 0.195041 0.000001
0.510313 0.202242 0.000001
0.518381 0.209518 0.000001
0.526398 0.216860 0.000001
0.534368 0.224262 0.000001
0.542283 0.231719 0.000001
0.550146 0.239225 0.000001
0.557953 0.246775 0.000001
0.565692 0.254361 0.000001
0.573369 0.261984 0.000001
0.580982 0.269634 0.000001
0.588527 0.277311 0.000001
0.596002 0.285008 0.000001
0.603391 0.292728 0.000001
0.610700 0.300463 0.000001
0.617927 0.308213 0.000001
0.625065 0.315975 0.000001
0.003041 0.027199 0.000001
0.007995 0.027471 0.000001
0.013682 0.027763 0.000001
0.019831 0.028077 0.000001
0.026321 0.028414 0.000001
0.033084 0.028775 0.000001
0.040076 0.029163 0.000001
0.047268 0.029579 0.000001
0.054636 0.030025 0.000001
0.075970 0.031448 0.000001
0.095841 0.032976 0.000001
0.114323 0.034603 0.000001
0.131615 0.036336 0.000001
0.147888 0.038179 0.000001
0.163277 0.040138 0.000001
0.177893 0.042218 0.000001
0.191836 0.044423 0.000001
0.205182 0.046760 0.000001
0.217998 0.049232 0.000001
0.230349 0.051845 0.000001
0.242280 0.054604 0.000001
0.253840 0.057513 0.000001
0.265063 0.060576 0.000001
0.275985 0.063797 0.000001
0.286637 0.067181 0.000001
0.297048 0.070729 0.000001
0.307238 0.074445 0.000001
0.317230 0.078331 0.000001
0.327044 0.082389 0.000001
0.336693 0.086619 0.000001
0.346196 0.091024 0.000001
0.355565 0.095603 0.000001
0.364816 0.100355 0.000001
0.373950 0.105278 0.000001
0.382990 0.110374 0.000001
0.391933 0.115635 0.000001
0.400795 0.121062 0.000001
0.409574 0.126649 0.000001
0.418284 0.132395 0.000001
0.426923 0.138292 0.000001
0.435505 0.144335 0.000001
0.444023 0.150520 0.000001
0.452492 0.156841 0.000001
0.460905 0.163288 0.000001
0.469260 0.169858 0.000001
0.477570 0.176542 0.000001
0.485834 0.183334 0.000001
0.494049 0.190227 0.000001
0.502214 0.197215 0.000001
0.510332 0.204286 0.000001
0.518401 0.211437 0.000001
0.526418 0.218662 0.000001
0.534386 0.225952 0.000001
0.542301 0.233304 0.000001
0.550156 0.240709 0.000001
0.557958 0.248162 0.000001
0.565700 0.255660 0.000001
0.573380 0.263195 0.000001
0.580995 0.270765 0.000001
0.588535 0.278367 0.000001
0.596005 0.285995 0.000001
0.603397 0.293647 0.000001
0.610712 0.301317 0.000001
0.617936 0.309011 0.000001
0.625071 0.316719 0.000001
0.004229 0.035425 0.000001
0.009317 0.035685 0.000001
0.015030 0.035965 0.000001
0.021164 0.036265 0.000001
0.027618 0.036586 0.000001
0.034335 0.036931 0.000001
0.041276 0.037302 0.000001
0.048413 0.037699 0.000001
0.055725 0.038125 0.000001
0.076907 0.039482 0.000001
0.096649 0.040938 0.000001
0.115024 0.042489 0.000001
0.132228 0.044140 0.000001
0.148425 0.045895 0.000001
0.163750 0.047759 0.000001
0.178313 0.049739 0.000001
0.192209 0.051838 0.000001
0.205514 0.054062 0.000001
0.218297 0.056415 0.000001
0.230616 0.058904 0.000001
0.242521 0.061532 0.000001
0.254056 0.064305 0.000001
0.265260 0.067226 0.000001
0.276165 0.070299 0.000001
0.286800 0.073529 0.000001
0.297194 0.076920 0.000001
0.307372 0.080474 0.000001
0.317352 0.084193 0.000001
0.327155 0.088081 0.000001
0.336795 0.092138 0.000001
0.346290 0.096367 0.000001
0.355651 0.100767 0.000001
0.364894 0.105338 0.000001
0.374023 0.110081 0.000001
0.383054 0.114993 0.000001
0.391993 0.120072 0.000001
0.400848 0.125318 0.000001
0.409624 0.130725 0.000001
0.418333 0.136292 0.000001
0.426970 0.142011 0.000001
0.435546 0.147880 0.000001
0.444065 0.153894 0.000001
0.452527 0.160045 0.000001
0.460938 0.166330 0.000001
0.469294 0.172739 0.000001
0.477602 0.179270 0.000001
0.485862 0.185912 0.000001
0.494073 0.192658 0.000001
0.502235 0.199506 0.000001
0.510351 0.206445 0.000001
0.518418 0.213468 0.000001
0.526433 0.220569 0.000001
0.534399 0.227743 0.000001
0.542316 0.234983 0.000001
0.550172 0.242280 0.000001
0.557974 0.249635 0.000001
0.565714 0.257037 0.000001
0.573391 0.264482 0.000001
0.581004 0.271970 0.000001
0.588546 0.279490 0.000001
0.596016 0.287044 0.000001
0.603405 0.294626 0.000001
0.610718 0.302233 0.000001
0.617939 0.309862 0.000001
0.625077 0.317514 0.000001
0.005565 0.043847 0.000001
0.010751 0.044094 0.000001
0.016478 0.044359 0.000001
0.022590 0.044643 0.000001
0.029004 0.044948 0.000001
0.035670 0.045276 0.000001
0.042555 0.045627 0.000001
0.049634 0.046004 0.000001
0.056887 0.046408 0.000001
0.077906 0.047695 0.000001
0.097512 0.049076 0.000001
0.115773 0.050547 0.000001
0.132882 0.052112 0.000001
0.149001 0.053776 0.000001
0.164256 0.055545 0.000001
0.178762 0.057422 0.000001
0.192608 0.059414 0.000001
0.205869 0.061525 0.000001
0.218618 0.063759 0.000001
0.230902 0.066123 0.000001
0.242778 0.068621 0.000001
0.254289 0.071259 0.000001
0.265470 0.074039 0.000001
0.276356 0.076965 0.000001
0.286974 0.080044 0.000001
0.297352 0.083277 0.000001
0.307517 0.086669 0.000001
0.317482 0.090224 0.000001
0.327273 0.093943 0.000001
0.336904 0.097826 0.000001
0.346389 0.101878 0.000001
0.355743 0.106100 0.000001
0.364975 0.110492 0.000001
0.374101 0.115053 0.000001
0.383127 0.119781 0.000001
0.392058 0.124677 0.000001
0.400907 0.129739 0.000001
0.409685 0.134964 0.000001
0.418383 0.140349 0.000001
0.427018 0.145888 0.000001
0.435592 0.151580 0.000001
0.444101 0.157420 0.000001
0.452561 0.163400 0.000001
0.460970 0.169517 0.000001
0.469327 0.175763 0.000001
0.477629 0.182134 0.000001
0.485887 0.188620 0.000001
0.494101 0.195220 0.000001
0.502259 0.201921 0.000001
0.510373 0.208721 0.000001
0.518440 0.215611 0.000001
0.526456 0.222585 0.000001
0.534421 0.229638 0.000001
0.542331 0.236760 0.000001
0.550185 0.243948 0.000001
0.557985 0.251198 0.000001
0.565727 0.258499 0.000001
0.573402 0.265851 0.000001
0.581015 0.273249 0.000001
0.588554 0.280687 0.000001
0.596024 0.288159 0.000001
0.603414 0.295668 0.000001
0.610721 0.303205 0.000001
0.617945 0.310771 0.000001
0.625079 0.318362 0.000001
0.007047 0.052417 0.000001
0.012303 0.052650 0.000001
0.018032 0.052901 0.000001
0.024114 0.053169 0.000001
0.030482 0.053458 0.000001
0.037094 0.053767 0.000001
0.043919 0.054099 0.000001
0.050936 0.054455 0.000001
0.058126 0.054837 0.000001
0.078973 0.056052 0.000001
0.098433 0.057357 0.000001
0.116573 0.058747 0.000001
0.133582 0.060227 0.000001
0.149616 0.061800 0.000001
0.164800 0.063473 0.000001
0.179243 0.065250 0.000001
0.193035 0.067135 0.000001
0.206253 0.069134 0.000001
0.218959 0.071251 0.000001
0.231211 0.073492 0.000001
0.243057 0.075862 0.000001
0.254539 0.078364 0.000001
0.265695 0.081004 0.000001
0.276559 0.083787 0.000001
0.287158 0.086715 0.000001
0.297521 0.089793 0.000001
0.307669 0.093027 0.000001
0.317623 0.096416 0.000001
0.327403 0.099968 0.000001
0.337023 0.103679 0.000001
0.346498 0.107558 0.000001
0.355843 0.111602 0.000001
0.365069 0.115813 0.000001
0.374185 0.120191 0.000001
0.383203 0.124737 0.000001
0.392131 0.129449 0.000001
0.400974 0.134327 0.000001
0.409745 0.139367 0.000001
0.418439 0.144568 0.000001
0.427071 0.149926 0.000001
0.435639 0.155438 0.000001
0.444147 0.161100 0.000001
0.452602 0.166905 0.000001
0.461005 0.172851 0.000001
0.469360 0.178930 0.000001
0.477661 0.185138 0.000001
0.485915 0.191466 0.000001
0.494122 0.197910 0.000001
0.502283 0.204465 0.000001
0.510395 0.211118 0.000001
0.518457 0.217872 0.000001
0.526476 0.224713 0.000001
0.534439 0.231638 0.000001
0.542347 0.238640 0.000001
0.550206 0.245713 0.000001
0.558000 0.252852 0.000001
0.565740 0.260051 0.000001
0.573416 0.267305 0.000001
0.581026 0.274607 0.000001
0.588568 0.281958 0.000001
0.596036 0.289349 0.000001
0.603420 0.296779 0.000001
0.610732 0.304244 0.000001
0.617957 0.311738 0.000001
0.625091 0.319263 0.000001
0.008676 0.061106 0.000001
0.013978 0.061326 0.000001
0.019697 0.061561 0.000001
0.025742 0.061814 0.000001
0.032059 0.062086 0.000001
0.038611 0.062377 0.000001
0.045372 0.062689 0.000001
0.052323 0.063025 0.000001
0.059447 0.063384 0.000001
0.080109 0.064530 0.000001
0.099417 0.065760 0.000001
0.117430 0.067070 0.000001
0.134331 0.068464 0.000001
0.150274 0.069949 0.000001
0.165382 0.071527 0.000001
0.179760 0.073205 0.000001
0.193494 0.074985 0.000001
0.206662 0.076874 0.000001
0.219326 0.078876 0.000001
0.231540 0.080997 0.000001
0.243353 0.083240 0.000001
0.254807 0.085612 0.000001
0.265936 0.088114 0.000001
0.276780 0.090754 0.000001
0.287358 0.093536 0.000001
0.297703 0.096462 0.000001
0.307834 0.099538 0.000001
0.317776 0.102767 0.000001
0.327540 0.106151 0.000001
0.337150 0.109695 0.000001
0.346614 0.113399 0.000001
0.355950 0.117266 0.000001
0.365167 0.121299 0.000001
0.374275 0.125494 0.000001
0.383284 0.129857 0.000001
0.392207 0.134385 0.000001
0.401046 0.139078 0.000001
0.409807 0.143934 0.000001
0.418502 0.148950 0.000001
0.427124 0.154124 0.000001
0.435689 0.159455 0.000001
0.444196 0.164935 0.000001
0.452647 0.170564 0.000001
0.461045 0.176335 0.000001
0.469398 0.182243 0.000001
0.477697 0.188284 0.000001
0.485949 0.194449 0.000001
0.494155 0.200737 0.000001
0.502311 0.207136 0.000001
0.510419 0.213645 0.000001
0.518484 0.220253 0.000001
0.526493 0.226958 0.000001
0.534454 0.233750 0.000001
0.542367 0.240628 0.000001
0.550222 0.247580 0.000001
0.558014 0.254605 0.000001
0.565757 0.261694 0.000001
0.573426 0.268844 0.000001
0.581037 0.276052 0.000001
0.588577 0.283309 0.000001
0.596044 0.290613 0.000001
0.603434 0.297963 0.000001
0.610741 0.305348 0.000001
0.617965 0.312771 0.000001
0.625097 0.320227 0.000001
0.014011 0.085788 0.000001
0.019332 0.085971 0.000001
0.024968 0.086168 0.000001
0.030873 0.086380 0.000001
0.037017 0.086606 0.000001
0.043377 0.086850 0.000001
0.049937 0.087112 0.000001
0.056681 0.087392 0.000001
0.063596 0.087694 0.000001
0.083691 0.088653 0.000001
0.102519 0.089684 0.000001
0.120133 0.090784 0.000001
0.136700 0.091956 0.000001
0.152358 0.093206 0.000001
0.167224 0.094536 0.000001
0.181394 0.095951 0.000001
0.194952 0.097456 0.000001
0.207964 0.099055 0.000001
0.220492 0.100753 0.000001
0.232590 0.102554 0.000001
0.244299 0.104464 0.000001
0.255660 0.106485 0.000001
0.266710 0.108625 0.000001
0.277480 0.110886 0.000001
0.287997 0.113275 0.000001
0.298284 0.115793 0.000001
0.308364 0.118448 0.000001
0.318257 0.121243 0.000001
0.327982 0.124180 0.000001
0.337554 0.127263 0.000001
0.346985 0.130498 0.000001
0.356292 0.133885 0.000001
0.365478 0.137426 0.000001
0.374566 0.141126 0.000001
0.383550 0.144984 0.000001
0.392450 0.149003 0.000001
0.401271 0.153181 0.000001
0.410018 0.157521 0.000001
0.418689 0.162021 0.000001
0.427298 0.166678 0.000001
0.435857 0.171493 0.000001
0.444347 0.176463 0.000001
0.452785 0.181587 0.000001
0.461176 0.186858 0.000001
0.469516 0.192274 0.000001
0.477808 0.197833 0.000001
0.486051 0.203526 0.000001
0.494249 0.209352 0.000001
0.502399 0.215305 0.000001
0.510502 0.221379 0.000001
0.518561 0.227567 0.000001
0.526563 0.233866 0.000001
0.534520 0.240268 0.000001
0.542421 0.246769 0.000001
0.550274 0.253361 0.000001
0.558069 0.260043 0.000001
0.565799 0.266805 0.000001
0.573473 0.273643 0.000001
0.581078 0.280553 0.000001
0.588616 0.287530 0.000001
0.596078 0.294566 0.000001
0.603465 0.301662 0.000001
0.610767 0.308813 0.000001
0.617992 0.316013 0.000001
0.625124 0.323258 0.000001
0.019804 0.108214 0.000001
0.025040 0.108368 0.000001
0.030536 0.108537 0.000001
0.036269 0.108715 0.000001
0.042220 0.108905 0.000001
0.048376 0.109111 0.000001
0.054725 0.109332 0.000001
0.061254 0.109570 0.000001
0.067955 0.109824 0.000001
0.087461 0.110637 0.000001
0.105796 0.111507 0.000001
0.122995 0.112439 0.000001
0.139212 0.113434 0.000001
0.154574 0.114494 0.000001
0.169188 0.115625 0.000001
0.183140 0.116829 0.000001
0.196508 0.118113 0.000001
0.209357 0.119477 0.000001
0.221744 0.120928 0.000001
0.233714 0.122471 0.000001
0.245312 0.124108 0.000001
0.256578 0.125845 0.000001
0.267541 0.127687 0.000001
0.278234 0.129638 0.000001
0.288681 0.131702 0.000001
0.298908 0.133884 0.000001
0.308936 0.136188 0.000001
0.318779 0.138620 0.000001
0.328459 0.141182 0.000001
0.337990 0.143879 0.000001
0.347386 0.146714 0.000001
0.356659 0.149692 0.000001
0.365815 0.152816 0.000001
0.374872 0.156086 0.000001
0.383835 0.159508 0.000001
0.392715 0.163083 0.000001
0.401512 0.166813 0.000001
0.410236 0.170698 0.000001
0.418894 0.174741 0.000001
0.427491 0.178938 0.000001
0.436028 0.183293 0.000001
0.444510 0.187802 0.000001
0.452935 0.192465 0.000001
0.461314 0.197280 0.000001
0.469643 0.202246 0.000001
0.477926 0.207357 0.000001
0.486161 0.212613 0.000001
0.494349 0.218006 0.000001
0.502492 0.223538 0.000001
0.510591 0.229198 0.000001
0.518642 0.234986 0.000001
0.526638 0.240895 0.000001
0.534589 0.246921 0.000001
0.542488 0.253059 0.000001
0.550336 0.259301 0.000001
0.558122 0.265645 0.000001
0.565850 0.272083 0.000001
0.573519 0.278612 0.000001
0.581122 0.285227 0.000001
0.588649 0.291922 0.000001
0.596115 0.298693 0.000001
0.603497 0.305535 0.000001
0.610796 0.312445 0.000001
0.618015 0.319417 0.000001
0.625147 0.326446 0.000001
0.025925 0.128661 0.000001
0.031019 0.128794 0.000001
0.036342 0.128936 0.000001
0.041882 0.129087 0.000001
0.047628 0.129250 0.000001
0.053571 0.129426 0.000001
0.059702 0.129614 0.000001
0.066011 0.129816 0.000001
0.072493 0.130033 0.000001
0.091401 0.130726 0.000001
0.109230 0.131473 0.000001
0.126004 0.132269 0.000001
0.141860 0.133121 0.000001
0.156915 0.134030 0.000001
0.171264 0.134999 0.000001
0.184988 0.136034 0.000001
0.198161 0.137136 0.000001
0.210836 0.138311 0.000001
0.223072 0.139562 0.000001
0.234910 0.140893 0.000001
0.246393 0.142308 0.000001
0.257554 0.143813 0.000001
0.268428 0.145410 0.000001
0.279038 0.147104 0.000001
0.289415 0.148900 0.000001
0.299577 0.150802 0.000001
0.309543 0.152815 0.000001
0.319336 0.154942 0.000001
0.328969 0.157189 0.000001
0.338457 0.159561 0.000001
0.347814 0.162059 0.000001
0.357051 0.164688 0.000001
0.366180 0.167454 0.000001
0.375204 0.170358 0.000001
0.384147 0.173403 0.000001
0.392999 0.176594 0.000001
0.401775 0.179931 0.000001
0.410480 0.183418 0.000001
0.419119 0.187057 0.000001
0.427696 0.190847 0.000001
0.436221 0.194790 0.000001
0.444685 0.198887 0.000001
0.453096 0.203136 0.000001
0.461465 0.207537 0.000001
0.469781 0.212091 0.000001
0.478057 0.216793 0.000001
0.486279 0.221642 0.000001
0.494459 0.226636 0.000001
0.502592 0.231772 0.000001
0.510683 0.237046 0.000001
0.518725 0.242454 0.000001
0.526723 0.247995 0.000001
0.534662 0.253659 0.000001
0.542555 0.259447 0.000001
0.550396 0.265350 0.000001
0.558180 0.271367 0.000001
0.565904 0.277492 0.000001
0.573568 0.283717 0.000001
0.581166 0.290040 0.000001
0.588694 0.296458 0.000001
0.596154 0.302962 0.000001
0.603534 0.309551 0.000001
0.610833 0.316218 0.000001
0.618050 0.322960 0.000001
0.625177 0.329774 0.000001
0.032317 0.147482 0.000001
0.037236 0.147596 0.000001
0.042367 0.147718 0.000001
0.047702 0.147849 0.000001
0.053234 0.147989 0.000001
0.058958 0.148140 0.000001
0.064866 0.148302 0.000001
0.070953 0.148476 0.000001
0.077211 0.148663 0.000001
0.095511 0.149260 0.000001
0.112823 0.149904 0.000001
0.129160 0.150591 0.000001
0.144646 0.151325 0.000001
0.159382 0.152110 0.000001
0.173457 0.152949 0.000001
0.186945 0.153843 0.000001
0.199909 0.154800 0.000001
0.212407 0.155818 0.000001
0.224484 0.156904 0.000001
0.236183 0.158063 0.000001
0.247543 0.159294 0.000001
0.258595 0.160604 0.000001
0.269373 0.161999 0.000001
0.279896 0.163477 0.000001
0.290197 0.165050 0.000001
0.300289 0.166718 0.000001
0.310194 0.168486 0.000001
0.319930 0.170357 0.000001
0.329515 0.172338 0.000001
0.338957 0.174431 0.000001
0.348274 0.176641 0.000001
0.357475 0.178974 0.000001
0.366568 0.181431 0.000001
0.375563 0.184019 0.000001
0.384474 0.186737 0.000001
0.393304 0.189592 0.000001
0.402052 0.192586 0.000001
0.410733 0.195723 0.000001
0.419362 0.199006 0.000001
0.427920 0.202433 0.000001
0.436424 0.206009 0.000001
0.444871 0.209735 0.000001
0.453273 0.213610 0.000001
0.461627 0.217636 0.000001
0.469929 0.221813 0.000001
0.478191 0.226140 0.000001
0.486408 0.230615 0.000001
0.494577 0.235238 0.000001
0.502704 0.240007 0.000001
0.510785 0.244918 0.000001
0.518819 0.249968 0.000001
0.526807 0.255157 0.000001
0.534743 0.260479 0.000001
0.542629 0.265930 0.000001
0.550464 0.271509 0.000001
0.558244 0.277207 0.000001
0.565965 0.283024 0.000001
0.573622 0.288955 0.000001
0.581215 0.294993 0.000001
0.588744 0.301133 0.000001
0.596196 0.307375 0.000001
0.603571 0.313711 0.000001
0.610868 0.320135 0.000001
0.618079 0.326647 0.000001
0.625207 0.333240 0.000001
0.038942 0.164954 0.000001
0.043670 0.165050 0.000001
0.048596 0.165155 0.000001
0.053718 0.165270 0.000001
0.059031 0.165392 0.000001
0.064531 0.165523 0.000001
0.070215 0.165663 0.000001
0.076074 0.165815 0.000001
0.082108 0.165977 0.000001
0.099790 0.166494 0.000001
0.116576 0.167052 0.000001
0.132467 0.167650 0.000001
0.147571 0.168290 0.000001
0.161978 0.168971 0.000001
0.175771 0.169702 0.000001
0.189013 0.170482 0.000001
0.201763 0.171315 0.000001
0.214070 0.172205 0.000001
0.225982 0.173153 0.000001
0.237536 0.174165 0.000001
0.248768 0.175244 0.000001
0.259704 0.176394 0.000001
0.270379 0.177616 0.000001
0.280815 0.178916 0.000001
0.291031 0.180301 0.000001
0.301051 0.181769 0.000001
0.310891 0.183330 0.000001
0.320567 0.184983 0.000001
0.330098 0.186736 0.000001
0.339494 0.188593 0.000001
0.348765 0.190557 0.000001
0.357926 0.192633 0.000001
0.366982 0.194824 0.000001
0.375948 0.197136 0.000001
0.384827 0.199570 0.000001
0.393628 0.202132 0.000001
0.402351 0.204825 0.000001
