luts/Rec2100_PQ/DJI_Osmo_DLogM_to_Rec2100_PQ_BT2408_Neutral.cube
TITLE "OpenOSV D-Log M to Rec.2100 PQ, BT.2408 Neutral - DJI Osmo 360 / Pocket 3"
LUT_3D_SIZE 65
DOMAIN_MIN 0.000000 0.000000 0.000000
DOMAIN_MAX 1.000000 1.000000 1.000000
0.000001 0.000001 0.000001
0.035716 0.007949 0.000001
0.053038 0.012770 0.000001
0.066532 0.016858 0.000001
0.078086 0.020567 0.000001
0.088450 0.024048 0.000001
0.098004 0.027379 0.000001
0.106979 0.030612 0.000001
0.115522 0.033778 0.000001
0.137823 0.042436 0.000001
0.156605 0.050148 0.000001
0.173099 0.057225 0.000001
0.188033 0.063867 0.000001
0.201835 0.070198 0.000001
0.214782 0.076302 0.000001
0.227059 0.082234 0.000001
0.238811 0.088039 0.000001
0.250130 0.093750 0.000001
0.261096 0.099391 0.000001
0.271772 0.104983 0.000001
0.282205 0.110542 0.000001
0.292436 0.116082 0.000001
0.302492 0.121615 0.000001
0.312407 0.127151 0.000001
0.322197 0.132698 0.000001
0.331888 0.138263 0.000001
0.341491 0.143855 0.000001
0.351019 0.149476 0.000001
0.360490 0.155135 0.000001
0.369909 0.160831 0.000001
0.379284 0.166572 0.000001
0.388629 0.172361 0.000001
0.397950 0.178203 0.000001
0.407248 0.184097 0.000001
0.416532 0.190047 0.000001
0.425805 0.196056 0.000001
0.435075 0.202125 0.000001
0.444341 0.208256 0.000001
0.453606 0.214452 0.000001
0.462875 0.220714 0.000001
0.472150 0.227043 0.000001
0.481432 0.233437 0.000001
0.490729 0.239904 0.000001
0.500028 0.246439 0.000001
0.509346 0.253045 0.000001
0.518674 0.259722 0.000001
0.528019 0.266470 0.000001
0.537369 0.273292 0.000001
0.546744 0.280185 0.000001
0.556128 0.287150 0.000001
0.565526 0.294188 0.000001
0.574945 0.301301 0.000001
0.584373 0.308484 0.000001
0.593815 0.315740 0.000001
0.603277 0.323068 0.000001
0.612743 0.330469 0.000001
0.622231 0.337940 0.000001
0.631725 0.345481 0.000001
0.641237 0.353093 0.000001
0.650758 0.360778 0.000001
0.660288 0.368526 0.000001
0.669829 0.376345 0.000001
0.679374 0.384233 0.000001
0.688924 0.392183 0.000001
0.698487 0.400203 0.000001
0.017556 0.043340 0.000001
0.043867 0.045351 0.000001
0.059440 0.047249 0.000001
0.071874 0.049094 0.000001
0.082680 0.050917 0.000001
0.092473 0.052742 0.000001
0.101576 0.054583 0.000001
0.110181 0.056451 0.000001
0.118413 0.058355 0.000001
0.140056 0.063903 0.000001
0.158420 0.069225 0.000001
0.174624 0.074380 0.000001
0.189341 0.079428 0.000001
0.202975 0.084405 0.000001
0.215784 0.089338 0.000001
0.227953 0.094246 0.000001
0.239608 0.099143 0.000001
0.250848 0.104042 0.000001
0.261747 0.108952 0.000001
0.272364 0.113883 0.000001
0.282746 0.118842 0.000001
0.292929 0.123832 0.000001
0.302945 0.128861 0.000001
0.312822 0.133932 0.000001
0.322580 0.139050 0.000001
0.332240 0.144219 0.000001
0.341815 0.149441 0.000001
0.351320 0.154719 0.000001
0.360766 0.160058 0.000001
0.370164 0.165457 0.000001
0.379521 0.170920 0.000001
0.388853 0.176450 0.000001
0.398149 0.182045 0.000001
0.407438 0.187711 0.000001
0.416710 0.193448 0.000001
0.425973 0.199255 0.000001
0.435232 0.205134 0.000001
0.444483 0.211088 0.000001
0.453740 0.217118 0.000001
0.462996 0.223222 0.000001
0.472267 0.229401 0.000001
0.481540 0.235659 0.000001
0.490829 0.241994 0.000001
0.500125 0.248406 0.000001
0.509433 0.254894 0.000001
0.518757 0.261462 0.000001
0.528089 0.268109 0.000001
0.537445 0.274831 0.000001
0.546809 0.281632 0.000001
0.556188 0.288513 0.000001
0.565585 0.295469 0.000001
0.574992 0.302504 0.000001
0.584423 0.309616 0.000001
0.593860 0.316803 0.000001
0.603317 0.324066 0.000001
0.612789 0.331408 0.000001
0.622270 0.338820 0.000001
0.631763 0.346310 0.000001
0.641270 0.353873 0.000001
0.650789 0.361507 0.000001
0.660316 0.369211 0.000001
0.669854 0.376992 0.000001
0.679397 0.384837 0.000001
0.688950 0.392751 0.000001
0.698507 0.400734 0.000001
0.027190 0.063533 0.000001
0.049611 0.064906 0.000001
0.064252 0.066273 0.000001
0.076116 0.067645 0.000001
0.086490 0.069033 0.000001
0.095931 0.070441 0.000001
0.104734 0.071878 0.000001
0.113077 0.073349 0.000001
0.121080 0.074858 0.000001
0.142205 0.079308 0.000001
0.160211 0.083641 0.000001
0.176152 0.087896 0.000001
0.190668 0.092116 0.000001
0.204139 0.096329 0.000001
0.216818 0.100553 0.000001
0.228878 0.104802 0.000001
0.240441 0.109086 0.000001
0.251600 0.113411 0.000001
0.262430 0.117785 0.000001
0.272986 0.122212 0.000001
0.283313 0.126697 0.000001
0.293449 0.131244 0.000001
0.303422 0.135855 0.000001
0.313261 0.140533 0.000001
0.322986 0.145281 0.000001
0.332613 0.150102 0.000001
0.342160 0.154995 0.000001
0.351638 0.159963 0.000001
0.361061 0.165009 0.000001
0.370436 0.170132 0.000001
0.379781 0.175333 0.000001
0.389088 0.180615 0.000001
0.398374 0.185977 0.000001
0.407643 0.191424 0.000001
0.416899 0.196950 0.000001
0.426147 0.202561 0.000001
0.435391 0.208254 0.000001
0.444637 0.214031 0.000001
0.453882 0.219893 0.000001
0.463130 0.225839 0.000001
0.472388 0.231870 0.000001
0.481656 0.237987 0.000001
0.490934 0.244188 0.000001
0.500220 0.250472 0.000001
0.509527 0.256843 0.000001
0.518841 0.263298 0.000001
0.528172 0.269837 0.000001
0.537516 0.276459 0.000001
0.546876 0.283166 0.000001
0.556252 0.289954 0.000001
0.565644 0.296829 0.000001
0.575052 0.303781 0.000001
0.584478 0.310817 0.000001
0.593914 0.317934 0.000001
0.603360 0.325131 0.000001
0.612827 0.332407 0.000001
0.622305 0.339761 0.000001
0.631802 0.347192 0.000001
0.641303 0.354701 0.000001
0.650816 0.362282 0.000001
0.660347 0.369941 0.000001
0.669879 0.377672 0.000001
0.679422 0.385480 0.000001
0.688973 0.393356 0.000001
0.698530 0.401302 0.000001
0.035030 0.079058 0.000001
0.054721 0.080121 0.000001
0.068530 0.081203 0.000001
0.079912 0.082309 0.000001
0.089940 0.083444 0.000001
0.099099 0.084608 0.000001
0.107663 0.085806 0.000001
0.115798 0.087042 0.000001
0.123612 0.088316 0.000001
0.144298 0.092108 0.000001
0.161989 0.095836 0.000001
0.177691 0.099524 0.000001
0.192017 0.103206 0.000001
0.205335 0.106905 0.000001
0.217887 0.110637 0.000001
0.229836 0.114412 0.000001
0.241306 0.118242 0.000001
0.252385 0.122133 0.000001
0.263146 0.126090 0.000001
0.273639 0.130117 0.000001
0.283912 0.134218 0.000001
0.293998 0.138396 0.000001
0.303928 0.142655 0.000001
0.313726 0.146997 0.000001
0.323416 0.151422 0.000001
0.333008 0.155933 0.000001
0.342527 0.160531 0.000001
0.351979 0.165216 0.000001
0.361376 0.169992 0.000001
0.370730 0.174858 0.000001
0.380043 0.179814 0.000001
0.389338 0.184861 0.000001
0.398608 0.190000 0.000001
0.407860 0.195232 0.000001
0.417103 0.200556 0.000001
0.426333 0.205972 0.000001
0.435567 0.211483 0.000001
0.444797 0.217085 0.000001
0.454035 0.222781 0.000001
0.463273 0.228569 0.000001
0.472524 0.234450 0.000001
0.481779 0.240423 0.000001
0.491048 0.246488 0.000001
0.500332 0.252645 0.000001
0.509626 0.258892 0.000001
0.518932 0.265232 0.000001
0.528260 0.271661 0.000001
0.537595 0.278181 0.000001
0.546951 0.284788 0.000001
0.556320 0.291482 0.000001
0.565711 0.298267 0.000001
0.575111 0.305136 0.000001
0.584530 0.312095 0.000001
0.593964 0.319137 0.000001
0.603411 0.326261 0.000001
0.612873 0.333470 0.000001
0.622346 0.340761 0.000001
0.631838 0.348134 0.000001
0.641343 0.355585 0.000001
0.650850 0.363118 0.000001
0.660375 0.370723 0.000001
0.669908 0.378408 0.000001
0.679451 0.386168 0.000001
0.688995 0.394004 0.000001
0.698553 0.401913 0.000001
0.041943 0.092241 0.000001
0.059531 0.093109 0.000001
0.072563 0.094007 0.000001
0.083493 0.094936 0.000001
0.093202 0.095896 0.000001
0.102110 0.096891 0.000001
0.110462 0.097921 0.000001
0.118411 0.098990 0.000001
0.126063 0.100097 0.000001
0.146360 0.103419 0.000001
0.163763 0.106712 0.000001
0.179244 0.109990 0.000001
0.193391 0.113276 0.000001
0.206559 0.116593 0.000001
0.218987 0.119952 0.000001
0.230829 0.123366 0.000001
0.242207 0.126842 0.000001
0.253205 0.130386 0.000001
0.263895 0.134005 0.000001
0.274326 0.137703 0.000001
0.284540 0.141485 0.000001
0.294575 0.145351 0.000001
0.304462 0.149307 0.000001
0.314220 0.153354 0.000001
0.323868 0.157494 0.000001
0.333431 0.161728 0.000001
0.342915 0.166059 0.000001
0.352339 0.170487 0.000001
0.361713 0.175013 0.000001
0.371041 0.179638 0.000001
0.380338 0.184363 0.000001
0.389607 0.189188 0.000001
0.398858 0.194113 0.000001
0.408095 0.199139 0.000001
0.417313 0.204266 0.000001
0.426536 0.209493 0.000001
0.435753 0.214823 0.000001
0.444970 0.220252 0.000001
0.454194 0.225782 0.000001
0.463427 0.231411 0.000001
0.472661 0.237141 0.000001
0.481912 0.242971 0.000001
0.491172 0.248897 0.000001
0.500443 0.254924 0.000001
0.509733 0.261047 0.000001
0.519035 0.267267 0.000001
0.528345 0.273583 0.000001
0.537679 0.279994 0.000001
0.547034 0.286499 0.000001
0.556399 0.293098 0.000001
0.565778 0.299791 0.000001
0.575177 0.306574 0.000001
0.584591 0.313448 0.000001
0.594023 0.320411 0.000001
0.603462 0.327462 0.000001
0.612919 0.334601 0.000001
0.622393 0.341826 0.000001
0.631880 0.349135 0.000001
0.641379 0.356526 0.000001
0.650887 0.364000 0.000001
0.660409 0.371558 0.000001
0.669939 0.379190 0.000001
0.679477 0.386903 0.000001
0.689028 0.394698 0.000001
0.698579 0.402559 0.000001
0.048286 0.103983 0.000001
0.064172 0.104719 0.000001
0.076474 0.105486 0.000001
0.086967 0.106284 0.000001
0.096366 0.107116 0.000001
0.105035 0.107982 0.000001
0.113190 0.108884 0.000001
0.120967 0.109825 0.000001
0.128467 0.110804 0.000001
0.148405 0.113761 0.000001
0.165542 0.116714 0.000001
0.180812 0.119669 0.000001
0.194789 0.122645 0.000001
0.207817 0.125659 0.000001
0.220119 0.128721 0.000001
0.231858 0.131842 0.000001
0.243143 0.135029 0.000001
0.254061 0.138288 0.000001
0.264678 0.141626 0.000001
0.275045 0.145046 0.000001
0.285203 0.148553 0.000001
0.295187 0.152151 0.000001
0.305026 0.155842 0.000001
0.314740 0.159630 0.000001
0.324352 0.163516 0.000001
0.333878 0.167501 0.000001
0.343329 0.171589 0.000001
0.352724 0.175779 0.000001
0.362067 0.180075 0.000001
0.371371 0.184475 0.000001
0.380647 0.188982 0.000001
0.389896 0.193595 0.000001
0.399123 0.198315 0.000001
0.408339 0.203144 0.000001
0.417547 0.208079 0.000001
0.426751 0.213123 0.000001
0.435952 0.218274 0.000001
0.445158 0.223532 0.000001
0.454369 0.228897 0.000001
0.463583 0.234369 0.000001
0.472816 0.239947 0.000001
0.482051 0.245631 0.000001
0.491302 0.251419 0.000001
0.500569 0.257312 0.000001
0.509846 0.263309 0.000001
0.519136 0.269406 0.000001
0.528447 0.275607 0.000001
0.537773 0.281907 0.000001
0.547119 0.288308 0.000001
0.556478 0.294807 0.000001
0.565853 0.301403 0.000001
0.575248 0.308097 0.000001
0.584655 0.314883 0.000001
0.594082 0.321766 0.000001
0.603522 0.328740 0.000001
0.612977 0.335803 0.000001
0.622446 0.342958 0.000001
0.631931 0.350201 0.000001
0.641422 0.357531 0.000001
0.650927 0.364944 0.000001
0.660447 0.372442 0.000001
0.669974 0.380026 0.000001
0.679509 0.387692 0.000001
0.689057 0.395432 0.000001
0.698606 0.403253 0.000001
0.054246 0.114754 0.000001
0.068709 0.115389 0.000001
0.080323 0.116057 0.000001
0.090391 0.116756 0.000001
0.099487 0.117485 0.000001
0.107922 0.118252 0.000001
0.115885 0.119052 0.000001
0.123497 0.119889 0.000001
0.130850 0.120764 0.000001
0.150449 0.123424 0.000001
0.167337 0.126099 0.000001
0.182407 0.128789 0.000001
0.196217 0.131509 0.000001
0.209106 0.134271 0.000001
0.221290 0.137086 0.000001
0.232924 0.139962 0.000001
0.244118 0.142905 0.000001
0.254954 0.145924 0.000001
0.265498 0.149020 0.000001
0.275798 0.152203 0.000001
0.285899 0.155471 0.000001
0.295829 0.158833 0.000001
0.305619 0.162291 0.000001
0.315290 0.165847 0.000001
0.324861 0.169503 0.000001
0.334349 0.173263 0.000001
0.343768 0.177128 0.000001
0.353130 0.181100 0.000001
0.362446 0.185180 0.000001
0.371723 0.189371 0.000001
0.380970 0.193672 0.000001
0.390198 0.198083 0.000001
0.399410 0.202609 0.000001
0.408603 0.207246 0.000001
0.417793 0.211997 0.000001
0.426982 0.216860 0.000001
0.436167 0.221836 0.000001
0.445359 0.226927 0.000001
0.454555 0.232129 0.000001
0.463757 0.237444 0.000001
0.472975 0.242869 0.000001
0.482202 0.248407 0.000001
0.491442 0.254055 0.000001
0.500695 0.259815 0.000001
0.509967 0.265681 0.000001
0.519249 0.271654 0.000001
0.528552 0.277736 0.000001
0.537875 0.283924 0.000001
0.547207 0.290216 0.000001
0.556565 0.296611 0.000001
0.565931 0.303108 0.000001
0.575324 0.309706 0.000001
0.584727 0.316405 0.000001
0.594144 0.323199 0.000001
0.603582 0.330093 0.000001
0.613035 0.337079 0.000001
0.622499 0.344162 0.000001
0.631976 0.351335 0.000001
0.641464 0.358600 0.000001
0.650973 0.365951 0.000001
0.660484 0.373391 0.000001
0.670012 0.380917 0.000001
0.679541 0.388528 0.000001
0.689090 0.396217 0.000001
0.698636 0.403991 0.000001
0.059934 0.124824 0.000001
0.073182 0.125382 0.000001
0.084152 0.125971 0.000001
0.093804 0.126589 0.000001
0.102600 0.127239 0.000001
0.110802 0.127921 0.000001
0.118574 0.128639 0.000001
0.126026 0.129390 0.000001
0.133235 0.130180 0.000001
0.152505 0.132589 0.000001
0.169149 0.135029 0.000001
0.184028 0.137493 0.000001
0.197679 0.139995 0.000001
0.210431 0.142543 0.000001
0.222497 0.145146 0.000001
0.234026 0.147811 0.000001
0.245129 0.150544 0.000001
0.255885 0.153353 0.000001
0.266355 0.156240 0.000001
0.276590 0.159213 0.000001
0.286628 0.162272 0.000001
0.296504 0.165426 0.000001
0.306245 0.168674 0.000001
0.315868 0.172020 0.000001
0.325399 0.175472 0.000001
0.334849 0.179025 0.000001
0.344233 0.182685 0.000001
0.353563 0.186454 0.000001
0.362850 0.190335 0.000001
0.372096 0.194328 0.000001
0.381323 0.198434 0.000001
0.390523 0.202656 0.000001
0.399706 0.206994 0.000001
0.408887 0.211447 0.000001
0.418055 0.216017 0.000001
0.427223 0.220705 0.000001
0.436395 0.225512 0.000001
0.445571 0.230435 0.000001
0.454753 0.235475 0.000001
0.463944 0.240635 0.000001
0.473148 0.245910 0.000001
0.482360 0.251301 0.000001
0.491591 0.256808 0.000001
0.500839 0.262430 0.000001
0.510098 0.268164 0.000001
0.519374 0.274012 0.000001
0.528670 0.279974 0.000001
0.537980 0.286044 0.000001
0.547309 0.292225 0.000001
0.556655 0.298513 0.000001
0.566022 0.304908 0.000001
0.575403 0.311409 0.000001
0.584799 0.318014 0.000001
0.594214 0.324722 0.000001
0.603645 0.331529 0.000001
0.613096 0.338436 0.000001
0.622555 0.345442 0.000001
0.632026 0.352542 0.000001
0.641516 0.359735 0.000001
0.651019 0.367026 0.000001
0.660531 0.374404 0.000001
0.670047 0.381866 0.000001
0.679583 0.389418 0.000001
0.689122 0.397058 0.000001
0.698665 0.404783 0.000001
0.065426 0.134369 0.000001
0.077618 0.134866 0.000001
0.087982 0.135389 0.000001
0.097229 0.135943 0.000001
0.105727 0.136526 0.000001
0.113697 0.137140 0.000001
0.121278 0.137786 0.000001
0.128568 0.138466 0.000001
0.135636 0.139183 0.000001
0.154581 0.141379 0.000001
0.170989 0.143613 0.000001
0.185680 0.145881 0.000001
0.199174 0.148193 0.000001
0.211792 0.150554 0.000001
0.223742 0.152972 0.000001
0.235169 0.155453 0.000001
0.246179 0.158003 0.000001
0.256852 0.160626 0.000001
0.267248 0.163329 0.000001
0.277417 0.166113 0.000001
0.287395 0.168987 0.000001
0.297216 0.171952 0.000001
0.306904 0.175011 0.000001
0.316482 0.178169 0.000001
0.325969 0.181430 0.000001
0.335380 0.184796 0.000001
0.344725 0.188266 0.000001
0.354021 0.191848 0.000001
0.363275 0.195542 0.000001
0.372500 0.199348 0.000001
0.381693 0.203271 0.000001
0.390867 0.207311 0.000001
0.400033 0.211469 0.000001
0.409186 0.215746 0.000001
0.418335 0.220143 0.000001
0.427487 0.224660 0.000001
0.436642 0.229299 0.000001
0.445797 0.234061 0.000001
0.454967 0.238943 0.000001
0.464138 0.243945 0.000001
0.473330 0.249068 0.000001
0.482532 0.254314 0.000001
0.491752 0.259678 0.000001
0.500987 0.265162 0.000001
0.510235 0.270766 0.000001
0.519505 0.276485 0.000001
0.528790 0.282323 0.000001
0.538092 0.288273 0.000001
0.547415 0.294340 0.000001
0.556755 0.300517 0.000001
0.566110 0.306809 0.000001
0.575487 0.313209 0.000001
0.584882 0.319715 0.000001
0.594287 0.326332 0.000001
0.603716 0.333051 0.000001
0.613157 0.339874 0.000001
0.622614 0.346800 0.000001
0.632086 0.353822 0.000001
0.641570 0.360945 0.000001
0.651065 0.368163 0.000001
0.660572 0.375472 0.000001
0.670091 0.382877 0.000001
0.679621 0.390373 0.000001
0.689158 0.397958 0.000001
0.698702 0.405627 0.000001
0.080094 0.159128 0.000001
0.089945 0.159499 0.000001
0.098800 0.159894 0.000001
0.106973 0.160311 0.000001
0.114656 0.160757 0.000001
0.121973 0.161226 0.000001
0.129016 0.161726 0.000001
0.135848 0.162252 0.000001
0.142517 0.162811 0.000001
0.160553 0.164539 0.000001
0.176306 0.166323 0.000001
0.190482 0.168154 0.000001
0.203552 0.170037 0.000001
0.215803 0.171974 0.000001
0.227432 0.173970 0.000001
0.238575 0.176031 0.000001
0.249328 0.178160 0.000001
0.259769 0.180359 0.000001
0.269954 0.182635 0.000001
0.279931 0.184990 0.000001
0.289730 0.187427 0.000001
0.299389 0.189952 0.000001
0.308928 0.192569 0.000001
0.318368 0.195279 0.000001
0.327726 0.198086 0.000001
0.337017 0.200996 0.000001
0.346256 0.204008 0.000001
0.355448 0.207128 0.000001
0.364606 0.210359 0.000001
0.373738 0.213702 0.000001
0.382852 0.217161 0.000001
0.391954 0.220739 0.000001
0.401045 0.224436 0.000001
0.410129 0.228253 0.000001
0.419219 0.232198 0.000001
0.428306 0.236265 0.000001
0.437410 0.240459 0.000001
0.446517 0.244781 0.000001
0.455637 0.249230 0.000001
0.464768 0.253811 0.000001
0.473918 0.258520 0.000001
0.483081 0.263358 0.000001
0.492263 0.268326 0.000001
0.501462 0.273422 0.000001
0.510683 0.278648 0.000001
0.519921 0.284001 0.000001
0.529179 0.289483 0.000001
0.538451 0.295090 0.000001
0.547755 0.300823 0.000001
0.557069 0.306680 0.000001
0.566405 0.312661 0.000001
0.575762 0.318763 0.000001
0.585137 0.324985 0.000001
0.594529 0.331324 0.000001
0.603936 0.337780 0.000001
0.613363 0.344349 0.000001
0.622811 0.351033 0.000001
0.632265 0.357824 0.000001
0.641737 0.364725 0.000001
0.651222 0.371732 0.000001
0.660718 0.378844 0.000001
0.670227 0.386056 0.000001
0.679750 0.393369 0.000001
0.689278 0.400780 0.000001
0.698814 0.408285 0.000001
0.092791 0.179819 0.000001
0.101057 0.180115 0.000001
0.108761 0.180430 0.000001
0.116050 0.180766 0.000001
0.123026 0.181124 0.000001
0.129763 0.181504 0.000001
0.136314 0.181907 0.000001
0.142723 0.182336 0.000001
0.149022 0.182790 0.000001
0.166215 0.184213 0.000001
0.181367 0.185692 0.000001
0.195075 0.187222 0.000001
0.207760 0.188808 0.000001
0.219683 0.190449 0.000001
0.231026 0.192150 0.000001
0.241911 0.193913 0.000001
0.252433 0.195743 0.000001
0.262662 0.197641 0.000001
0.272655 0.199611 0.000001
0.282451 0.201657 0.000001
0.292087 0.203780 0.000001
0.301593 0.205987 0.000001
0.310989 0.208279 0.000001
0.320295 0.210660 0.000001
0.329530 0.213132 0.000001
0.338705 0.215701 0.000001
0.347834 0.218370 0.000001
0.356925 0.221139 0.000001
0.365990 0.224017 0.000001
0.375033 0.227002 0.000001
0.384065 0.230099 0.000001
0.393087 0.233309 0.000001
0.402102 0.236640 0.000001
0.411124 0.240089 0.000001
0.420150 0.243660 0.000001
0.429178 0.247359 0.000001
0.438223 0.251183 0.000001
0.447279 0.255136 0.000001
0.456349 0.259217 0.000001
0.465435 0.263433 0.000001
0.474544 0.267780 0.000001
0.483661 0.272261 0.000001
0.492807 0.276875 0.000001
0.501971 0.281624 0.000001
0.511158 0.286510 0.000001
0.520365 0.291530 0.000001
0.529593 0.296683 0.000001
0.538842 0.301972 0.000001
0.548115 0.307395 0.000001
0.557404 0.312947 0.000001
0.566721 0.318633 0.000001
0.576059 0.324451 0.000001
0.585411 0.330394 0.000001
0.594788 0.336465 0.000001
0.604179 0.342662 0.000001
0.613586 0.348983 0.000001
0.623014 0.355425 0.000001
0.632460 0.361991 0.000001
0.641916 0.368666 0.000001
0.651392 0.375465 0.000001
0.660877 0.382373 0.000001
0.670373 0.389390 0.000001
0.679881 0.396517 0.000001
0.689402 0.403751 0.000001
0.698932 0.411085 0.000001
0.104182 0.197883 0.000001
0.111293 0.198129 0.000001
0.118087 0.198390 0.000001
0.124639 0.198669 0.000001
0.131003 0.198966 0.000001
0.137218 0.199284 0.000001
0.143321 0.199621 0.000001
0.149337 0.199981 0.000001
0.155288 0.200364 0.000001
0.171680 0.201565 0.000001
0.186264 0.202822 0.000001
0.199531 0.204133 0.000001
0.211856 0.205497 0.000001
0.223473 0.206916 0.000001
0.234547 0.208394 0.000001
0.245196 0.209932 0.000001
0.255503 0.211533 0.000001
0.265537 0.213200 0.000001
0.275347 0.214936 0.000001
0.284977 0.216743 0.000001
0.294457 0.218626 0.000001
0.303816 0.220585 0.000001
0.313074 0.222625 0.000001
0.322256 0.224750 0.000001
0.331370 0.226962 0.000001
0.340433 0.229263 0.000001
0.349457 0.231660 0.000001
0.358448 0.234151 0.000001
0.367423 0.236745 0.000001
0.376376 0.239443 0.000001
0.385322 0.242248 0.000001
0.394268 0.245163 0.000001
0.403211 0.248191 0.000001
0.412161 0.251336 0.000001
0.421123 0.254600 0.000001
0.430090 0.257984 0.000001
0.439077 0.261497 0.000001
0.448080 0.265134 0.000001
0.457099 0.268901 0.000001
0.466138 0.272799 0.000001
0.475197 0.276831 0.000001
0.484281 0.280996 0.000001
0.493384 0.285298 0.000001
0.502511 0.289737 0.000001
0.511659 0.294313 0.000001
0.520834 0.299028 0.000001
0.530037 0.303883 0.000001
0.539255 0.308874 0.000001
0.548502 0.314006 0.000001
0.557768 0.319275 0.000001
0.567060 0.324681 0.000001
0.576373 0.330227 0.000001
0.585702 0.335906 0.000001
0.595061 0.341720 0.000001
0.604431 0.347667 0.000001
0.613824 0.353746 0.000001
0.623238 0.359953 0.000001
0.632666 0.366288 0.000001
0.642113 0.372747 0.000001
0.651570 0.379333 0.000001
0.661046 0.386039 0.000001
0.670531 0.392861 0.000001
0.680032 0.399803 0.000001
0.689539 0.406855 0.000001
0.699058 0.414024 0.000001
0.114676 0.214159 0.000001
0.120899 0.214368 0.000001
0.126954 0.214590 0.000001
0.132881 0.214825 0.000001
0.138707 0.215081 0.000001
0.144455 0.215351 0.000001
0.150145 0.215640 0.000001
0.155795 0.215947 0.000001
0.161415 0.216277 0.000001
0.177042 0.217310 0.000001
0.191071 0.218399 0.000001
0.203915 0.219538 0.000001
0.215891 0.220728 0.000001
0.227217 0.221972 0.000001
0.238035 0.223272 0.000001
0.248457 0.224633 0.000001
0.258560 0.226051 0.000001
0.268407 0.227534 0.000001
0.278044 0.229080 0.000001
0.287513 0.230697 0.000001
0.296846 0.232382 0.000001
0.306064 0.234142 0.000001
0.315194 0.235979 0.000001
0.324250 0.237895 0.000001
0.333248 0.239890 0.000001
0.342202 0.241976 0.000001
0.351121 0.244148 0.000001
0.360016 0.246411 0.000001
0.368894 0.248773 0.000001
0.377762 0.251231 0.000001
0.386631 0.253791 0.000001
0.395494 0.256457 0.000001
0.404366 0.259232 0.000001
0.413246 0.262120 0.000001
0.422143 0.265121 0.000001
0.431045 0.268240 0.000001
0.439974 0.271480 0.000001
0.448923 0.274847 0.000001
0.457887 0.278338 0.000001
0.466879 0.281958 0.000001
0.475890 0.285710 0.000001
0.484929 0.289596 0.000001
0.493993 0.293619 0.000001
0.503081 0.297775 0.000001
0.512198 0.302071 0.000001
0.521337 0.306508 0.000001
0.530502 0.311087 0.000001
0.539692 0.315805 0.000001
0.548910 0.320665 0.000001
0.558151 0.325667 0.000001
0.567414 0.330810 0.000001
0.576706 0.336096 0.000001
0.586018 0.341522 0.000001
0.595354 0.347088 0.000001
0.604705 0.352791 0.000001
0.614083 0.358636 0.000001
0.623477 0.364614 0.000001
0.632887 0.370723 0.000001
0.642323 0.376971 0.000001
0.651764 0.383346 0.000001
0.661224 0.389848 0.000001
0.670699 0.396477 0.000001
0.680189 0.403232 0.000001
0.689685 0.410103 0.000001
0.699196 0.417099 0.000001
0.124522 0.229138 0.000001
0.130035 0.229318 0.000001
0.135476 0.229510 0.000001
0.140863 0.229716 0.000001
0.146215 0.229936 0.000001
0.151540 0.230171 0.000001
0.156850 0.230421 0.000001
0.162157 0.230689 0.000001
0.167467 0.230975 0.000001
0.182354 0.231878 0.000001
0.195844 0.232831 0.000001
0.208270 0.233834 0.000001
0.219908 0.234886 0.000001
0.230946 0.235988 0.000001
0.241517 0.237143 0.000001
0.251717 0.238354 0.000001
0.261622 0.239624 0.000001
0.271288 0.240952 0.000001
0.280760 0.242344 0.000001
0.290074 0.243798 0.000001
0.299262 0.245322 0.000001
0.308347 0.246913 0.000001
0.317349 0.248578 0.000001
0.326283 0.250319 0.000001
0.335167 0.252136 0.000001
0.344013 0.254035 0.000001
0.352833 0.256019 0.000001
0.361629 0.258090 0.000001
0.370418 0.260252 0.000001
0.379201 0.262505 0.000001
0.387976 0.264860 0.000001
0.396771 0.267312 0.000001
0.405565 0.269868 0.000001
0.414378 0.272533 0.000001
0.423205 0.275307 0.000001
0.432050 0.278195 0.000001
0.440915 0.281200 0.000001
