luts/Rec2100_PQ/DJI_Osmo_DLogM_to_Rec2100_PQ_ACES2_Detailed.cube
TITLE "OpenOSV D-Log M to Rec.2100 PQ, ACES 2 Detailed (indoor) - DJI Osmo 360 / Pocket 3"
LUT_3D_SIZE 9
DOMAIN_MIN 0.000000 0.000000 0.000000
DOMAIN_MAX 1.000000 1.000000 1.000000
0.000001 0.000001 0.000001
0.050928 0.001773 0.000001
0.190578 0.016913 0.000001
0.286096 0.043586 0.000001
0.364548 0.082150 0.000001
0.435366 0.131673 0.000001
0.502142 0.189195 0.000001
0.565663 0.250918 0.000001
0.625050 0.314018 0.000001
0.008676 0.061106 0.000001
0.059447 0.063384 0.000001
0.193494 0.074985 0.000001
0.287358 0.093536 0.000001
0.365167 0.121299 0.000001
0.435689 0.159455 0.000001
0.502311 0.207136 0.000001
0.565757 0.261694 0.000001
0.625097 0.320227 0.000001
0.059988 0.211193 0.000001
0.097853 0.211886 0.000001
0.207978 0.215525 0.000001
0.293881 0.221754 0.000001
0.368414 0.232094 0.000001
0.437395 0.248492 0.000001
0.503227 0.272874 0.000001
0.566239 0.306332 0.000001
0.625348 0.348531 0.000001
0.122132 0.308044 0.000001
0.146884 0.308335 0.000001
0.230046 0.309883 0.000001
0.304653 0.312597 0.000001
0.373987 0.317281 0.000001
0.440378 0.325172 0.000001
0.504837 0.337986 0.000001
0.567102 0.357684 0.000001
0.625792 0.385867 0.000001
0.188801 0.386693 0.000001
0.203669 0.386835 0.000001
0.261160 0.387592 0.000001
0.321587 0.388925 0.000001
0.383275 0.391280 0.000001
0.445507 0.395348 0.000001
0.507659 0.402261 0.000001
0.568621 0.413603 0.000001
0.626582 0.431299 0.000001
0.256122 0.457511 0.000001
0.264590 0.457587 0.000001
0.301385 0.457976 0.000001
0.346526 0.458679 0.000001
0.398113 0.459915 0.000001
0.454100 0.462090 0.000001
0.512509 0.465866 0.000001
0.571278 0.472284 0.000001
0.627976 0.482871 0.000001
0.322303 0.523997 0.000001
0.327025 0.524039 0.000001
0.349323 0.524243 0.000001
0.380443 0.524618 0.000001
0.420420 0.525277 0.000001
0.467908 0.526446 0.000001
0.520639 0.528500 0.000001
0.575839 0.532062 0.000001
0.630403 0.538130 0.000001
0.387225 0.586689 0.000001
0.389849 0.586708 0.000001
0.402923 0.586819 0.000001
0.422950 0.587017 0.000001
0.451473 0.587358 0.000001
0.488825 0.587978 0.000001
0.533716 0.589067 0.000001
0.583475 0.590985 0.000001
0.634565 0.594307 0.000001
0.451240 0.644439 0.000001
0.452701 0.644448 0.000001
0.460197 0.644506 0.000001
0.472399 0.644603 0.000001
0.491211 0.644780 0.000001
0.518155 0.645097 0.000001
0.553511 0.645652 0.000001
0.595703 0.646632 0.000001
0.641497 0.648358 0.000001
0.001625 0.000001 0.067039
0.053213 0.000250 0.066545
0.191349 0.014593 0.063870
0.286429 0.041544 0.058961
0.364711 0.080596 0.049756
0.435453 0.130613 0.031789
0.502187 0.188534 0.000001
0.565687 0.250534 0.000001
0.625065 0.313801 0.000001
0.011414 0.059294 0.062113
0.061601 0.061601 0.061601
0.194248 0.073346 0.058831
0.287686 0.092108 0.053742
0.365330 0.120146 0.044194
0.435772 0.158608 0.025579
0.502359 0.206571 0.000001
0.565775 0.261344 0.000001
0.625112 0.320022 0.000001
0.062135 0.210648 0.032496
0.099480 0.211343 0.031875
0.208643 0.214999 0.028514
0.294191 0.221255 0.022366
0.368568 0.231638 0.011092
0.437478 0.248099 0.000001
0.503272 0.272558 0.000001
0.566263 0.306099 0.000001
0.625360 0.348373 0.000001
0.123483 0.307815 0.000001
0.147995 0.308107 0.000001
0.230595 0.309659 0.000001
0.304934 0.312376 0.000001
0.374133 0.317068 0.000001
0.440459 0.324977 0.000001
0.504885 0.337814 0.000001
0.567127 0.357538 0.000001
0.625807 0.385751 0.000001
0.189586 0.386579 0.000001
0.204360 0.386721 0.000001
0.261576 0.387480 0.000001
0.321829 0.388822 0.000001
0.383410 0.391172 0.000001
0.445585 0.395242 0.000001
0.507700 0.402167 0.000001
0.568645 0.413511 0.000001
0.626597 0.431222 0.000001
0.256557 0.457451 0.000001
0.264993 0.457529 0.000001
0.301674 0.457920 0.000001
0.346716 0.458620 0.000001
0.398231 0.459858 0.000001
0.454171 0.462033 0.000001
0.512553 0.465810 0.000001
0.571300 0.472235 0.000001
0.627985 0.482825 0.000001
0.322543 0.523970 0.000001
0.327256 0.524007 0.000001
0.349511 0.524213 0.000001
0.380587 0.524591 0.000001
0.420518 0.525247 0.000001
0.467970 0.526416 0.000001
0.520681 0.528470 0.000001
0.575860 0.532037 0.000001
0.630415 0.538102 0.000001
0.387358 0.586670 0.000001
0.389976 0.586694 0.000001
0.403034 0.586803 0.000001
0.423047 0.586997 0.000001
0.451550 0.587347 0.000001
0.488878 0.587962 0.000001
0.533751 0.589053 0.000001
0.583494 0.590971 0.000001
0.634574 0.594293 0.000001
0.451312 0.644433 0.000001
0.452769 0.644439 0.000001
0.460258 0.644497 0.000001
0.472457 0.644597 0.000001
0.491260 0.644771 0.000001
0.518197 0.645088 0.000001
0.553535 0.645643 0.000001
0.595717 0.646626 0.000001
0.641503 0.648349 0.000001
0.015682 0.000001 0.222286
0.064864 0.000001 0.222145
0.195401 0.002662 0.221386
0.288194 0.030159 0.220015
0.365577 0.071957 0.217528
0.435902 0.124778 0.212945
0.502428 0.184939 0.204281
0.565815 0.248453 0.186996
0.625130 0.312633 0.148033
0.026078 0.049188 0.220892
0.072606 0.051660 0.220749
0.198201 0.064223 0.219979
0.289433 0.084195 0.218592
0.366187 0.113798 0.216074
0.436223 0.153972 0.211430
0.502597 0.203495 0.202648
0.565904 0.259457 0.185103
0.625174 0.318918 0.145407
0.073099 0.207681 0.213119
0.107866 0.208394 0.212966
0.212143 0.212143 0.212143
0.295837 0.218553 0.210656
0.369406 0.229173 0.207956
0.437921 0.245972 0.202969
0.503508 0.270852 0.193494
0.566392 0.304845 0.174409
0.625428 0.347523 0.130326
0.130478 0.306579 0.197778
0.153769 0.306875 0.197603
0.233491 0.308444 0.196662
0.306426 0.311193 0.194963
0.374930 0.315934 0.191865
0.440892 0.323922 0.186124
0.505119 0.336875 0.175121
0.567253 0.356755 0.152552
0.625872 0.385157 0.097899
0.193697 0.385984 0.164116
0.207989 0.386129 0.163883
0.263782 0.386887 0.162633
0.323108 0.388236 0.160366
0.384142 0.390599 0.156210
0.445996 0.394696 0.148417
0.507929 0.401644 0.133149
0.568772 0.413047 0.100233
0.626662 0.430824 0.009741
0.258863 0.457145 0.063077
0.267131 0.457218 0.062569
0.303212 0.457614 0.059817
0.347736 0.458311 0.054765
0.398873 0.459555 0.045284
0.454553 0.461735 0.026794
0.512769 0.465521 0.000001
0.571422 0.471966 0.000001
0.628050 0.482578 0.000001
0.323816 0.523806 0.000001
0.328475 0.523843 0.000001
0.350505 0.524054 0.000001
0.381336 0.524424 0.000001
0.421035 0.525083 0.000001
0.468304 0.526254 0.000001
0.520878 0.528312 0.000001
0.575975 0.531883 0.000001
0.630478 0.537959 0.000001
0.388057 0.586589 0.000001
0.390664 0.586606 0.000001
0.403642 0.586717 0.000001
0.423553 0.586908 0.000001
0.451936 0.587264 0.000001
0.489149 0.587878 0.000001
0.533925 0.588969 0.000001
0.583602 0.590887 0.000001
0.634637 0.594214 0.000001
0.451698 0.644390 0.000001
0.453152 0.644399 0.000001
0.460621 0.644457 0.000001
0.472778 0.644554 0.000001
0.491528 0.644734 0.000001
0.518403 0.645039 0.000001
0.553684 0.645600 0.000001
0.595810 0.646580 0.000001
0.641561 0.648309 0.000001
0.040863 0.000001 0.319668
0.083531 0.000001 0.319610
0.202307 0.000001 0.319295
0.291278 0.008324 0.318729
0.367110 0.055039 0.317711
0.436706 0.113634 0.315870
0.502857 0.178228 0.312501
0.566043 0.244635 0.306218
0.625248 0.310512 0.294014
0.049961 0.029282 0.319090
0.090305 0.032078 0.319030
0.204949 0.046304 0.318712
0.292482 0.068789 0.318145
0.367710 0.101614 0.317122
0.437019 0.145227 0.315269
0.503026 0.197788 0.311883
0.566137 0.256003 0.305563
0.625292 0.316917 0.293283
0.090738 0.202180 0.315939
0.121616 0.202930 0.315876
0.218143 0.206857 0.315550
0.298717 0.213558 0.314966
0.370885 0.224631 0.313913
0.438710 0.242067 0.312004
0.503936 0.267738 0.308512
0.566617 0.302566 0.301989
0.625544 0.345987 0.289278
0.142082 0.304337 0.310069
0.163451 0.304639 0.310004
0.238487 0.306240 0.309660
0.309043 0.309043 0.309043
0.376338 0.313879 0.307931
0.441657 0.322012 0.305913
0.505536 0.335180 0.302223
0.567473 0.355347 0.295301
0.625987 0.384063 0.281740
0.200701 0.384910 0.298739
0.214205 0.385053 0.298669
0.267614 0.385823 0.298286
0.325360 0.387179 0.297600
0.385436 0.389570 0.296364
0.446725 0.393701 0.294123
0.508338 0.400715 0.290002
0.568993 0.412208 0.282238
0.626778 0.430117 0.266850
0.262867 0.456589 0.275048
0.270853 0.456661 0.274960
0.305906 0.457060 0.274485
0.349536 0.457766 0.273634
0.400001 0.459014 0.272096
0.455224 0.461202 0.269296
0.513155 0.465011 0.264112
0.571635 0.471485 0.254209
0.628166 0.482141 0.234003
0.326051 0.523513 0.213735
0.330619 0.523550 0.213581
0.352260 0.523761 0.212763
0.382662 0.524134 0.211284
0.421957 0.524797 0.208598
0.468895 0.525972 0.203640
0.521238 0.528029 0.194222
0.576182 0.531614 0.175263
0.630588 0.537705 0.131549
0.389305 0.586434 0.000001
0.391877 0.586456 0.000001
0.404722 0.586561 0.000001
0.424452 0.586758 0.000001
0.452630 0.587105 0.000001
0.489637 0.587725 0.000001
0.534239 0.588822 0.000001
0.583790 0.590742 0.000001
0.634739 0.594074 0.000001
0.452396 0.644308 0.000001
0.453839 0.644323 0.000001
0.461257 0.644378 0.000001
0.473345 0.644478 0.000001
0.492001 0.644652 0.000001
0.518772 0.644966 0.000001
0.553941 0.645524 0.000001
0.595977 0.646504 0.000001
0.641661 0.648235 0.000001
0.077818 0.000001 0.398393
0.111513 0.000001 0.398367
0.213702 0.000001 0.398212
0.296579 0.000001 0.397937
0.369787 0.019198 0.397447
0.438123 0.090981 0.396566
0.503616 0.165216 0.394972
0.566448 0.237479 0.392073
0.625455 0.306620 0.386688
0.084879 0.000001 0.398111
0.117013 0.000001 0.398089
0.216098 0.008758 0.397933
0.297727 0.036267 0.397659
0.370370 0.076586 0.397164
0.438437 0.127892 0.396283
0.503785 0.186851 0.394687
0.566542 0.249557 0.391775
0.625502 0.313250 0.386379
0.117366 0.191663 0.396600
0.142984 0.192481 0.396570
0.228133 0.196772 0.396415
0.303678 0.204063 0.396136
0.373473 0.216042 0.395637
0.440102 0.234741 0.394739
0.504689 0.261954 0.393119
0.567022 0.298377 0.390172
0.625754 0.343188 0.384692
0.160429 0.300216 0.393841
0.179018 0.300529 0.393817
0.246895 0.302190 0.393650
0.313567 0.305099 0.393369
0.378795 0.310105 0.392855
0.443012 0.318513 0.391937
0.506277 0.332086 0.390274
0.567876 0.352781 0.387242
0.626197 0.382106 0.381606
0.212247 0.382961 0.388733
0.224528 0.383109 0.388700
0.274146 0.383886 0.388537
0.329268 0.385272 0.388238
0.387701 0.387701 0.387701
0.448019 0.391904 0.386739
0.509061 0.399032 0.384990
0.569383 0.410698 0.381810
0.626979 0.428834 0.375878
0.269673 0.455591 0.378972
0.277202 0.455665 0.378938
0.310558 0.456063 0.378754
0.352678 0.456774 0.378426
0.401984 0.458037 0.377843
0.456418 0.460247 0.376786
0.513847 0.464083 0.374871
0.572017 0.470614 0.371369
0.628368 0.481359 0.364821
0.329934 0.522985 0.359008
0.334344 0.523025 0.358967
0.355325 0.523235 0.358747
0.384985 0.523610 0.358354
0.423578 0.524278 0.357647
0.469949 0.525456 0.356373
0.521879 0.527527 0.354063
0.576545 0.531128 0.349808
0.630785 0.537246 0.341772
0.391492 0.586159 0.310531
0.394019 0.586176 0.310466
0.406623 0.586292 0.310124
0.426036 0.586484 0.309509
0.453852 0.586836 0.308401
0.490504 0.587456 0.306394
0.534804 0.588549 0.302716
0.584124 0.590479 0.295827
0.634928 0.593821 0.282337
0.453621 0.644174 0.000001
0.455049 0.644183 0.000001
0.462388 0.644241 0.000001
0.474353 0.644335 0.000001
0.492847 0.644512 0.000001
0.519421 0.644829 0.000001
0.554401 0.645383 0.000001
0.596273 0.646369 0.000001
0.641828 0.648100 0.000001
0.125937 0.000001 0.469187
0.150016 0.000001 0.469171
0.231602 0.000001 0.469091
0.305449 0.000001 0.468951
0.374409 0.000001 0.468697
0.440606 0.037783 0.468244
0.504964 0.137823 0.467427
0.567170 0.223452 0.465956
0.625830 0.299307 0.463273
0.130861 0.000001 0.469038
0.154086 0.000001 0.469026
0.233651 0.000001 0.468944
0.306511 0.000001 0.468802
0.374976 0.016825 0.468553
0.440915 0.089486 0.468097
0.505131 0.164387 0.467278
0.567255 0.237035 0.465806
0.625875 0.306382 0.463122
0.154348 0.170176 0.468257
0.173826 0.171156 0.468246
0.244039 0.176274 0.468166
0.312013 0.184906 0.468024
0.377946 0.198903 0.467766
0.442539 0.220348 0.467307
0.506018 0.250809 0.466485
0.567736 0.290473 0.465000
0.626123 0.338007 0.462296
0.187550 0.292448 0.466850
0.202569 0.292785 0.466837
0.260498 0.294565 0.466755
0.321207 0.297680 0.466611
0.383061 0.303030 0.466348
0.445385 0.311977 0.465886
0.507592 0.326334 0.465053
0.568586 0.348045 0.463548
0.626568 0.378504 0.460806
0.230359 0.379391 0.464286
0.240914 0.379539 0.464270
0.284926 0.380352 0.464186
0.335915 0.381781 0.464041
0.391633 0.384286 0.463777
0.450287 0.388622 0.463297
0.510337 0.395963 0.462445
0.570082 0.407942 0.460900
0.627344 0.426516 0.458092
0.280880 0.453781 0.459548
0.287704 0.453856 0.459533
0.318406 0.454266 0.459446
0.358071 0.454991 0.459289
0.405436 0.456269 0.459014
0.458516 0.458516 0.458516
0.515066 0.462417 0.457624
0.572697 0.469044 0.456007
0.628725 0.479943 0.453066
0.336542 0.522039 0.450529
0.340699 0.522076 0.450516
0.360592 0.522289 0.450416
0.389020 0.522670 0.450247
0.426420 0.523344 0.449945
0.471796 0.524534 0.449405
0.523002 0.526623 0.448429
0.577195 0.530250 0.446672
0.631134 0.536428 0.443456
0.395293 0.585666 0.432255
0.397731 0.585688 0.432237
0.409938 0.585799 0.432128
0.428813 0.585995 0.431923
0.456005 0.586348 0.431566
0.492029 0.586969 0.430923
0.535793 0.588073 0.429768
0.584721 0.590010 0.427670
0.635261 0.593369 0.423825
0.455775 0.643924 0.389133
0.457173 0.643936 0.389105
0.464372 0.643988 0.388938
0.476131 0.644089 0.388639
0.494342 0.644265 0.388105
0.520577 0.644579 0.387143
0.555218 0.645143 0.385408
0.596797 0.646131 0.382233
0.642131 0.647865 0.376325
0.182521 0.000001 0.535463
0.198155 0.000001 0.535455
0.257866 0.000001 0.535412
0.319697 0.000001 0.535334
0.382208 0.000001 0.535204
0.444905 0.000001 0.534963
0.507325 0.066457 0.534538
0.568441 0.193128 0.533769
0.626494 0.284900 0.532382
0.185641 0.000001 0.535384
0.200891 0.000001 0.535382
0.259492 0.000001 0.535336
0.320628 0.000001 0.535260
0.382733 0.000001 0.535128
0.445205 0.000001 0.534887
0.507486 0.109802 0.534457
0.568530 0.210517 0.533690
0.626535 0.292932 0.532302
0.201067 0.118668 0.534974
0.214529 0.120151 0.534966
0.267816 0.127816 0.534928
0.325480 0.140447 0.534852
0.385500 0.160227 0.534715
0.446765 0.189081 0.534477
0.508360 0.227657 0.534044
0.569003 0.274772 0.533276
0.626784 0.328093 0.531883
0.224373 0.277047 0.534237
0.235474 0.277432 0.534229
0.281291 0.279479 0.534186
0.333647 0.283043 0.534108
0.390282 0.289133 0.533976
0.449501 0.299237 0.533733
0.509895 0.315242 0.533301
0.569836 0.339041 0.532521
0.627223 0.371767 0.531118
0.256883 0.372710 0.532905
0.265296 0.372866 0.532897
0.301891 0.373733 0.532854
0.346861 0.375245 0.532773
0.398325 0.377908 0.532637
0.454225 0.382502 0.532392
0.512582 0.390250 0.531954
0.571313 0.402846 0.531168
0.627997 0.422231 0.529746
0.298431 0.450473 0.530482
0.304274 0.450557 0.530474
0.331149 0.450974 0.530429
0.367082 0.451724 0.530353
0.411349 0.453038 0.530210
0.462164 0.455358 0.529959
0.517208 0.459372 0.529510
0.573899 0.466189 0.528703
0.629367 0.477364 0.527242
0.347429 0.520328 0.525999
0.351197 0.520367 0.525997
0.369404 0.520584 0.525952
0.395865 0.520969 0.525865
0.431310 0.521654 0.525720
0.475026 0.522861 0.525459
0.524991 0.524991 0.524991
0.578340 0.528675 0.524144
0.631755 0.534943 0.522618
0.401768 0.584777 0.517480
0.404068 0.584799 0.517473
0.415613 0.584915 0.517426
0.433604 0.585114 0.517331
0.459738 0.585466 0.517172
0.494699 0.586092 0.516890
0.537544 0.587205 0.516378
0.585774 0.589162 0.515459
0.635847 0.592555 0.513798
0.459518 0.643477 0.500249
0.460868 0.643489 0.500234
0.467828 0.643547 0.500177
0.479234 0.643644 0.500071
0.496956 0.643824 0.499881
0.522611 0.644140 0.499545
0.556655 0.644704 0.498941
0.597718 0.645698 0.497849
0.642669 0.647442 0.495878
0.243792 0.000001 0.597608
0.253206 0.000001 0.597605
0.293346 0.000001 0.597586
0.341273 0.000001 0.597543
0.394874 0.000001 0.597475
0.452183 0.000001 0.597351
0.511414 0.000001 0.597131
0.570670 0.106400 0.596735
0.627659 0.253305 0.596019
0.245633 0.000001 0.597571
0.254902 0.000001 0.597569
0.294529 0.000001 0.597543
0.342036 0.000001 0.597504
0.395340 0.000001 0.597433
0.452456 0.000001 0.597314
0.511572 0.000001 0.597091
0.570759 0.139628 0.596693
0.627700 0.263864 0.595977
0.255013 0.000001 0.597357
0.263562 0.000001 0.597354
0.300649 0.000001 0.597328
0.346040 0.000001 0.597289
0.397812 0.030572 0.597224
0.453919 0.098091 0.597097
0.512409 0.169210 0.596877
0.571219 0.239641 0.596476
0.627944 0.307783 0.595759
0.270030 0.242746 0.596973
0.277535 0.243270 0.596967
0.310804 0.246042 0.596950
0.352845 0.250830 0.596910
0.402091 0.258900 0.596840
0.456479 0.272001 0.596716
0.513883 0.292119 0.596490
0.572039 0.320841 0.596089
0.628380 0.358591 0.595374
0.292634 0.359653 0.596284
0.298786 0.359835 0.596281
0.326879 0.360802 0.596261
0.364032 0.362512 0.596219
0.409332 0.365499 0.596148
0.460909 0.370635 0.596024
0.516469 0.379241 0.595796
0.573481 0.393098 0.595396
0.629144 0.414142 0.594670
0.324134 0.444307 0.595047
0.328777 0.444390 0.595041
0.350755 0.444833 0.595019
0.381525 0.445626 0.594982
0.421161 0.447022 0.594906
0.468388 0.449469 0.594780
0.520930 0.453708 0.594552
0.576005 0.460883 0.594144
0.630496 0.472603 0.593408
0.364515 0.517198 0.592785
0.367743 0.517240 0.592780
0.383557 0.517461 0.592754
0.407109 0.517858 0.592718
0.439529 0.518565 0.592645
0.480554 0.519813 0.592513
0.528440 0.522000 0.592278
0.580350 0.525795 0.591860
0.632848 0.532241 0.591105
0.412443 0.583177 0.588605
0.414534 0.583193 0.588602
0.425063 0.583312 0.588571
0.441653 0.583511 0.588529
0.466098 0.583873 0.588457
0.499303 0.584514 0.588321
0.540595 0.585646 0.588076
0.587633 0.587633 0.587633
0.636887 0.591080 0.586844
0.465888 0.642675 0.580627
0.467165 0.642687 0.580622
0.473736 0.642745 0.580597
0.484550 0.642845 0.580553
0.501467 0.643024 0.580468
0.526142 0.643343 0.580314
0.559175 0.643915 0.580050
0.599352 0.644920 0.579570
0.643626 0.646681 0.578704
0.306735 0.000001 0.654369
0.312160 0.000001 0.654365
0.337364 0.000001 0.654353
0.371583 0.000001 0.654334
0.414369 0.000001 0.654301
0.464056 0.000001 0.654239
0.518332 0.000001 0.654124
0.574527 0.000001 0.653927
0.629703 0.156617 0.653571
0.307781 0.000001 0.654347
0.313158 0.000001 0.654344
0.338156 0.000001 0.654331
0.372167 0.000001 0.654313
0.414757 0.000001 0.654279
0.464303 0.000001 0.654217
0.518479 0.000001 0.654106
0.574614 0.000001 0.653911
0.629745 0.179714 0.653556
0.313222 0.000001 0.654242
0.318345 0.000001 0.654236
0.342299 0.000001 0.654226
0.375213 0.000001 0.654208
0.416825 0.000001 0.654174
0.465609 0.000001 0.654112
0.519259 0.000001 0.654001
0.575054 0.122825 0.653800
0.629980 0.258306 0.653445
0.322320 0.130959 0.654047
0.327039 0.132306 0.654047
0.349335 0.139286 0.654038
0.380455 0.150856 0.654019
0.420424 0.169134 0.653979
0.467908 0.196125 0.653920
0.520644 0.232744 0.653809
0.575841 0.278137 0.653608
0.630403 0.330175 0.653253
0.336887 0.331550 0.653707
0.341029 0.331784 0.653701
0.360867 0.333037 0.653692
0.389231 0.335236 0.653673
0.426568 0.339056 0.653639
0.471897 0.345564 0.653574
0.523062 0.356295 0.653463
0.577227 0.373167 0.653266
0.631152 0.398002 0.652905
0.358864 0.432325 0.653093
0.362260 0.432419 0.653087
0.378837 0.432917 0.653077
0.403322 0.433796 0.653056
0.436735 0.435352 0.653022
0.478663 0.438077 0.652957
0.527249 0.442780 0.652849
0.579655 0.450700 0.652646
0.632472 0.463524 0.652282
0.389610 0.511361 0.651980
0.392179 0.511405 0.651974
0.404997 0.511640 0.651967
0.424678 0.512060 0.651943
0.452800 0.512805 0.651909
0.489760 0.514124 0.651844
0.534320 0.516437 0.651730
0.583831 0.520441 0.651527
0.634766 0.527222 0.651158
0.429235 0.580237 0.649950
0.431023 0.580262 0.649947
0.440120 0.580377 0.649937
0.454686 0.580589 0.649913
0.476581 0.580960 0.649879
0.507051 0.581620 0.649815
0.545823 0.582788 0.649695
0.590859 0.584838 0.649486
0.638714 0.588390 0.649109
0.476398 0.641225 0.646189
0.477552 0.641234 0.646189
0.483528 0.641294 0.646177
0.493424 0.641391 0.646152
0.509059 0.641582 0.646116
0.532158 0.641907 0.646043
0.563514 0.642486 0.645920
0.602185 0.643507 0.645698
0.645307 0.645307 0.645307
