luts/Rec2100_PQ/DJI_Osmo_DLogM_to_Rec2100_PQ_ACES2_Bright.cube
TITLE "OpenOSV D-Log M to Rec.2100 PQ, ACES 2 Bright (outdoor) - DJI Osmo 360 / Pocket 3"
LUT_3D_SIZE 9
DOMAIN_MIN 0.000000 0.000000 0.000000
DOMAIN_MAX 1.000000 1.000000 1.000000
0.000001 0.000001 0.000001
0.078161 0.003355 0.000001
0.241727 0.028819 0.000001
0.339997 0.068070 0.000001
0.419149 0.118707 0.000001
0.490443 0.177430 0.000001
0.557259 0.240262 0.000001
0.619929 0.304257 0.000001
0.677180 0.368209 0.000001
0.015461 0.091764 0.000001
0.089574 0.094753 0.000001
0.244806 0.109694 0.000001
0.341273 0.132722 0.000001
0.419775 0.165566 0.000001
0.490769 0.208318 0.000001
0.557430 0.259119 0.000001
0.620020 0.315239 0.000001
0.677225 0.374473 0.000001
0.090289 0.263348 0.000001
0.137946 0.264069 0.000001
0.259997 0.267850 0.000001
0.347869 0.274305 0.000001
0.423047 0.284970 0.000001
0.492485 0.301780 0.000001
0.558339 0.326595 0.000001
0.620495 0.360448 0.000001
0.677458 0.403009 0.000001
0.166527 0.362175 0.000001
0.194488 0.362472 0.000001
0.282863 0.364035 0.000001
0.358753 0.366771 0.000001
0.428661 0.371497 0.000001
0.495478 0.379459 0.000001
0.559943 0.392385 0.000001
0.621335 0.412230 0.000001
0.677884 0.440629 0.000001
0.239846 0.441464 0.000001
0.255496 0.441607 0.000001
0.314694 0.442367 0.000001
0.375849 0.443713 0.000001
0.438019 0.446081 0.000001
0.500626 0.450181 0.000001
0.562746 0.457138 0.000001
0.622820 0.468555 0.000001
0.678637 0.486348 0.000001
0.309563 0.512669 0.000001
0.318184 0.512744 0.000001
0.355453 0.513138 0.000001
0.400987 0.513839 0.000001
0.452961 0.515080 0.000001
0.509250 0.517255 0.000001
0.567564 0.521041 0.000001
0.625408 0.527467 0.000001
0.679952 0.538043 0.000001
0.376567 0.578956 0.000001
0.381329 0.578992 0.000001
0.403809 0.579197 0.000001
0.435170 0.579568 0.000001
0.475411 0.580221 0.000001
0.523089 0.581372 0.000001
0.575626 0.583403 0.000001
0.629852 0.586922 0.000001
0.682255 0.592911 0.000001
0.441997 0.640377 0.000001
0.444639 0.640401 0.000001
0.457805 0.640504 0.000001
0.477964 0.640694 0.000001
0.506616 0.641028 0.000001
0.543991 0.641625 0.000001
0.588560 0.642681 0.000001
0.637261 0.644533 0.000001
0.686193 0.647745 0.000001
0.506378 0.695483 0.000001
0.507847 0.695496 0.000001
0.515361 0.695545 0.000001
0.527579 0.695637 0.000001
0.546374 0.695805 0.000001
0.573166 0.696097 0.000001
0.608035 0.696294 0.000001
0.649087 0.696294 0.000001
0.692720 0.696294 0.000001
0.003079 0.000001 0.099508
0.081250 0.000468 0.098868
0.242544 0.025140 0.095389
0.340333 0.065220 0.088931
0.419317 0.116764 0.076565
0.490529 0.176227 0.051288
0.557301 0.239564 0.000001
0.619953 0.303865 0.000001
0.677193 0.367988 0.000001
0.019999 0.089372 0.093088
0.092415 0.092415 0.092415
0.245602 0.107610 0.088758
0.341606 0.130983 0.081964
0.419939 0.164236 0.068916
0.490853 0.207393 0.042114
0.557475 0.258529 0.000001
0.620043 0.314883 0.000001
0.677237 0.374268 0.000001
0.093115 0.262781 0.052315
0.139904 0.263504 0.051413
0.260692 0.267307 0.046482
0.348184 0.273790 0.037258
0.423203 0.284504 0.019471
0.492562 0.301377 0.000001
0.558384 0.326275 0.000001
0.620516 0.360215 0.000001
0.677471 0.402850 0.000001
0.168081 0.361944 0.000001
0.195717 0.362241 0.000001
0.283428 0.363806 0.000001
0.359037 0.366549 0.000001
0.428813 0.371288 0.000001
0.495560 0.379264 0.000001
0.559988 0.392206 0.000001
0.621358 0.412083 0.000001
0.677897 0.440516 0.000001
0.240676 0.441347 0.000001
0.256219 0.441496 0.000001
0.315117 0.442255 0.000001
0.376089 0.443605 0.000001
0.438158 0.445973 0.000001
0.500709 0.450078 0.000001
0.562786 0.457038 0.000001
0.622841 0.468466 0.000001
0.678643 0.486277 0.000001
0.310007 0.512613 0.000001
0.318592 0.512689 0.000001
0.355746 0.513080 0.000001
0.401180 0.513783 0.000001
0.453086 0.515022 0.000001
0.509320 0.517201 0.000001
0.567607 0.520984 0.000001
0.625428 0.527417 0.000001
0.679965 0.538003 0.000001
0.376811 0.578923 0.000001
0.381557 0.578959 0.000001
0.403999 0.579170 0.000001
0.435310 0.579535 0.000001
0.475511 0.580190 0.000001
0.523149 0.581345 0.000001
0.575667 0.583376 0.000001
0.629873 0.586897 0.000001
0.682264 0.592883 0.000001
0.442127 0.640361 0.000001
0.444772 0.640383 0.000001
0.457918 0.640489 0.000001
0.478060 0.640679 0.000001
0.506690 0.641012 0.000001
0.544042 0.641610 0.000001
0.588591 0.642669 0.000001
0.637282 0.644518 0.000001
0.686200 0.647727 0.000001
0.506452 0.695476 0.000001
0.507919 0.695489 0.000001
0.515427 0.695539 0.000001
0.527639 0.695631 0.000001
0.546420 0.695795 0.000001
0.573207 0.696091 0.000001
0.608061 0.696294 0.000001
0.649109 0.696294 0.000001
0.692733 0.696294 0.000001
0.026873 0.000001 0.274856
0.096684 0.000001 0.274711
0.246817 0.004989 0.273924
0.342116 0.048904 0.272507
0.420186 0.105837 0.269928
0.490981 0.169566 0.265171
0.557541 0.235748 0.256137
0.620079 0.301739 0.237934
0.677253 0.366809 0.195760
0.042860 0.075791 0.273413
0.106666 0.079152 0.273266
0.249763 0.095849 0.272469
0.343370 0.121249 0.271033
0.420805 0.156860 0.268419
0.491304 0.202313 0.263596
0.557715 0.255314 0.254427
0.620167 0.312964 0.235923
0.677298 0.373153 0.192847
0.107295 0.259687 0.265352
0.149891 0.260432 0.265192
0.264337 0.264337 0.264337
0.349846 0.270990 0.262790
0.424045 0.281965 0.259974
0.493010 0.299204 0.254763
0.558619 0.324545 0.244806
0.620642 0.358948 0.224504
0.677535 0.401995 0.175901
0.176073 0.360699 0.249316
0.202089 0.360996 0.249133
0.286408 0.362584 0.248143
0.360543 0.365354 0.246355
0.429613 0.370140 0.243088
0.495993 0.378199 0.237008
0.560219 0.391263 0.225270
0.621479 0.411298 0.200750
0.677957 0.439909 0.138003
0.245021 0.440748 0.213393
0.260010 0.440892 0.213141
0.317360 0.441659 0.211780
0.377382 0.443014 0.209313
0.438891 0.445397 0.204769
0.501117 0.449518 0.196186
0.563015 0.456518 0.179100
0.622961 0.467995 0.140806
0.678710 0.485878 0.017239
0.312355 0.512300 0.094351
0.320767 0.512375 0.093686
0.357298 0.512769 0.090065
0.402207 0.513479 0.083338
0.453729 0.514719 0.070427
0.509701 0.516904 0.043929
0.567817 0.520698 0.000001
0.625544 0.527147 0.000001
0.680026 0.537758 0.000001
0.378091 0.578759 0.000001
0.382792 0.578800 0.000001
0.405001 0.579006 0.000001
0.436068 0.579376 0.000001
0.476034 0.580028 0.000001
0.523481 0.581188 0.000001
0.575866 0.583221 0.000001
0.629980 0.586744 0.000001
0.682329 0.592740 0.000001
0.442835 0.640277 0.000001
0.445461 0.640298 0.000001
0.458531 0.640404 0.000001
0.478563 0.640595 0.000001
0.507079 0.640934 0.000001
0.544315 0.641528 0.000001
0.588766 0.642587 0.000001
0.637384 0.644439 0.000001
0.686255 0.647653 0.000001
0.506844 0.695437 0.000001
0.508302 0.695447 0.000001
0.515786 0.695499 0.000001
0.527962 0.695591 0.000001
0.546687 0.695755 0.000001
0.573410 0.696051 0.000001
0.608202 0.696294 0.000001
0.649195 0.696294 0.000001
0.692783 0.696294 0.000001
0.064263 0.000001 0.373910
0.120424 0.000001 0.373848
0.254071 0.000001 0.373532
0.345236 0.014868 0.372960
0.421730 0.083705 0.371934
0.491787 0.156667 0.370073
0.557969 0.228595 0.366675
0.620301 0.297836 0.360333
0.677369 0.364670 0.348003
0.076845 0.047615 0.373327
0.128782 0.051707 0.373265
0.256835 0.071835 0.372944
0.346455 0.101771 0.372367
0.422336 0.142460 0.371341
0.492104 0.192646 0.369471
0.558140 0.249328 0.366052
0.620392 0.309443 0.359674
0.677407 0.371133 0.347265
0.129311 0.253937 0.370145
0.165933 0.254720 0.370081
0.270567 0.258828 0.369752
0.352759 0.265808 0.369161
0.425534 0.277280 0.368102
0.493801 0.295207 0.366178
0.559042 0.321383 0.362650
0.620862 0.356647 0.356065
0.677647 0.400444 0.343215
0.189141 0.358434 0.364222
0.212670 0.358740 0.364156
0.291538 0.360357 0.363812
0.363187 0.363187 0.363187
0.431027 0.368067 0.362061
0.496758 0.376273 0.360028
0.560635 0.389549 0.356297
0.621702 0.409881 0.349303
0.678066 0.438818 0.335584
0.252386 0.439665 0.352779
0.266479 0.439807 0.352708
0.321256 0.440580 0.352322
0.379651 0.441951 0.351628
0.440191 0.444356 0.350381
0.501852 0.448523 0.348114
0.563418 0.455583 0.343946
0.623179 0.467156 0.336090
0.678819 0.485164 0.320482
0.316429 0.511747 0.328802
0.324547 0.511819 0.328712
0.360018 0.512220 0.328231
0.404024 0.512924 0.327365
0.454863 0.514173 0.325805
0.510378 0.516373 0.322963
0.568204 0.520185 0.317699
0.625759 0.526665 0.307615
0.680135 0.537320 0.286935
0.380347 0.578469 0.265992
0.384952 0.578510 0.265833
0.406768 0.578715 0.264981
0.437397 0.579085 0.263444
0.476961 0.579740 0.260644
0.524077 0.580899 0.255465
0.576218 0.582942 0.245575
0.630183 0.586481 0.225420
0.682429 0.592494 0.177288
0.444090 0.640132 0.000001
0.446687 0.640150 0.000001
0.459616 0.640256 0.000001
0.479472 0.640443 0.000001
0.507775 0.640785 0.000001
0.544803 0.641382 0.000001
0.589075 0.642441 0.000001
0.637568 0.644299 0.000001
0.686355 0.647519 0.000001
0.507539 0.695361 0.000001
0.508987 0.695375 0.000001
0.516422 0.695427 0.000001
0.528530 0.695519 0.000001
0.547163 0.695680 0.000001
0.573771 0.695979 0.000001
0.608458 0.696294 0.000001
0.649354 0.696294 0.000001
0.692871 0.696294 0.000001
0.113275 0.000001 0.453245
0.154184 0.000001 0.453215
0.265958 0.000001 0.453062
0.350595 0.000001 0.452785
0.424430 0.032388 0.452295
0.493209 0.129607 0.451407
0.558730 0.214587 0.449800
0.620697 0.290503 0.446884
0.677564 0.360740 0.441458
0.122097 0.000001 0.452965
0.160606 0.000001 0.452935
0.268445 0.015598 0.452780
0.351756 0.057749 0.452503
0.425021 0.111722 0.452007
0.493525 0.173130 0.451120
0.558894 0.237780 0.449510
0.620786 0.302867 0.446581
0.677605 0.367433 0.441144
0.161016 0.242875 0.451439
0.190149 0.243739 0.451409
0.280891 0.248259 0.451255
0.357769 0.255908 0.450974
0.428146 0.268389 0.450471
0.495199 0.287692 0.449568
0.559792 0.315502 0.447938
0.621255 0.352413 0.444966
0.677849 0.397627 0.439446
0.209382 0.354270 0.448661
0.229441 0.354588 0.448634
0.300148 0.356267 0.448470
0.367753 0.359203 0.448185
0.433509 0.364257 0.447668
0.498121 0.372743 0.446742
0.561373 0.386432 0.445065
0.622093 0.407294 0.442014
0.678268 0.436839 0.436337
0.264446 0.437698 0.443519
0.277173 0.437848 0.443487
0.327885 0.438639 0.443319
0.383590 0.440031 0.443014
0.442478 0.442478 0.442478
0.503145 0.446710 0.441506
0.564139 0.453891 0.439749
0.623562 0.465631 0.436542
0.679012 0.483877 0.430560
0.323348 0.510743 0.433686
0.330985 0.510816 0.433649
0.364715 0.511218 0.433468
0.407190 0.511933 0.433133
0.456860 0.513197 0.432545
0.511575 0.515412 0.431480
0.568888 0.519261 0.429551
0.626129 0.525795 0.426019
0.680324 0.536537 0.419430
0.384260 0.577949 0.413570
0.388711 0.577985 0.413527
0.409860 0.578198 0.413308
0.439744 0.578567 0.412908
0.478588 0.579228 0.412194
0.525128 0.580394 0.410911
0.576850 0.582446 0.408584
0.630537 0.585998 0.404293
0.682613 0.592040 0.396195
0.446297 0.639865 0.364689
0.448838 0.639886 0.364623
0.461533 0.639992 0.364276
0.481069 0.640180 0.363656
0.509001 0.640516 0.362537
0.545663 0.641125 0.360512
0.589630 0.642180 0.356798
0.637894 0.644043 0.349838
0.686530 0.647271 0.336189
0.508767 0.695233 0.000001
0.510204 0.695240 0.000001
0.517556 0.695293 0.000001
0.529537 0.695384 0.000001
0.548006 0.695552 0.000001
0.574423 0.695848 0.000001
0.608907 0.696294 0.000001
0.649637 0.696294 0.000001
0.693031 0.696294 0.000001
0.170896 0.000001 0.524367
0.197952 0.000001 0.524347
0.284463 0.000001 0.524270
0.359559 0.000001 0.524129
0.429090 0.000001 0.523878
0.495708 0.059911 0.523421
0.560067 0.184372 0.522604
0.621402 0.276062 0.521130
0.677919 0.353354 0.518447
0.176507 0.000001 0.524218
0.202438 0.000001 0.524203
0.286573 0.000001 0.524126
0.360627 0.000001 0.523980
0.429651 0.028679 0.523729
0.496012 0.127776 0.523273
0.560234 0.213688 0.522457
0.621490 0.290046 0.520982
0.677961 0.360500 0.518295
0.202727 0.219949 0.523439
0.223877 0.221006 0.523421
0.297227 0.226504 0.523344
0.366185 0.235714 0.523203
0.432649 0.250501 0.522945
0.497649 0.272851 0.522487
0.561118 0.304145 0.521661
0.621958 0.344425 0.520175
0.678198 0.392400 0.517466
0.238523 0.346421 0.522024
0.254344 0.346761 0.522015
0.314021 0.348561 0.521930
0.375460 0.351709 0.521787
0.437802 0.357114 0.521525
0.500505 0.366150 0.521061
0.562680 0.380633 0.520229
0.622785 0.402519 0.518720
0.678617 0.433213 0.515974
0.283186 0.434105 0.519461
0.294026 0.434257 0.519443
0.338812 0.435069 0.519362
0.390291 0.436513 0.519212
0.446441 0.439037 0.518946
0.505424 0.443405 0.518470
0.565406 0.450796 0.517615
0.624241 0.462860 0.516067
0.679358 0.481540 0.513253
0.334712 0.508929 0.514712
0.341619 0.509008 0.514695
0.372633 0.509419 0.514612
0.412622 0.510139 0.514453
0.460343 0.511424 0.514173
0.513678 0.513678 0.513678
0.570101 0.517586 0.512783
0.626790 0.524226 0.511165
0.680668 0.535123 0.508210
0.390924 0.577014 0.505668
0.395117 0.577050 0.505651
0.415165 0.577260 0.505553
0.443801 0.577640 0.505390
0.481446 0.578302 0.505086
0.526980 0.579483 0.504543
0.577968 0.581548 0.503563
0.631166 0.585142 0.501800
0.682945 0.591231 0.498567
0.450125 0.639388 0.487318
0.452583 0.639409 0.487295
0.464870 0.639518 0.487184
0.483856 0.639705 0.486983
0.511158 0.640044 0.486625
0.547184 0.640649 0.485979
0.590607 0.641719 0.484814
0.638476 0.643593 0.482708
0.686845 0.646837 0.478836
0.510930 0.695000 0.443917
0.512334 0.695010 0.443890
0.519544 0.695063 0.443721
0.531317 0.695155 0.443422
0.549495 0.695322 0.442884
0.575563 0.695614 0.441915
0.609708 0.696143 0.440166
0.650140 0.696294 0.436967
0.693319 0.696294 0.431019
0.233176 0.000001 0.590278
0.249714 0.000001 0.590272
0.311341 0.000001 0.590230
0.373937 0.000001 0.590158
0.436945 0.000001 0.590024
0.500026 0.000001 0.589792
0.562419 0.098756 0.589371
0.622640 0.244421 0.588610
0.678547 0.338784 0.587244
0.236495 0.000001 0.590202
0.252587 0.000001 0.590194
0.312998 0.000001 0.590158
0.374874 0.000001 0.590080
0.437474 0.000001 0.589951
0.500320 0.000001 0.589714
0.562576 0.152174 0.589293
0.622732 0.262644 0.588532
0.678592 0.346908 0.587167
0.252770 0.162525 0.589800
0.266818 0.164243 0.589792
0.321461 0.173042 0.589750
0.379773 0.187314 0.589678
0.440258 0.209160 0.589541
0.501888 0.240144 0.589307
0.563439 0.280402 0.588883
0.623191 0.328524 0.588120
0.678826 0.382402 0.586744
0.277013 0.330829 0.589073
0.288445 0.331220 0.589061
0.335130 0.333293 0.589020
0.388005 0.336904 0.588947
0.445074 0.343069 0.588813
0.504636 0.353282 0.588574
0.564970 0.369441 0.588148
0.624005 0.393444 0.587378
0.679236 0.426424 0.585993
0.310342 0.427376 0.587753
0.318904 0.427538 0.587747
0.355963 0.428402 0.587703
0.401323 0.429931 0.587631
0.453178 0.432612 0.587492
0.509375 0.437237 0.587253
0.567632 0.445042 0.586822
0.625443 0.457726 0.586040
0.679974 0.477242 0.584636
0.352470 0.505613 0.585361
0.358371 0.505692 0.585355
0.385487 0.506116 0.585311
0.421704 0.506863 0.585233
0.466293 0.508186 0.585095
0.517336 0.510509 0.584846
0.572228 0.514536 0.584401
0.627961 0.521364 0.583602
0.681270 0.532546 0.582159
0.401903 0.575318 0.580935
0.405695 0.575354 0.580929
0.424043 0.575574 0.580883
0.450700 0.575953 0.580803
0.486364 0.576629 0.580655
0.530205 0.577831 0.580394
0.579932 0.579932 0.579932
0.632280 0.583580 0.579099
0.683532 0.589770 0.577588
0.456644 0.638530 0.572496
0.458960 0.638551 0.572488
0.470582 0.638657 0.572442
0.488669 0.638850 0.572350
0.514900 0.639194 0.572190
0.549849 0.639805 0.571909
0.592337 0.640879 0.571405
0.639500 0.642772 0.570489
0.687397 0.646052 0.568842
0.514680 0.694584 0.555373
0.516036 0.694590 0.555365
0.523007 0.694646 0.555304
0.534414 0.694738 0.555202
0.552095 0.694905 0.555010
0.577577 0.695204 0.554679
0.611116 0.695729 0.554073
0.651032 0.696294 0.552988
0.693823 0.696294 0.551025
0.296973 0.000001 0.650927
0.306593 0.000001 0.650921
0.347328 0.000001 0.650902
0.395694 0.000001 0.650862
0.449706 0.000001 0.650801
0.507325 0.000001 0.650678
0.566477 0.000001 0.650466
0.624817 0.148157 0.650082
0.679653 0.306694 0.649394
0.298856 0.000001 0.650887
0.308320 0.000001 0.650887
0.348522 0.000001 0.650866
0.396462 0.000001 0.650823
0.450174 0.000001 0.650761
0.507604 0.000001 0.650644
0.566630 0.000001 0.650423
0.624902 0.186397 0.650042
0.679698 0.317446 0.649354
0.308435 0.000001 0.650681
0.317139 0.000001 0.650678
0.354709 0.000001 0.650660
0.400500 0.000001 0.650620
0.452662 0.049509 0.650555
0.509069 0.138234 0.650435
0.567462 0.218907 0.650220
0.625348 0.292721 0.649836
0.679926 0.361915 0.649146
0.323709 0.295901 0.650312
0.331321 0.296439 0.650306
0.364967 0.299275 0.650291
0.407356 0.304167 0.650251
0.456969 0.312396 0.650186
0.511640 0.325711 0.650063
0.568925 0.346086 0.649845
0.626150 0.375090 0.649465
0.680337 0.413147 0.648768
0.346607 0.414221 0.649649
0.352826 0.414400 0.649646
0.381184 0.415380 0.649627
0.418628 0.417101 0.649584
0.464259 0.420110 0.649520
0.516080 0.425283 0.649400
0.571492 0.433952 0.649182
0.627555 0.447912 0.648790
0.681061 0.469100 0.648094
0.378412 0.499422 0.648456
0.383092 0.499504 0.648453
0.405249 0.499950 0.648428
0.436250 0.500747 0.648388
0.476168 0.502145 0.648318
0.523565 0.504605 0.648198
0.575912 0.508856 0.647975
0.630013 0.516050 0.647580
0.682335 0.527787 0.646870
0.419115 0.572215 0.646275
0.422368 0.572258 0.646272
0.438304 0.572480 0.646250
0.462020 0.572873 0.646207
0.494621 0.573568 0.646137
0.535737 0.574804 0.646009
0.583342 0.576973 0.645789
0.634232 0.580729 0.645380
0.684569 0.587097 0.644649
0.467394 0.636975 0.642231
0.469492 0.636993 0.642225
0.480087 0.637104 0.642204
0.496758 0.637300 0.642165
0.521271 0.637652 0.642086
0.554432 0.638271 0.641955
0.595340 0.639367 0.641716
0.641291 0.641291 0.641291
0.688384 0.644628 0.640534
0.521066 0.693827 0.634505
0.522344 0.693840 0.634499
0.528918 0.693889 0.634469
0.539728 0.693987 0.634427
0.556586 0.694154 0.634346
0.581070 0.694459 0.634199
0.613583 0.694991 0.633944
0.652602 0.695933 0.633477
0.694722 0.696294 0.632636
0.360855 0.000001 0.696294
0.366333 0.000001 0.696294
0.391751 0.000001 0.696294
0.426242 0.000001 0.696294
0.469327 0.000001 0.696294
0.519232 0.000001 0.696294
0.573340 0.000001 0.696294
0.628576 0.000001 0.696294
0.681588 0.205213 0.696294
0.361912 0.000001 0.696294
0.367340 0.000001 0.696294
0.392553 0.000001 0.696294
0.426824 0.000001 0.696294
0.469717 0.000001 0.696294
0.519475 0.000001 0.696294
0.573483 0.000001 0.696294
0.628656 0.000001 0.696294
0.681630 0.230185 0.696294
0.367407 0.000001 0.696294
0.372573 0.000001 0.696294
0.396730 0.000001 0.696294
0.429894 0.000001 0.696294
0.471801 0.000001 0.696294
0.520787 0.000001 0.696294
0.574260 0.000001 0.696294
0.629087 0.167323 0.696294
0.681855 0.311788 0.696294
0.376583 0.176619 0.696294
0.381345 0.178147 0.696294
0.403817 0.186012 0.696294
0.435178 0.198880 0.696294
0.475418 0.218827 0.696294
0.523089 0.247580 0.696294
0.575631 0.285639 0.696294
0.629852 0.331934 0.696294
0.682255 0.384504 0.696294
0.391270 0.385894 0.696294
0.395447 0.386131 0.696294
0.415441 0.387388 0.696294
0.444016 0.389607 0.696294
0.481599 0.393461 0.696294
0.527077 0.400018 0.696294
0.578026 0.410835 0.696294
0.631199 0.427837 0.696294
0.682961 0.452853 0.696294
0.413424 0.487383 0.696294
0.416849 0.487480 0.696294
0.433546 0.487977 0.696294
0.458209 0.488864 0.696294
0.491822 0.490429 0.696294
0.533845 0.493167 0.696294
0.582168 0.497894 0.696294
0.633561 0.505841 0.696294
0.684210 0.518696 0.696294
0.444404 0.566421 0.696294
0.446992 0.566469 0.696294
0.459891 0.566700 0.696294
0.479700 0.567119 0.696294
0.507948 0.567860 0.696294
0.544921 0.569168 0.696294
0.589153 0.571459 0.696294
0.637613 0.575430 0.696294
0.686381 0.582140 0.696294
0.484277 0.634124 0.696294
0.486074 0.634145 0.696294
0.495217 0.634259 0.696294
0.509834 0.634460 0.696294
0.531767 0.634826 0.696294
0.562139 0.635465 0.696294
0.600481 0.636599 0.696294
0.644411 0.638584 0.696294
0.690102 0.642025 0.696294
0.531583 0.692465 0.696294
0.532736 0.692472 0.696294
0.538706 0.692527 0.696294
0.548580 0.692622 0.696294
0.564136 0.692796 0.696294
0.587017 0.693103 0.696294
0.617834 0.693647 0.696294
0.655331 0.694610 0.696294
0.696294 0.696294 0.696294
