luts/Rec2100_PQ/DJI_Osmo_DLogM_to_Rec2100_PQ_ACES2_Detailed.cube
TITLE "OpenOSV D-Log M to Rec.2100 PQ, ACES 2 Detailed (indoor) - DJI Osmo 360 / Pocket 3"
LUT_3D_SIZE 5
DOMAIN_MIN 0.000000 0.000000 0.000000
DOMAIN_MAX 1.000000 1.000000 1.000000
0.000001 0.000001 0.000001
0.190578 0.016913 0.000001
0.364548 0.082150 0.000001
0.502142 0.189195 0.000001
0.625050 0.314018 0.000001
0.059988 0.211193 0.000001
0.207978 0.215525 0.000001
0.368414 0.232094 0.000001
0.503227 0.272874 0.000001
0.625348 0.348531 0.000001
0.188801 0.386693 0.000001
0.261160 0.387592 0.000001
0.383275 0.391280 0.000001
0.507659 0.402261 0.000001
0.626582 0.431299 0.000001
0.322303 0.523997 0.000001
0.349323 0.524243 0.000001
0.420420 0.525277 0.000001
0.520639 0.528500 0.000001
0.630403 0.538130 0.000001
0.451240 0.644439 0.000001
0.460197 0.644506 0.000001
0.491211 0.644780 0.000001
0.553511 0.645652 0.000001
0.641497 0.648358 0.000001
0.015682 0.000001 0.222286
0.195401 0.002662 0.221386
0.365577 0.071957 0.217528
0.502428 0.184939 0.204281
0.625130 0.312633 0.148033
0.073099 0.207681 0.213119
0.212143 0.212143 0.212143
0.369406 0.229173 0.207956
0.503508 0.270852 0.193494
0.625428 0.347523 0.130326
0.193697 0.385984 0.164116
0.263782 0.386887 0.162633
0.384142 0.390599 0.156210
0.507929 0.401644 0.133149
0.626662 0.430824 0.009741
0.323816 0.523806 0.000001
0.350505 0.524054 0.000001
0.421035 0.525083 0.000001
0.520878 0.528312 0.000001
0.630478 0.537959 0.000001
0.451698 0.644390 0.000001
0.460621 0.644457 0.000001
0.491528 0.644734 0.000001
0.553684 0.645600 0.000001
0.641561 0.648309 0.000001
0.077818 0.000001 0.398393
0.213702 0.000001 0.398212
0.369787 0.019198 0.397447
0.503616 0.165216 0.394972
0.625455 0.306620 0.386688
0.117366 0.191663 0.396600
0.228133 0.196772 0.396415
0.373473 0.216042 0.395637
0.504689 0.261954 0.393119
0.625754 0.343188 0.384692
0.212247 0.382961 0.388733
0.274146 0.383886 0.388537
0.387701 0.387701 0.387701
0.509061 0.399032 0.384990
0.626979 0.428834 0.375878
0.329934 0.522985 0.359008
0.355325 0.523235 0.358747
0.423578 0.524278 0.357647
0.521879 0.527527 0.354063
0.630785 0.537246 0.341772
0.453621 0.644174 0.000001
0.462388 0.644241 0.000001
0.492847 0.644512 0.000001
0.554401 0.645383 0.000001
0.641828 0.648100 0.000001
0.182521 0.000001 0.535463
0.257866 0.000001 0.535412
0.382208 0.000001 0.535204
0.507325 0.066457 0.534538
0.626494 0.284900 0.532382
0.201067 0.118668 0.534974
0.267816 0.127816 0.534928
0.385500 0.160227 0.534715
0.508360 0.227657 0.534044
0.626784 0.328093 0.531883
0.256883 0.372710 0.532905
0.301891 0.373733 0.532854
0.398325 0.377908 0.532637
0.512582 0.390250 0.531954
0.627997 0.422231 0.529746
0.347429 0.520328 0.525999
0.369404 0.520584 0.525952
0.431310 0.521654 0.525720
0.524991 0.524991 0.524991
0.631755 0.534943 0.522618
0.459518 0.643477 0.500249
0.467828 0.643547 0.500177
0.496956 0.643824 0.499881
0.556655 0.644704 0.498941
0.642669 0.647442 0.495878
0.306735 0.000001 0.654369
0.337364 0.000001 0.654353
0.414369 0.000001 0.654301
0.518332 0.000001 0.654124
0.629703 0.156617 0.653571
0.313222 0.000001 0.654242
0.342299 0.000001 0.654226
0.416825 0.000001 0.654174
0.519259 0.000001 0.654001
0.629980 0.258306 0.653445
0.336887 0.331550 0.653707
0.360867 0.333037 0.653692
0.426568 0.339056 0.653639
0.523062 0.356295 0.653463
0.631152 0.398002 0.652905
0.389610 0.511361 0.651980
0.404997 0.511640 0.651967
0.452800 0.512805 0.651909
0.534320 0.516437 0.651730
0.634766 0.527222 0.651158
0.476398 0.641225 0.646189
0.483528 0.641294 0.646177
0.509059 0.641582 0.646116
0.563514 0.642486 0.645920
0.645307 0.645307 0.645307
