luts/Rec2100_PQ/DJI_Osmo_DLogM_to_Rec2100_PQ_BT2408_DeepBlacks_Punchy.cube
TITLE "OpenOSV D-Log M to Rec.2100 PQ, BT.2408 Deep Blacks + Punchy - DJI Osmo 360 / Pocket 3"
LUT_3D_SIZE 65
DOMAIN_MIN 0.000000 0.000000 0.000000
DOMAIN_MAX 1.000000 1.000000 1.000000
0.000001 0.000001 0.000001
0.004661 0.000095 0.000001
0.011802 0.000239 0.000001
0.019955 0.000430 0.000001
0.028696 0.000667 0.000001
0.037824 0.000952 0.000001
0.047228 0.001287 0.000001
0.056837 0.001675 0.000001
0.066598 0.002120 0.000001
0.094341 0.003687 0.000001
0.119469 0.005556 0.000001
0.142252 0.007693 0.000001
0.163100 0.010083 0.000001
0.182339 0.012718 0.000001
0.200232 0.015594 0.000001
0.216988 0.018706 0.000001
0.232778 0.022052 0.000001
0.247745 0.025632 0.000001
0.262001 0.029443 0.000001
0.275645 0.033486 0.000001
0.288758 0.037758 0.000001
0.301408 0.042260 0.000001
0.313657 0.046988 0.000001
0.325548 0.051941 0.000001
0.337131 0.057116 0.000001
0.348441 0.062511 0.000001
0.359509 0.068120 0.000001
0.370370 0.073941 0.000001
0.381037 0.079966 0.000001
0.391542 0.086192 0.000001
0.401902 0.092610 0.000001
0.412134 0.099214 0.000001
0.422245 0.105997 0.000001
0.432261 0.112951 0.000001
0.442184 0.120063 0.000001
0.452033 0.127330 0.000001
0.461811 0.134737 0.000001
0.471528 0.142277 0.000001
0.481188 0.149941 0.000001
0.490806 0.157718 0.000001
0.500379 0.165595 0.000001
0.509916 0.173568 0.000001
0.519421 0.181624 0.000001
0.528903 0.189753 0.000001
0.538357 0.197950 0.000001
0.547788 0.206202 0.000001
0.557203 0.214507 0.000001
0.566601 0.222853 0.000001
0.575988 0.231235 0.000001
0.585355 0.239649 0.000001
0.594723 0.248086 0.000001
0.604074 0.256544 0.000001
0.613412 0.265019 0.000001
0.622752 0.273509 0.000001
0.632074 0.282008 0.000001
0.641400 0.290514 0.000001
0.650712 0.299030 0.000001
0.660019 0.307551 0.000001
0.669316 0.316076 0.000001
0.678611 0.324606 0.000001
0.687897 0.333138 0.000001
0.697169 0.341679 0.000001
0.706436 0.350225 0.000001
0.715695 0.358777 0.000001
0.724941 0.367332 0.000001
0.000489 0.006089 0.000001
0.005844 0.006431 0.000001
0.013123 0.006802 0.000001
0.021295 0.007205 0.000001
0.030007 0.007641 0.000001
0.039087 0.008114 0.000001
0.048433 0.008627 0.000001
0.057977 0.009182 0.000001
0.067673 0.009783 0.000001
0.095239 0.011732 0.000001
0.120223 0.013872 0.000001
0.142891 0.016192 0.000001
0.163647 0.018697 0.000001
0.182810 0.021390 0.000001
0.200640 0.024276 0.000001
0.217345 0.027358 0.000001
0.233092 0.030640 0.000001
0.248022 0.034125 0.000001
0.262248 0.037815 0.000001
0.275867 0.041714 0.000001
0.288957 0.045822 0.000001
0.301587 0.050142 0.000001
0.313816 0.054674 0.000001
0.325694 0.059417 0.000001
0.337263 0.064373 0.000001
0.348561 0.069538 0.000001
0.359619 0.074910 0.000001
0.370467 0.080488 0.000001
0.381131 0.086267 0.000001
0.391626 0.092243 0.000001
0.401976 0.098410 0.000001
0.412202 0.104763 0.000001
0.422312 0.111296 0.000001
0.432321 0.117999 0.000001
0.442241 0.124867 0.000001
0.452084 0.131892 0.000001
0.461855 0.139062 0.000001
0.471572 0.146373 0.000001
0.481229 0.153812 0.000001
0.490846 0.161370 0.000001
0.500417 0.169037 0.000001
0.509948 0.176808 0.000001
0.519453 0.184668 0.000001
0.528928 0.192611 0.000001
0.538377 0.200629 0.000001
0.547814 0.208713 0.000001
0.557227 0.216856 0.000001
0.566622 0.225050 0.000001
0.576005 0.233287 0.000001
0.585375 0.241565 0.000001
0.594735 0.249874 0.000001
0.604088 0.258210 0.000001
0.613427 0.266574 0.000001
0.622761 0.274956 0.000001
0.632092 0.283357 0.000001
0.641409 0.291771 0.000001
0.650724 0.300199 0.000001
0.660026 0.308638 0.000001
0.669329 0.317089 0.000001
0.678617 0.325549 0.000001
0.687897 0.334019 0.000001
0.697173 0.342497 0.000001
0.706446 0.350986 0.000001
0.715702 0.359485 0.000001
0.724947 0.367991 0.000001
0.001321 0.015110 0.000001
0.007162 0.015485 0.000001
0.014551 0.015889 0.000001
0.022732 0.016323 0.000001
0.031411 0.016790 0.000001
0.040437 0.017293 0.000001
0.049719 0.017833 0.000001
0.059195 0.018415 0.000001
0.068822 0.019040 0.000001
0.096198 0.021042 0.000001
0.121028 0.023205 0.000001
0.143576 0.025520 0.000001
0.164232 0.027993 0.000001
0.183315 0.030631 0.000001
0.201079 0.033439 0.000001
0.217728 0.036422 0.000001
0.233431 0.039585 0.000001
0.248321 0.042933 0.000001
0.262513 0.046470 0.000001
0.276104 0.050200 0.000001
0.289168 0.054125 0.000001
0.301777 0.058250 0.000001
0.313988 0.062575 0.000001
0.325849 0.067102 0.000001
0.337402 0.071830 0.000001
0.348688 0.076762 0.000001
0.359737 0.081895 0.000001
0.370575 0.087229 0.000001
0.381227 0.092759 0.000001
0.391715 0.098484 0.000001
0.402058 0.104399 0.000001
0.412277 0.110500 0.000001
0.422382 0.116780 0.000001
0.432384 0.123234 0.000001
0.442301 0.129855 0.000001
0.452140 0.136634 0.000001
0.461908 0.143565 0.000001
0.471619 0.150641 0.000001
0.481272 0.157850 0.000001
0.490883 0.165187 0.000001
0.500450 0.172641 0.000001
0.509984 0.180200 0.000001
0.519483 0.187863 0.000001
0.528956 0.195615 0.000001
0.538411 0.203449 0.000001
0.547838 0.211357 0.000001
0.557248 0.219334 0.000001
0.566644 0.227368 0.000001
0.576024 0.235456 0.000001
0.585391 0.243590 0.000001
0.594754 0.251767 0.000001
0.604102 0.259978 0.000001
0.613444 0.268222 0.000001
0.622779 0.276495 0.000001
0.632104 0.284790 0.000001
0.641422 0.293108 0.000001
0.650730 0.301444 0.000001
0.660038 0.309797 0.000001
0.669335 0.318169 0.000001
0.678627 0.326556 0.000001
0.687910 0.334955 0.000001
0.697189 0.343371 0.000001
0.706452 0.351801 0.000001
0.715705 0.360244 0.000001
0.724954 0.368700 0.000001
0.002414 0.025141 0.000001
0.008619 0.025514 0.000001
0.016095 0.025914 0.000001
0.024274 0.026345 0.000001
0.032912 0.026807 0.000001
0.041878 0.027302 0.000001
0.051091 0.027835 0.000001
0.060495 0.028407 0.000001
0.070047 0.029020 0.000001
0.097223 0.030976 0.000001
0.121890 0.033077 0.000001
0.144307 0.035317 0.000001
0.164859 0.037700 0.000001
0.183855 0.040234 0.000001
0.201549 0.042923 0.000001
0.218139 0.045774 0.000001
0.233792 0.048793 0.000001
0.248642 0.051983 0.000001
0.262798 0.055350 0.000001
0.276356 0.058899 0.000001
0.289396 0.062632 0.000001
0.301981 0.066554 0.000001
0.314172 0.070667 0.000001
0.326015 0.074974 0.000001
0.337555 0.079476 0.000001
0.348826 0.084173 0.000001
0.359862 0.089066 0.000001
0.370688 0.094155 0.000001
0.381330 0.099437 0.000001
0.391814 0.104912 0.000001
0.402148 0.110575 0.000001
0.412361 0.116421 0.000001
0.422456 0.122448 0.000001
0.432454 0.128650 0.000001
0.442367 0.135021 0.000001
0.452198 0.141556 0.000001
0.461963 0.148245 0.000001
0.471669 0.155082 0.000001
0.481320 0.162060 0.000001
0.490925 0.169170 0.000001
0.500488 0.176404 0.000001
0.510018 0.183753 0.000001
0.519520 0.191210 0.000001
0.528991 0.198765 0.000001
0.538439 0.206410 0.000001
0.547866 0.214139 0.000001
0.557272 0.221941 0.000001
0.566665 0.229814 0.000001
0.576046 0.237746 0.000001
0.585413 0.245733 0.000001
0.594774 0.253769 0.000001
0.604122 0.261850 0.000001
0.613459 0.269969 0.000001
0.622793 0.278125 0.000001
0.632119 0.286312 0.000001
0.641431 0.294526 0.000001
0.650746 0.302768 0.000001
0.660051 0.311032 0.000001
0.669345 0.319321 0.000001
0.678637 0.327628 0.000001
0.687919 0.335955 0.000001
0.697192 0.344300 0.000001
0.706459 0.352666 0.000001
0.715715 0.361051 0.000001
0.724961 0.369455 0.000001
0.003736 0.035673 0.000001
0.010219 0.036032 0.000001
0.017759 0.036418 0.000001
0.025925 0.036832 0.000001
0.034515 0.037275 0.000001
0.043417 0.037752 0.000001
0.052555 0.038262 0.000001
0.061881 0.038810 0.000001
0.071354 0.039398 0.000001
0.098315 0.041269 0.000001
0.122811 0.043274 0.000001
0.145090 0.045408 0.000001
0.165528 0.047676 0.000001
0.184435 0.050083 0.000001
0.202052 0.052636 0.000001
0.218580 0.055341 0.000001
0.234179 0.058202 0.000001
0.248982 0.061225 0.000001
0.263102 0.064414 0.000001
0.276629 0.067776 0.000001
0.289639 0.071313 0.000001
0.302201 0.075031 0.000001
0.314370 0.078931 0.000001
0.326196 0.083018 0.000001
0.337718 0.087292 0.000001
0.348974 0.091757 0.000001
0.359996 0.096411 0.000001
0.370817 0.101256 0.000001
0.381445 0.106292 0.000001
0.391915 0.111515 0.000001
0.402242 0.116927 0.000001
0.412447 0.122521 0.000001
0.422538 0.128296 0.000001
0.432528 0.134246 0.000001
0.442432 0.140368 0.000001
0.452260 0.146653 0.000001
0.462020 0.153099 0.000001
0.471722 0.159697 0.000001
0.481368 0.166440 0.000001
0.490971 0.173322 0.000001
0.500533 0.180332 0.000001
0.510059 0.187465 0.000001
0.519552 0.194711 0.000001
0.529023 0.202067 0.000001
0.538469 0.209518 0.000001
0.547892 0.217060 0.000001
0.557301 0.224686 0.000001
0.566692 0.232388 0.000001
0.576073 0.240160 0.000001
0.585438 0.247995 0.000001
0.594791 0.255886 0.000001
0.604139 0.263830 0.000001
0.613476 0.271819 0.000001
0.622808 0.279855 0.000001
0.632131 0.287927 0.000001
0.641446 0.296034 0.000001
0.650758 0.304176 0.000001
0.660063 0.312345 0.000001
0.669357 0.320544 0.000001
0.678643 0.328770 0.000001
0.687929 0.337022 0.000001
0.697202 0.345295 0.000001
0.706469 0.353593 0.000001
0.715719 0.361915 0.000001
0.724965 0.370258 0.000001
0.005273 0.046485 0.000001
0.011967 0.046825 0.000001
0.019550 0.047190 0.000001
0.027692 0.047582 0.000001
0.036227 0.048003 0.000001
0.045057 0.048454 0.000001
0.054116 0.048937 0.000001
0.063358 0.049456 0.000001
0.072748 0.050012 0.000001
0.099484 0.051782 0.000001
0.123795 0.053677 0.000001
0.145926 0.055693 0.000001
0.166243 0.057834 0.000001
0.185052 0.060107 0.000001
0.202591 0.062516 0.000001
0.219052 0.065067 0.000001
0.234595 0.067767 0.000001
0.249351 0.070620 0.000001
0.263429 0.073631 0.000001
0.276920 0.076804 0.000001
0.289899 0.080147 0.000001
0.302435 0.083660 0.000001
0.314583 0.087349 0.000001
0.326387 0.091218 0.000001
0.337891 0.095267 0.000001
0.349132 0.099501 0.000001
0.360141 0.103918 0.000001
0.370942 0.108522 0.000001
0.381565 0.113314 0.000001
0.392025 0.118290 0.000001
0.402343 0.123451 0.000001
0.412539 0.128794 0.000001
0.422623 0.134317 0.000001
0.432608 0.140016 0.000001
0.442509 0.145888 0.000001
0.452327 0.151927 0.000001
0.462087 0.158127 0.000001
0.471778 0.164485 0.000001
0.481423 0.170991 0.000001
0.491020 0.177639 0.000001
0.500578 0.184424 0.000001
0.510105 0.191337 0.000001
0.519596 0.198373 0.000001
0.529061 0.205521 0.000001
0.538502 0.212773 0.000001
0.547926 0.220126 0.000001
0.557330 0.227570 0.000001
0.566721 0.235097 0.000001
0.576095 0.242701 0.000001
0.585461 0.250380 0.000001
0.594810 0.258121 0.000001
0.604159 0.265922 0.000001
0.613496 0.273778 0.000001
0.622826 0.281686 0.000001
0.632146 0.289639 0.000001
0.641464 0.297636 0.000001
0.650770 0.305670 0.000001
0.660076 0.313742 0.000001
0.669370 0.321847 0.000001
0.678656 0.329986 0.000001
0.687939 0.338156 0.000001
0.697212 0.346355 0.000001
0.706475 0.354583 0.000001
0.715735 0.362836 0.000001
0.724978 0.371118 0.000001
0.007018 0.057455 0.000001
0.013868 0.057775 0.000001
0.021474 0.058118 0.000001
0.029582 0.058487 0.000001
0.038053 0.058882 0.000001
0.046805 0.059306 0.000001
0.055779 0.059760 0.000001
0.064932 0.060248 0.000001
0.074233 0.060770 0.000001
0.100729 0.062432 0.000001
0.124845 0.064214 0.000001
0.146818 0.066107 0.000001
0.167012 0.068118 0.000001
0.185716 0.070254 0.000001
0.203167 0.072517 0.000001
0.219557 0.074915 0.000001
0.235041 0.077454 0.000001
0.249745 0.080137 0.000001
0.263779 0.082971 0.000001
0.277232 0.085959 0.000001
0.290180 0.089109 0.000001
0.302689 0.092421 0.000001
0.314811 0.095904 0.000001
0.326594 0.099557 0.000001
0.338080 0.103385 0.000001
0.349305 0.107391 0.000001
0.360297 0.111578 0.000001
0.371088 0.115945 0.000001
0.381695 0.120495 0.000001
0.392148 0.125227 0.000001
0.402454 0.130142 0.000001
0.412639 0.135237 0.000001
0.422713 0.140509 0.000001
0.432688 0.145959 0.000001
0.442585 0.151581 0.000001
0.452404 0.157373 0.000001
0.462149 0.163328 0.000001
0.471841 0.169442 0.000001
0.481478 0.175711 0.000001
0.491074 0.182127 0.000001
0.500630 0.188684 0.000001
0.510151 0.195374 0.000001
0.519638 0.202194 0.000001
0.529099 0.209131 0.000001
0.538538 0.216182 0.000001
0.547962 0.223340 0.000001
0.557359 0.230595 0.000001
0.566751 0.237944 0.000001
0.576125 0.245379 0.000001
0.585488 0.252891 0.000001
0.594839 0.260479 0.000001
0.604185 0.268132 0.000001
0.613520 0.275849 0.000001
0.622841 0.283623 0.000001
0.632167 0.291455 0.000001
0.641482 0.299331 0.000001
0.650789 0.307256 0.000001
0.660088 0.315224 0.000001
0.669386 0.323233 0.000001
0.678672 0.331280 0.000001
0.687952 0.339364 0.000001
0.697222 0.347483 0.000001
0.706489 0.355634 0.000001
0.715742 0.363817 0.000001
0.724985 0.372036 0.000001
0.008967 0.068511 0.000001
0.015928 0.068810 0.000001
0.023538 0.069131 0.000001
0.031599 0.069476 0.000001
0.039999 0.069845 0.000001
0.048666 0.070242 0.000001
0.057549 0.070667 0.000001
0.066608 0.071122 0.000001
0.075813 0.071611 0.000001
0.102053 0.073167 0.000001
0.125964 0.074833 0.000001
0.147771 0.076604 0.000001
0.167829 0.078488 0.000001
0.186424 0.080487 0.000001
0.203784 0.082607 0.000001
0.220096 0.084854 0.000001
0.235515 0.087235 0.000001
0.250168 0.089753 0.000001
0.264155 0.092412 0.000001
0.277569 0.095219 0.000001
0.290482 0.098180 0.000001
0.302959 0.101297 0.000001
0.315056 0.104576 0.000001
0.326815 0.108019 0.000001
0.338281 0.111633 0.000001
0.349488 0.115417 0.000001
0.360464 0.119378 0.000001
0.371237 0.123512 0.000001
0.381837 0.127826 0.000001
0.392275 0.132318 0.000001
0.402571 0.136990 0.000001
0.412747 0.141838 0.000001
0.422812 0.146865 0.000001
0.432783 0.152067 0.000001
0.442671 0.157443 0.000001
0.452479 0.162987 0.000001
0.462223 0.168699 0.000001
0.471910 0.174571 0.000001
0.481544 0.180601 0.000001
0.491132 0.186782 0.000001
0.500680 0.193109 0.000001
0.510197 0.199575 0.000001
0.519680 0.206174 0.000001
0.529139 0.212899 0.000001
0.538576 0.219744 0.000001
0.547993 0.226702 0.000001
0.557396 0.233767 0.000001
0.566780 0.240932 0.000001
0.576152 0.248191 0.000001
0.585516 0.255535 0.000001
0.594861 0.262962 0.000001
0.604205 0.270464 0.000001
0.613540 0.278036 0.000001
0.622861 0.285674 0.000001
0.632185 0.293372 0.000001
0.641500 0.301129 0.000001
0.650804 0.308939 0.000001
0.660104 0.316797 0.000001
0.669395 0.324705 0.000001
0.678681 0.332655 0.000001
0.687962 0.340649 0.000001
0.697232 0.348683 0.000001
0.706496 0.356759 0.000001
0.715752 0.364870 0.000001
0.724995 0.373013 0.000001
0.011119 0.079605 0.000001
0.018152 0.079884 0.000001
0.025747 0.080183 0.000001
0.033751 0.080505 0.000001
0.042071 0.080849 0.000001
0.050647 0.081218 0.000001
0.059431 0.081614 0.000001
0.068390 0.082039 0.000001
0.077495 0.082495 0.000001
0.103467 0.083945 0.000001
0.127157 0.085500 0.000001
0.148789 0.087153 0.000001
0.168704 0.088910 0.000001
0.187180 0.090777 0.000001
0.204444 0.092759 0.000001
0.220676 0.094860 0.000001
0.236026 0.097086 0.000001
0.250619 0.099442 0.000001
0.264558 0.101934 0.000001
0.277927 0.104567 0.000001
0.290806 0.107345 0.000001
0.303248 0.110272 0.000001
0.315317 0.113355 0.000001
0.327052 0.116596 0.000001
0.338497 0.119999 0.000001
0.349683 0.123566 0.000001
0.360644 0.127305 0.000001
0.371403 0.131214 0.000001
0.381984 0.135297 0.000001
0.392409 0.139553 0.000001
0.402701 0.143986 0.000001
0.412863 0.148595 0.000001
0.422926 0.153378 0.000001
0.432882 0.158337 0.000001
0.442757 0.163468 0.000001
0.452565 0.168768 0.000001
0.462302 0.174237 0.000001
0.471982 0.179867 0.000001
0.481608 0.185658 0.000001
0.491195 0.191604 0.000001
0.500735 0.197700 0.000001
0.510250 0.203938 0.000001
0.519732 0.210315 0.000001
0.529186 0.216827 0.000001
0.538620 0.223462 0.000001
0.548035 0.230218 0.000001
0.557433 0.237089 0.000001
0.566810 0.244065 0.000001
0.576182 0.251142 0.000001
0.585541 0.258314 0.000001
0.594892 0.265577 0.000001
0.604228 0.272920 0.000001
0.613563 0.280344 0.000001
0.622888 0.287837 0.000001
0.632206 0.295401 0.000001
0.641516 0.303031 0.000001
0.650823 0.310719 0.000001
0.660116 0.318466 0.000001
0.669408 0.326266 0.000001
0.678697 0.334116 0.000001
0.687971 0.342017 0.000001
0.697245 0.349961 0.000001
0.706509 0.357952 0.000001
0.715759 0.365983 0.000001
0.725002 0.374056 0.000001
0.018196 0.110491 0.000001
0.025263 0.110716 0.000001
0.032728 0.110959 0.000001
0.040513 0.111220 0.000001
0.048565 0.111500 0.000001
0.056846 0.111800 0.000001
0.065323 0.112121 0.000001
0.073970 0.112466 0.000001
0.082764 0.112836 0.000001
0.107901 0.114016 0.000001
0.130915 0.115284 0.000001
0.151998 0.116632 0.000001
0.171467 0.118067 0.000001
0.189576 0.119596 0.000001
0.206535 0.121220 0.000001
0.222511 0.122944 0.000001
0.237647 0.124776 0.000001
0.252057 0.126718 0.000001
0.265838 0.128778 0.000001
0.279072 0.130956 0.000001
0.291833 0.133262 0.000001
0.304176 0.135698 0.000001
0.316154 0.138270 0.000001
0.327812 0.140982 0.000001
0.339187 0.143839 0.000001
0.350310 0.146843 0.000001
0.361216 0.150000 0.000001
0.371925 0.153313 0.000001
0.382462 0.156786 0.000001
0.392850 0.160419 0.000001
0.403105 0.164218 0.000001
0.413240 0.168182 0.000001
0.423262 0.172314 0.000001
0.433196 0.176613 0.000001
0.443052 0.181082 0.000001
0.452834 0.185718 0.000001
0.462546 0.190523 0.000001
0.472206 0.195491 0.000001
0.481821 0.200623 0.000001
0.491388 0.205916 0.000001
0.500923 0.211366 0.000001
0.510419 0.216971 0.000001
0.519889 0.222728 0.000001
0.529332 0.228628 0.000001
0.538755 0.234668 0.000001
0.548162 0.240845 0.000001
0.557549 0.247154 0.000001
0.566920 0.253586 0.000001
0.576283 0.260139 0.000001
0.585635 0.266809 0.000001
0.594977 0.273586 0.000001
0.604311 0.280467 0.000001
0.613639 0.287447 0.000001
0.622955 0.294520 0.000001
0.632271 0.301682 0.000001
0.641576 0.308930 0.000001
0.650875 0.316257 0.000001
0.660172 0.323662 0.000001
0.669459 0.331136 0.000001
0.678742 0.338680 0.000001
0.688017 0.346294 0.000001
0.697285 0.353967 0.000001
0.706542 0.361701 0.000001
0.715793 0.369495 0.000001
0.725036 0.377342 0.000001
0.025889 0.137778 0.000001
0.032824 0.137964 0.000001
0.040070 0.138164 0.000001
0.047588 0.138377 0.000001
0.055344 0.138607 0.000001
0.063312 0.138855 0.000001
0.071469 0.139120 0.000001
0.079793 0.139404 0.000001
0.088268 0.139710 0.000001
0.112552 0.140682 0.000001
0.134869 0.141727 0.000001
0.155386 0.142841 0.000001
0.174392 0.144028 0.000001
0.192120 0.145295 0.000001
0.208759 0.146642 0.000001
0.224468 0.148076 0.000001
0.239377 0.149600 0.000001
0.253594 0.151221 0.000001
0.267209 0.152941 0.000001
0.280301 0.154766 0.000001
0.292937 0.156700 0.000001
0.305170 0.158750 0.000001
0.317054 0.160917 0.000001
0.328627 0.163208 0.000001
0.339928 0.165629 0.000001
0.350986 0.168181 0.000001
0.361832 0.170871 0.000001
0.372490 0.173702 0.000001
0.382983 0.176679 0.000001
0.393328 0.179803 0.000001
0.403538 0.183081 0.000001
0.413639 0.186512 0.000001
0.423634 0.190102 0.000001
0.433536 0.193850 0.000001
0.443365 0.197761 0.000001
0.453124 0.201832 0.000001
0.462814 0.206069 0.000001
0.472459 0.210469 0.000001
0.482049 0.215029 0.000001
0.491605 0.219755 0.000001
0.501117 0.224639 0.000001
0.510601 0.229682 0.000001
0.520057 0.234881 0.000001
0.529492 0.240233 0.000001
0.538906 0.245736 0.000001
0.548294 0.251386 0.000001
0.557673 0.257179 0.000001
0.567038 0.263109 0.000001
0.576395 0.269175 0.000001
0.585735 0.275369 0.000001
0.595072 0.281689 0.000001
0.604399 0.288130 0.000001
0.613714 0.294686 0.000001
0.623029 0.301352 0.000001
0.632340 0.308125 0.000001
0.641643 0.315000 0.000001
0.650936 0.321972 0.000001
0.660232 0.329036 0.000001
0.669509 0.336192 0.000001
0.678794 0.343432 0.000001
0.688065 0.350754 0.000001
0.697327 0.358154 0.000001
0.706582 0.365631 0.000001
0.715830 0.373180 0.000001
0.725067 0.380796 0.000001
0.033992 0.162063 0.000001
0.040705 0.162217 0.000001
0.047684 0.162383 0.000001
0.054905 0.162563 0.000001
0.062347 0.162754 0.000001
0.069991 0.162961 0.000001
0.077820 0.163182 0.000001
0.085818 0.163419 0.000001
0.093969 0.163673 0.000001
0.117387 0.164486 0.000001
0.138997 0.165360 0.000001
0.158936 0.166294 0.000001
0.177466 0.167289 0.000001
0.194798 0.168352 0.000001
0.211108 0.169484 0.000001
0.226538 0.170691 0.000001
0.241210 0.171976 0.000001
0.255224 0.173344 0.000001
0.268666 0.174798 0.000001
0.281607 0.176344 0.000001
0.294111 0.177986 0.000001
0.306232 0.179727 0.000001
0.318014 0.181573 0.000001
0.329497 0.183529 0.000001
0.340720 0.185600 0.000001
0.351709 0.187789 0.000001
0.362494 0.190102 0.000001
0.373095 0.192540 0.000001
0.383532 0.195112 0.000001
0.393835 0.197820 0.000001
0.404007 0.200666 0.000001
0.414065 0.203657 0.000001
0.424027 0.206795 0.000001
0.433905 0.210083 0.000001
0.443700 0.213523 0.000001
0.453434 0.217118 0.000001
0.463104 0.220869 0.000001
0.472724 0.224780 0.000001
0.482296 0.228850 0.000001
0.491831 0.233078 0.000001
0.501331 0.237466 0.000001
0.510799 0.242015 0.000001
0.520239 0.246722 0.000001
0.529658 0.251585 0.000001
0.539061 0.256604 0.000001
0.548440 0.261776 0.000001
0.557810 0.267099 0.000001
0.567164 0.272568 0.000001
0.576509 0.278182 0.000001
0.585846 0.283938 0.000001
0.595171 0.289829 0.000001
0.604491 0.295851 0.000001
0.613807 0.302006 0.000001
0.623111 0.308285 0.000001
0.632415 0.314682 0.000001
0.641713 0.321196 0.000001
0.651004 0.327823 0.000001
0.660291 0.334558 0.000001
0.669566 0.341396 0.000001
0.678845 0.348335 0.000001
0.688114 0.355372 0.000001
0.697370 0.362500 0.000001
0.706629 0.369714 0.000001
0.715867 0.377017 0.000001
0.725101 0.384403 0.000001
0.042410 0.183966 0.000001
0.048853 0.184097 0.000001
0.055535 0.184238 0.000001
0.062442 0.184389 0.000001
0.069558 0.184551 0.000001
0.076873 0.184726 0.000001
0.084370 0.184912 0.000001
0.092038 0.185113 0.000001
0.099862 0.185328 0.000001
0.122407 0.186014 0.000001
0.143297 0.186755 0.000001
0.162647 0.187545 0.000001
0.180690 0.188390 0.000001
0.197617 0.189292 0.000001
0.213584 0.190256 0.000001
0.228725 0.191283 0.000001
0.243150 0.192378 0.000001
0.256953 0.193544 0.000001
0.270212 0.194787 0.000001
0.282997 0.196109 0.000001
0.295363 0.197515 0.000001
0.307360 0.199010 0.000001
0.319038 0.200597 0.000001
0.330427 0.202282 0.000001
0.341565 0.204069 0.000001
0.352478 0.205961 0.000001
0.363196 0.207964 0.000001
0.373738 0.210082 0.000001
0.384125 0.212320 0.000001
0.394373 0.214682 0.000001
0.404505 0.217172 0.000001
0.414526 0.219795 0.000001
0.424452 0.222553 0.000001
0.434296 0.225451 0.000001
0.444065 0.228493 0.000001
0.453766 0.231681 0.000001
0.463414 0.235017 0.000001
0.473009 0.238505 0.000001
0.482562 0.242148 0.000001
0.492076 0.245944 0.000001
0.501555 0.249899 0.000001
0.511007 0.254009 0.000001
0.520434 0.258277 0.000001
0.529839 0.262703 0.000001
0.539227 0.267285 0.000001
0.548596 0.272026 0.000001
0.557956 0.276919 0.000001
0.567298 0.281965 0.000001
0.576632 0.287161 0.000001
0.585962 0.292507 0.000001
0.595278 0.297997 0.000001
0.604594 0.303630 0.000001
0.613897 0.309403 0.000001
0.623200 0.315310 0.000001
0.632496 0.321349 0.000001
0.641785 0.327517 0.000001
0.651072 0.333809 0.000001
0.660353 0.340221 0.000001
0.669629 0.346751 0.000001
0.678899 0.353393 0.000001
0.688163 0.360145 0.000001
0.697420 0.367001 0.000001
0.706672 0.373960 0.000001
0.715911 0.381013 0.000001
0.725142 0.388170 0.000001
0.051079 0.203956 0.000001
0.057225 0.204069 0.000001
0.063595 0.204189 0.000001
0.070178 0.204318 0.000001
0.076966 0.204457 0.000001
0.083947 0.204604 0.000001
0.091111 0.204764 0.000001
0.098447 0.204936 0.000001
0.105943 0.205121 0.000001
0.127611 0.205709 0.000001
0.147775 0.206341 0.000001
0.166526 0.207019 0.000001
0.184069 0.207741 0.000001
0.200577 0.208516 0.000001
0.216193 0.209342 0.000001
0.231034 0.210224 0.000001
0.245203 0.211165 0.000001
0.258785 0.212169 0.000001
0.271853 0.213241 0.000001
0.284471 0.214382 0.000001
0.296693 0.215599 0.000001
0.308563 0.216892 0.000001
0.320127 0.218269 0.000001
0.331417 0.219731 0.000001
0.342468 0.221285 0.000001
0.353303 0.222931 0.000001
0.363950 0.224679 0.000001
0.374430 0.226532 0.000001
0.384760 0.228491 0.000001
0.394959 0.230565 0.000001
0.405037 0.232756 0.000001
0.415019 0.235068 0.000001
0.424906 0.237504 0.000001
0.434711 0.240071 0.000001
0.444447 0.242772 0.000001
0.454123 0.245610 0.000001
0.463746 0.248591 0.000001
