luts/Rec2100_PQ/DJI_Osmo_DLogM_to_Rec2100_PQ_BT2408_Neutral.cube
TITLE "OpenOSV D-Log M to Rec.2100 PQ, BT.2408 Neutral - DJI Osmo 360 / Pocket 3"
LUT_3D_SIZE 5
DOMAIN_MIN 0.000000 0.000000 0.000000
DOMAIN_MAX 1.000000 1.000000 1.000000
0.000001 0.000001 0.000001
0.238811 0.088039 0.000001
0.397950 0.178203 0.000001
0.546744 0.280185 0.000001
0.698487 0.400203 0.000001
0.151543 0.269000 0.000001
0.270989 0.276530 0.000001
0.409463 0.300064 0.000001
0.550821 0.347803 0.000001
0.699844 0.430777 0.000001
0.276986 0.437090 0.000001
0.333838 0.439077 0.000001
0.439627 0.446678 0.000001
0.564497 0.466142 0.000001
0.705060 0.508772 0.000001
0.405228 0.590515 0.000001
0.428846 0.591141 0.000001
0.493871 0.593683 0.000001
0.593327 0.601112 0.000001
0.718419 0.620439 0.000001
0.544942 0.744275 0.000001
0.553590 0.744472 0.000001
0.583972 0.745290 0.000001
0.647586 0.747829 0.000001
0.747191 0.755248 0.000001
0.078182 0.000001 0.244515
0.244933 0.047103 0.263278
0.399532 0.169420 0.282752
0.547213 0.277062 0.291907
0.698603 0.399051 0.265632
0.164544 0.267403 0.271366
0.274768 0.274768 0.274768
0.410724 0.298205 0.282214
0.551239 0.346307 0.285853
0.699946 0.429915 0.251687
0.280819 0.436594 0.258209
0.336007 0.438570 0.257974
0.440470 0.446163 0.256272
0.564796 0.465625 0.245002
0.705133 0.508324 0.102149
0.406503 0.590306 0.000001
0.429857 0.590929 0.000001
0.494420 0.593475 0.000001
0.593548 0.600910 0.000001
0.718494 0.620257 0.000001
0.545381 0.744208 0.000001
0.553986 0.744405 0.000001
0.584279 0.745227 0.000001
0.647758 0.747759 0.000001
0.747258 0.755191 0.000001
0.161619 0.000001 0.405434
0.268439 0.000001 0.413189
0.405986 0.105991 0.429759
0.549347 0.262588 0.449132
0.699295 0.394244 0.463962
0.204240 0.259499 0.420779
0.289681 0.266456 0.424716
0.416154 0.289920 0.435360
0.553236 0.339915 0.450153
0.700621 0.426408 0.463058
0.295899 0.435050 0.440110
0.345161 0.436984 0.441062
0.444442 0.444442 0.444442
0.566448 0.463801 0.451272
0.705756 0.506721 0.458516
0.411993 0.589786 0.437217
0.434321 0.590409 0.437318
0.497007 0.592937 0.437711
0.594740 0.600339 0.438333
0.718958 0.619657 0.436142
0.547182 0.743928 0.000001
0.555649 0.744124 0.000001
0.585541 0.744950 0.000001
0.648468 0.747487 0.000001
0.747551 0.754928 0.000001
0.258024 0.000001 0.555186
0.316661 0.000001 0.558022
0.425872 0.000001 0.566858
0.555801 0.180258 0.582380
0.701461 0.376897 0.602470
0.274484 0.212174 0.558484
0.327237 0.221100 0.561185
0.431740 0.251856 0.569691
0.559318 0.314925 0.584448
0.702747 0.414183 0.602903
0.333258 0.429237 0.577462
0.370316 0.431074 0.578466
0.456325 0.438270 0.582168
0.571560 0.457518 0.590602
0.707714 0.501362 0.604276
0.428070 0.588254 0.593857
0.447687 0.588864 0.594158
0.505086 0.591343 0.595365
0.598644 0.598644 0.598644
0.720606 0.617875 0.605570
0.553132 0.743468 0.592519
0.561198 0.743665 0.592564
0.589881 0.744479 0.592746
0.651096 0.747001 0.593262
0.748786 0.754397 0.594279
0.373382 0.000001 0.707370
0.399722 0.000001 0.708319
0.470183 0.000001 0.711895
0.575896 0.000001 0.720378
0.708021 0.275537 0.735820
0.378868 0.000001 0.707380
0.404034 0.000001 0.708325
0.472520 0.000001 0.711878
0.576889 0.000001 0.720317
0.709175 0.358023 0.736507
0.405783 0.401250 0.715222
0.427043 0.403136 0.715952
0.488178 0.410693 0.718745
0.586475 0.431783 0.725755
0.713701 0.481357 0.739066
0.468288 0.582570 0.731873
0.482495 0.583149 0.732173
0.527924 0.585530 0.733387
0.610368 0.592617 0.736831
0.725704 0.611758 0.744869
0.570368 0.741927 0.747741
0.577378 0.742119 0.747836
0.602792 0.742918 0.748228
0.659150 0.745396 0.749425
0.752695 0.752695 0.752695
