luts/Rec2100_PQ/DJI_Osmo_DLogM_to_Rec2100_PQ_BT2408_Neutral.cube
TITLE "OpenOSV D-Log M to Rec.2100 PQ, BT.2408 Neutral - DJI Osmo 360 / Pocket 3"
LUT_3D_SIZE 9
DOMAIN_MIN 0.000000 0.000000 0.000000
DOMAIN_MAX 1.000000 1.000000 1.000000
0.000001 0.000001 0.000001
0.115522 0.033778 0.000001
0.238811 0.088039 0.000001
0.322197 0.132698 0.000001
0.397950 0.178203 0.000001
0.472150 0.227043 0.000001
0.546744 0.280185 0.000001
0.622231 0.337940 0.000001
0.698487 0.400203 0.000001
0.065426 0.134369 0.000001
0.135636 0.139183 0.000001
0.246179 0.158003 0.000001
0.325969 0.181430 0.000001
0.400033 0.211469 0.000001
0.473330 0.249068 0.000001
0.547415 0.294340 0.000001
0.622614 0.346800 0.000001
0.698702 0.405627 0.000001
0.151543 0.269000 0.000001
0.185486 0.270275 0.000001
0.270989 0.276530 0.000001
0.341213 0.286055 0.000001
0.409463 0.300064 0.000001
0.479061 0.320086 0.000001
0.550821 0.347803 0.000001
0.624598 0.384557 0.000001
0.699844 0.430777 0.000001
0.215577 0.357694 0.000001
0.234980 0.358296 0.000001
0.298988 0.361380 0.000001
0.360013 0.366460 0.000001
0.422328 0.374518 0.000001
0.487598 0.386813 0.000001
0.556252 0.404876 0.000001
0.627908 0.430450 0.000001
0.701796 0.465124 0.000001
0.276986 0.437090 0.000001
0.288485 0.437410 0.000001
0.333838 0.439077 0.000001
0.384279 0.441932 0.000001
0.439627 0.446678 0.000001
0.499782 0.454324 0.000001
0.564497 0.466142 0.000001
0.633222 0.483703 0.000001
0.705060 0.508772 0.000001
0.339764 0.513976 0.000001
0.346630 0.514156 0.000001
0.377089 0.515083 0.000001
0.416038 0.516711 0.000001
0.462875 0.519498 0.000001
0.516679 0.524158 0.000001
0.576488 0.531707 0.000001
0.641376 0.543445 0.000001
0.710317 0.560959 0.000001
0.405228 0.590515 0.000001
0.409313 0.590616 0.000001
0.428846 0.591141 0.000001
0.456791 0.592065 0.000001
0.493871 0.593683 0.000001
0.539743 0.596459 0.000001
0.593327 0.601112 0.000001
0.653318 0.608665 0.000001
0.718419 0.620439 0.000001
0.473691 0.667309 0.000001
0.476102 0.667362 0.000001
0.488169 0.667662 0.000001
0.506897 0.668189 0.000001
0.534097 0.669111 0.000001
0.570705 0.670725 0.000001
0.616465 0.673502 0.000001
0.670189 0.678166 0.000001
0.730331 0.685733 0.000001
0.544942 0.744275 0.000001
0.546348 0.744307 0.000001
0.553590 0.744472 0.000001
0.565457 0.744767 0.000001
0.583972 0.745290 0.000001
0.611012 0.746216 0.000001
0.647586 0.747829 0.000001
0.693417 0.750600 0.000001
0.747191 0.755248 0.000001
0.029304 0.000001 0.119028
0.119287 0.016141 0.130741
0.239789 0.083794 0.144587
0.322642 0.130457 0.148978
0.398166 0.176877 0.146709
0.472251 0.226225 0.130543
0.546775 0.279673 0.000001
0.622255 0.337628 0.000001
0.698497 0.400018 0.000001
0.072442 0.133355 0.135877
0.138052 0.138052 0.138052
0.246986 0.156785 0.143551
0.326362 0.180353 0.145407
0.400227 0.210611 0.141226
0.473422 0.248435 0.121413
0.547449 0.293898 0.000001
0.622631 0.346513 0.000001
0.698715 0.405448 0.000001
0.153672 0.268659 0.120591
0.186845 0.269935 0.120203
0.271511 0.276179 0.117530
0.341476 0.285697 0.110510
0.409599 0.299718 0.089737
0.479124 0.319772 0.000001
0.550852 0.347543 0.000001
0.624619 0.384357 0.000001
0.699850 0.430638 0.000001
0.216625 0.357493 0.000001
0.235807 0.358093 0.000001
0.299389 0.361180 0.000001
0.360227 0.366267 0.000001
0.422446 0.374329 0.000001
0.487667 0.386636 0.000001
0.556286 0.404720 0.000001
0.627929 0.430323 0.000001
0.701806 0.465020 0.000001
0.277576 0.436980 0.000001
0.289005 0.437302 0.000001
0.334159 0.438972 0.000001
0.384474 0.441827 0.000001
0.439742 0.446577 0.000001
0.499848 0.454223 0.000001
0.564531 0.466051 0.000001
0.633243 0.483622 0.000001
0.705070 0.508702 0.000001
0.340107 0.513920 0.000001
0.346951 0.514095 0.000001
0.377324 0.515027 0.000001
0.416196 0.516655 0.000001
0.462979 0.519443 0.000001
0.516740 0.524106 0.000001
0.576523 0.531654 0.000001
0.641397 0.543393 0.000001
0.710331 0.560914 0.000001
0.405430 0.590482 0.000001
0.409507 0.590585 0.000001
0.429001 0.591105 0.000001
0.456908 0.592037 0.000001
0.493956 0.593650 0.000001
0.539797 0.596428 0.000001
0.593363 0.601081 0.000001
0.653340 0.608636 0.000001
0.718429 0.620410 0.000001
0.473813 0.667286 0.000001
0.476217 0.667343 0.000001
0.488271 0.667640 0.000001
0.506983 0.668163 0.000001
0.534163 0.669092 0.000001
0.570754 0.670706 0.000001
0.616500 0.673486 0.000001
0.670208 0.678146 0.000001
0.730338 0.685717 0.000001
0.545009 0.744265 0.000001
0.546418 0.744293 0.000001
0.553650 0.744461 0.000001
0.565513 0.744756 0.000001
0.584025 0.745283 0.000001
0.611053 0.746205 0.000001
0.647614 0.747819 0.000001
0.693437 0.750589 0.000001
0.747202 0.755241 0.000001
0.078182 0.000001 0.244515
0.137429 0.000001 0.249544
0.244933 0.047103 0.263278
0.325162 0.116663 0.274202
0.399532 0.169420 0.282752
0.473020 0.221866 0.289067
0.547213 0.277062 0.291907
0.622476 0.336045 0.287747
0.698603 0.399051 0.265632
0.099828 0.126689 0.254503
0.150169 0.131049 0.257390
0.251452 0.149808 0.266994
0.328707 0.174396 0.275515
0.401542 0.206012 0.282921
0.474175 0.245147 0.288605
0.547874 0.291681 0.291029
0.622852 0.345070 0.286473
0.698817 0.404530 0.263598
0.164544 0.267403 0.271366
0.194224 0.268643 0.271979
0.274768 0.274768 0.274768
0.343340 0.284198 0.278330
0.410724 0.298205 0.282214
0.479802 0.318349 0.285397
0.551239 0.346307 0.285853
0.624825 0.383371 0.279146
0.699946 0.429915 0.251687
0.222390 0.356893 0.273130
0.240489 0.357487 0.273307
0.301903 0.360544 0.274153
0.361722 0.365591 0.275307
0.423364 0.373619 0.276525
0.488225 0.385909 0.276962
0.556610 0.404011 0.274454
0.628104 0.429678 0.263503
0.701885 0.464486 0.224330
0.280819 0.436594 0.258209
0.291886 0.436911 0.258177
0.336007 0.438570 0.257974
0.385639 0.441418 0.257489
0.440470 0.446163 0.256272
0.500294 0.453798 0.253151
0.564796 0.465625 0.245002
0.633384 0.483210 0.222038
0.705133 0.508324 0.102149
0.341945 0.513630 0.179793
0.348667 0.513805 0.179313
0.378592 0.514734 0.176665
0.417071 0.516361 0.171571
0.463541 0.519148 0.161088
0.517081 0.523813 0.135570
0.576717 0.531367 0.000001
0.641506 0.543126 0.000001
0.710391 0.560670 0.000001
0.406503 0.590306 0.000001
0.410532 0.590403 0.000001
0.429857 0.590929 0.000001
0.457561 0.591855 0.000001
0.494420 0.593475 0.000001
0.540101 0.596253 0.000001
0.593548 0.600910 0.000001
0.653445 0.608472 0.000001
0.718494 0.620257 0.000001
0.474440 0.667189 0.000001
0.476834 0.667246 0.000001
0.488815 0.667542 0.000001
0.507445 0.668069 0.000001
0.534520 0.668997 0.000001
0.571011 0.670611 0.000001
0.616669 0.673391 0.000001
0.670316 0.678053 0.000001
0.730403 0.685627 0.000001
0.545381 0.744208 0.000001
0.546780 0.744237 0.000001
0.553986 0.744405 0.000001
0.565815 0.744700 0.000001
0.584279 0.745227 0.000001
0.611252 0.746149 0.000001
0.647758 0.747759 0.000001
0.693529 0.750533 0.000001
0.747258 0.755191 0.000001
0.119245 0.000001 0.328954
0.160298 0.000001 0.331588
0.254264 0.000001 0.341165
0.329450 0.075326 0.351013
0.401911 0.153363 0.361077
0.474373 0.213336 0.370198
0.547985 0.272170 0.377944
0.622914 0.333170 0.383213
0.698850 0.397359 0.383488
0.131106 0.107306 0.332661
0.168275 0.112142 0.335022
0.258863 0.133662 0.343890
0.332724 0.161775 0.352960
0.403840 0.196841 0.361948
0.475502 0.238860 0.370457
0.548640 0.287563 0.377856
0.623291 0.342463 0.382905
0.699064 0.402925 0.383010
0.180956 0.264876 0.351046
0.206101 0.266071 0.351752
0.280355 0.272033 0.355066
0.346592 0.281353 0.359595
0.412714 0.295379 0.365191
0.481008 0.315731 0.371357
0.551962 0.344076 0.377184
0.625245 0.381637 0.381158
0.700187 0.428671 0.380367
0.231910 0.355834 0.360452
0.248379 0.356416 0.360742
0.306312 0.359424 0.362191
0.364410 0.364410 0.364410
0.425061 0.372383 0.367522
0.489298 0.384657 0.371359
0.557277 0.402808 0.375229
0.628508 0.428604 0.377593
0.702124 0.463605 0.375279
0.286490 0.436053 0.363308
0.296975 0.436366 0.363426
0.339376 0.438015 0.364013
0.387850 0.440842 0.364951
0.441911 0.445554 0.366338
0.501224 0.453165 0.368112
0.565390 0.464976 0.369770
0.633758 0.482578 0.369861
0.705359 0.507753 0.364883
0.345340 0.513335 0.355152
0.351851 0.513511 0.355169
0.381022 0.514439 0.355262
0.418811 0.516058 0.355394
0.464742 0.518833 0.355523
0.517880 0.523483 0.355462
0.577236 0.531020 0.354610
0.641828 0.542761 0.351289
0.710576 0.560301 0.340974
0.408469 0.590080 0.316379
0.412431 0.590180 0.316305
0.431447 0.590705 0.315900
0.458805 0.591631 0.315158
0.495316 0.593248 0.313760
0.540708 0.596019 0.311052
0.593942 0.600672 0.305525
0.653686 0.608225 0.293293
0.718619 0.620005 0.261252
0.475551 0.667009 0.000001
0.477919 0.667066 0.000001
0.489788 0.667362 0.000001
0.508263 0.667889 0.000001
0.535161 0.668814 0.000001
0.571465 0.670436 0.000001
0.616970 0.673219 0.000001
0.670500 0.677884 0.000001
0.730514 0.685465 0.000001
0.546030 0.744107 0.000001
0.547420 0.744138 0.000001
0.554584 0.744303 0.000001
0.566354 0.744602 0.000001
0.584732 0.745122 0.000001
0.611608 0.746054 0.000001
0.648015 0.747667 0.000001
0.693699 0.750441 0.000001
0.747367 0.755095 0.000001
0.161619 0.000001 0.405434
0.189559 0.000001 0.406902
0.268439 0.000001 0.413189
0.337386 0.000001 0.420799
0.405986 0.105991 0.429759
0.476728 0.194951 0.439648
0.549347 0.262588 0.449132
0.623698 0.327776 0.457607
0.699295 0.394244 0.463962
0.167708 0.000001 0.405450
0.193878 0.000001 0.406898
0.270702 0.075660 0.413605
0.339440 0.128446 0.421836
0.407777 0.176262 0.430835
0.477815 0.226031 0.440168
0.549982 0.279611 0.449318
0.624064 0.337594 0.457598
0.699503 0.399984 0.463825
0.204240 0.259499 0.420779
0.224220 0.260648 0.421460
0.289681 0.266456 0.424716
0.352163 0.275719 0.429339
0.416154 0.289920 0.435360
0.483127 0.310767 0.442490
0.553236 0.339915 0.450153
0.625996 0.378441 0.457464
0.700621 0.426408 0.463058
0.246848 0.353772 0.432146
0.261085 0.354338 0.432469
0.313792 0.357276 0.434082
0.369068 0.362179 0.436613
0.428030 0.370078 0.440313
0.491188 0.382333 0.445230
0.558450 0.400589 0.451047
0.629221 0.426639 0.456978
0.702545 0.462011 0.461566
0.295899 0.435050 0.440110
0.305487 0.435358 0.440265
0.345161 0.436984 0.441062
0.391691 0.439772 0.442381
0.444442 0.444442 0.444442
0.502874 0.452011 0.447426
0.566448 0.463801 0.451272
0.634418 0.481437 0.455425
0.705756 0.506721 0.458516
0.351148 0.512800 0.443332
0.357325 0.512978 0.443397
0.385232 0.513893 0.443753
0.421862 0.515498 0.444356
0.466848 0.518258 0.445332
0.519296 0.522886 0.446812
0.578162 0.530399 0.448796
0.642423 0.542123 0.450899
0.710945 0.559683 0.451878
0.411993 0.589786 0.437217
0.415828 0.589884 0.437233
0.434321 0.590409 0.437318
0.461082 0.591329 0.437472
0.497007 0.592937 0.437711
0.541895 0.595703 0.438033
0.594740 0.600339 0.438333
0.654208 0.607882 0.438150
0.718958 0.619657 0.436142
0.477634 0.666823 0.406289
0.479957 0.666880 0.406258
0.491624 0.667173 0.406119
0.509827 0.667703 0.405866
0.536407 0.668624 0.405390
0.572393 0.670234 0.404491
0.617615 0.673016 0.402720
0.670921 0.677669 0.399065
0.730772 0.685241 0.390982
0.547182 0.743928 0.000001
0.548557 0.743959 0.000001
0.555649 0.744124 0.000001
0.567312 0.744426 0.000001
0.585541 0.744950 0.000001
0.612242 0.745871 0.000001
0.648468 0.747487 0.000001
0.694007 0.750267 0.000001
0.747551 0.754928 0.000001
0.207569 0.000001 0.480187
0.226064 0.000001 0.481017
0.288693 0.000001 0.484945
0.350036 0.000001 0.490422
0.413558 0.000001 0.497455
0.480775 0.140688 0.506179
0.551722 0.241869 0.516119
0.625071 0.317192 0.525910
0.700078 0.388395 0.534867
0.211373 0.000001 0.480196
0.229147 0.000001 0.481021
0.290302 0.000001 0.484922
0.350953 0.000001 0.490376
0.414380 0.102976 0.497682
0.481786 0.195193 0.506789
0.552336 0.263034 0.516422
0.625434 0.328128 0.526029
0.700287 0.394478 0.534870
0.235304 0.247035 0.488982
0.250157 0.248187 0.489567
0.304617 0.254074 0.492419
0.361445 0.263672 0.496642
0.422025 0.278654 0.502414
0.486789 0.300857 0.509634
0.555467 0.331846 0.517905
0.627320 0.372394 0.526605
0.701392 0.422213 0.534865
0.268947 0.349573 0.500011
0.280484 0.350120 0.500327
0.326049 0.352972 0.501909
0.376963 0.357774 0.504442
0.433151 0.365610 0.508232
0.494474 0.377913 0.513462
0.560518 0.396426 0.520020
0.630478 0.422994 0.527414
0.703288 0.459086 0.534768
0.310842 0.433118 0.509682
0.319184 0.433419 0.509853
0.354823 0.435009 0.510710
0.398276 0.437744 0.512152
0.448836 0.442350 0.514451
0.505766 0.449854 0.517883
0.568312 0.461629 0.522581
0.635582 0.479345 0.528320
0.706466 0.504842 0.534366
0.360814 0.511807 0.517186
0.366471 0.511977 0.517274
0.392398 0.512888 0.517721
0.427130 0.514473 0.518487
0.470533 0.517201 0.519768
0.521785 0.521785 0.521785
0.579806 0.529262 0.524752
0.643474 0.540972 0.528645
0.711599 0.558558 0.532985
0.418027 0.589251 0.520607
0.421668 0.589349 0.520648
0.439294 0.589867 0.520856
0.465046 0.590781 0.521219
0.499966 0.592379 0.521834
0.543985 0.595129 0.522841
0.596157 0.599743 0.524382
0.655139 0.607259 0.526486
0.719556 0.619024 0.528821
0.481291 0.666527 0.515329
0.483544 0.666584 0.515339
0.494875 0.666880 0.515405
0.512616 0.667400 0.515508
0.538643 0.668318 0.515688
0.574073 0.669927 0.515977
0.618796 0.672692 0.516393
0.671726 0.677343 0.516855
0.731300 0.684895 0.516975
0.549349 0.743766 0.487156
0.550699 0.743794 0.487147
0.557668 0.743959 0.487084
0.569141 0.744258 0.486976
0.587114 0.744777 0.486773
0.613508 0.745702 0.486394
0.649419 0.747315 0.485670
0.694666 0.750083 0.484228
0.747992 0.754728 0.481195
0.258024 0.000001 0.555186
0.269936 0.000001 0.555657
0.316661 0.000001 0.558022
0.368612 0.000001 0.561655
0.425872 0.000001 0.566858
0.488303 0.000001 0.573690
0.555801 0.180258 0.582380
0.627472 0.294219 0.592438
0.701461 0.376897 0.602470
0.260389 0.000001 0.555189
0.272020 0.000001 0.555662
0.317964 0.000001 0.558019
0.369422 0.000001 0.561639
0.426370 0.000001 0.566823
0.488604 0.000001 0.573646
0.556370 0.220383 0.582730
0.627816 0.308047 0.592614
0.701663 0.383709 0.602544
0.274484 0.212174 0.558484
0.284872 0.213634 0.558936
0.327237 0.221100 0.561185
0.376318 0.233213 0.564668
0.431740 0.251856 0.569691
0.492996 0.278758 0.576351
0.559318 0.314925 0.584448
0.629632 0.360356 0.593509
0.702747 0.414183 0.602903
0.299541 0.340401 0.567860
0.308250 0.340936 0.568140
0.345185 0.343746 0.569550
0.389894 0.348526 0.571849
0.441766 0.356440 0.575384
0.500111 0.369068 0.580435
0.564099 0.388293 0.587044
0.632681 0.416014 0.594920
0.704601 0.453583 0.603465
0.333258 0.429237 0.577462
0.340055 0.429531 0.577626
0.370316 0.431074 0.578466
0.409227 0.433746 0.579880
0.456325 0.438270 0.582168
0.510760 0.445715 0.585666
0.571560 0.457518 0.590602
0.637637 0.475434 0.596953
0.707714 0.501362 0.604276
0.376239 0.509907 0.586511
0.381162 0.510073 0.586603
0.404199 0.510959 0.587078
0.436014 0.512516 0.587898
0.476862 0.515200 0.589270
0.526117 0.519729 0.591483
0.582689 0.527147 0.594819
0.645335 0.538842 0.599451
0.712762 0.556507 0.605189
0.428070 0.588254 0.593857
0.431406 0.588351 0.593908
0.447687 0.588864 0.594158
0.471828 0.589764 0.594602
0.505086 0.591343 0.595365
0.547633 0.594063 0.596631
0.598644 0.598644 0.598644
0.656781 0.606123 0.601619
0.720606 0.617875 0.605570
0.487558 0.665989 0.597405
0.489692 0.666046 0.597430
0.500464 0.666335 0.597552
0.517441 0.666852 0.597761
0.542545 0.667766 0.598131
0.577014 0.669364 0.598763
0.620891 0.672110 0.599786
0.673143 0.676735 0.601371
0.732225 0.684275 0.603557
0.553132 0.743468 0.592519
0.554437 0.743500 0.592527
0.561198 0.743665 0.592564
0.572350 0.743956 0.592628
0.589881 0.744479 0.592746
0.615737 0.745396 0.592942
0.651096 0.747001 0.593262
0.695848 0.749761 0.593720
0.748786 0.754397 0.594279
0.313316 0.000001 0.630952
0.320801 0.000001 0.631220
0.353564 0.000001 0.632606
0.394855 0.000001 0.634880
0.444153 0.000001 0.638397
0.500664 0.000001 0.643480
0.563389 0.000001 0.650248
0.631584 0.225155 0.658960
0.703876 0.351829 0.669108
0.314769 0.000001 0.630952
0.322148 0.000001 0.631226
0.354549 0.000001 0.632606
0.395528 0.000001 0.634868
0.444596 0.000001 0.638382
0.500939 0.000001 0.643465
0.563559 0.000001 0.650223
0.631913 0.253205 0.659156
0.704072 0.360560 0.669209
0.322208 0.000001 0.630967
0.329077 0.000001 0.631232
0.359665 0.000001 0.632600
0.399072 0.000001 0.634841
0.447183 0.132869 0.638612
0.503207 0.208704 0.644213
0.565810 0.271392 0.651487
0.633612 0.333399 0.660160
0.705110 0.397744 0.669734
0.339204 0.317819 0.637267
0.345346 0.318398 0.637487
0.373215 0.321450 0.638630
0.410082 0.326683 0.640528
0.455767 0.335436 0.643535
0.509508 0.349515 0.647999
0.570200 0.371014 0.654118
0.636493 0.401785 0.661790
0.706896 0.442785 0.670607
0.364685 0.420943 0.645652
0.369840 0.421228 0.645795
0.393805 0.422737 0.646540
0.426684 0.425366 0.647819
0.468688 0.429862 0.649913
0.519202 0.437345 0.653176
0.577143 0.449369 0.657930
0.641197 0.467842 0.664280
0.709905 0.494736 0.671987
0.399471 0.506116 0.654665
0.403485 0.506272 0.654755
0.422755 0.507140 0.655213
0.450461 0.508659 0.656006
0.487447 0.511281 0.657346
0.533508 0.515742 0.659539
0.587667 0.523106 0.662910
0.648581 0.534824 0.667722
0.714807 0.552671 0.673980
0.444113 0.586350 0.663446
0.447014 0.586442 0.663496
0.461353 0.586944 0.663759
0.483084 0.587834 0.664223
0.513756 0.589382 0.665027
0.553913 0.592059 0.666373
0.602972 0.596589 0.668542
0.659664 0.604019 0.671847
0.722461 0.615755 0.676451
0.497991 0.664986 0.670737
0.499943 0.665040 0.670763
0.509846 0.665326 0.670905
0.525613 0.665841 0.671159
0.549225 0.666745 0.671600
0.582115 0.668324 0.672358
0.624545 0.671048 0.673620
0.675637 0.675637 0.675637
0.733871 0.683141 0.678624
0.559604 0.742928 0.674358
0.560842 0.742956 0.674378
0.567255 0.743121 0.674441
0.577875 0.743415 0.674562
0.594670 0.743931 0.674779
0.619630 0.744844 0.675155
0.654044 0.746437 0.675790
0.697943 0.749178 0.676835
0.750203 0.753796 0.678441
0.373382 0.000001 0.707370
0.377985 0.000001 0.707527
0.399722 0.000001 0.708319
0.430270 0.000001 0.709674
0.470183 0.000001 0.711895
0.519077 0.000001 0.715354
0.575896 0.000001 0.720378
0.639249 0.000001 0.727106
0.708021 0.275537 0.735820
0.374261 0.000001 0.707373
0.378828 0.000001 0.707527
0.400410 0.000001 0.708319
0.430792 0.000001 0.709674
0.470553 0.000001 0.711891
0.519323 0.000001 0.715344
0.576054 0.000001 0.720371
0.639342 0.000001 0.727095
0.708202 0.294255 0.735931
0.378868 0.000001 0.707380
0.383238 0.000001 0.707533
0.404034 0.000001 0.708325
0.433559 0.000001 0.709667
0.472520 0.000001 0.711878
0.520641 0.000001 0.715313
0.576889 0.000001 0.720317
0.640322 0.241917 0.727493
0.709175 0.358023 0.736507
0.387682 0.236447 0.708676
0.391762 0.237636 0.708834
0.411365 0.243760 0.709674
0.439592 0.253862 0.711096
0.477371 0.269758 0.713415
0.524593 0.293336 0.717013
0.580278 0.325995 0.722199
0.642945 0.368198 0.729095
0.710854 0.419412 0.737481
0.405783 0.401250 0.715222
0.409422 0.401552 0.715344
0.427043 0.403136 0.715952
0.452903 0.405913 0.717000
0.488178 0.410693 0.718745
0.532980 0.418729 0.721548
0.586475 0.431783 0.725755
0.647271 0.451975 0.731610
0.713701 0.481357 0.739066
0.432154 0.498081 0.723147
0.435195 0.498241 0.723225
0.450168 0.499083 0.723635
0.472746 0.500571 0.724346
0.504437 0.503157 0.725557
0.545750 0.507592 0.727552
0.596081 0.514987 0.730686
0.654155 0.526897 0.735285
0.718361 0.545244 0.741493
0.468288 0.582570 0.731873
0.470647 0.582661 0.731914
0.482495 0.583149 0.732173
0.500965 0.584014 0.732616
0.527924 0.585530 0.733387
0.564430 0.588154 0.734692
0.610368 0.592617 0.736831
0.664650 0.599999 0.740126
0.725704 0.611758 0.744869
0.514641 0.663076 0.740496
0.516336 0.663129 0.740524
0.524999 0.663411 0.740675
0.538987 0.663916 0.740933
0.560349 0.664804 0.741391
0.590750 0.666354 0.742182
0.630832 0.669041 0.743510
0.679978 0.673575 0.745660
0.736747 0.681032 0.748931
0.570368 0.741927 0.747741
0.571505 0.741958 0.747755
0.577378 0.742119 0.747836
0.587167 0.742403 0.747978
0.602792 0.742918 0.748228
0.626298 0.743819 0.748669
0.659150 0.745396 0.749425
0.701607 0.748112 0.750685
0.752695 0.752695 0.752695
