luts/Rec2100_PQ/DJI_Osmo_DLogM_to_Rec2100_PQ_ACES2_Bright.cube
TITLE "OpenOSV D-Log M to Rec.2100 PQ, ACES 2 Bright (outdoor) - DJI Osmo 360 / Pocket 3"
LUT_3D_SIZE 5
DOMAIN_MIN 0.000000 0.000000 0.000000
DOMAIN_MAX 1.000000 1.000000 1.000000
0.000001 0.000001 0.000001
0.241727 0.028819 0.000001
0.419149 0.118707 0.000001
0.557259 0.240262 0.000001
0.677180 0.368209 0.000001
0.090289 0.263348 0.000001
0.259997 0.267850 0.000001
0.423047 0.284970 0.000001
0.558339 0.326595 0.000001
0.677458 0.403009 0.000001
0.239846 0.441464 0.000001
0.314694 0.442367 0.000001
0.438019 0.446081 0.000001
0.562746 0.457138 0.000001
0.678637 0.486348 0.000001
0.376567 0.578956 0.000001
0.403809 0.579197 0.000001
0.475411 0.580221 0.000001
0.575626 0.583403 0.000001
0.682255 0.592911 0.000001
0.506378 0.695483 0.000001
0.515361 0.695545 0.000001
0.546374 0.695805 0.000001
0.608035 0.696294 0.000001
0.692720 0.696294 0.000001
0.026873 0.000001 0.274856
0.246817 0.004989 0.273924
0.420186 0.105837 0.269928
0.557541 0.235748 0.256137
0.677253 0.366809 0.195760
0.107295 0.259687 0.265352
0.264337 0.264337 0.264337
0.424045 0.281965 0.259974
0.558619 0.324545 0.244806
0.677535 0.401995 0.175901
0.245021 0.440748 0.213393
0.317360 0.441659 0.211780
0.438891 0.445397 0.204769
0.563015 0.456518 0.179100
0.678710 0.485878 0.017239
0.378091 0.578759 0.000001
0.405001 0.579006 0.000001
0.476034 0.580028 0.000001
0.575866 0.583221 0.000001
0.682329 0.592740 0.000001
0.506844 0.695437 0.000001
0.515786 0.695499 0.000001
0.546687 0.695755 0.000001
0.608202 0.696294 0.000001
0.692783 0.696294 0.000001
0.113275 0.000001 0.453245
0.265958 0.000001 0.453062
0.424430 0.032388 0.452295
0.558730 0.214587 0.449800
0.677564 0.360740 0.441458
0.161016 0.242875 0.451439
0.280891 0.248259 0.451255
0.428146 0.268389 0.450471
0.559792 0.315502 0.447938
0.677849 0.397627 0.439446
0.264446 0.437698 0.443519
0.327885 0.438639 0.443319
0.442478 0.442478 0.442478
0.564139 0.453891 0.439749
0.679012 0.483877 0.430560
0.384260 0.577949 0.413570
0.409860 0.578198 0.413308
0.478588 0.579228 0.412194
0.576850 0.582446 0.408584
0.682613 0.592040 0.396195
0.508767 0.695233 0.000001
0.517556 0.695293 0.000001
0.548006 0.695552 0.000001
0.608907 0.696294 0.000001
0.693031 0.696294 0.000001
0.233176 0.000001 0.590278
0.311341 0.000001 0.590230
0.436945 0.000001 0.590024
0.562419 0.098756 0.589371
0.678547 0.338784 0.587244
0.252770 0.162525 0.589800
0.321461 0.173042 0.589750
0.440258 0.209160 0.589541
0.563439 0.280402 0.588883
0.678826 0.382402 0.586744
0.310342 0.427376 0.587753
0.355963 0.428402 0.587703
0.453178 0.432612 0.587492
0.567632 0.445042 0.586822
0.679974 0.477242 0.584636
0.401903 0.575318 0.580935
0.424043 0.575574 0.580883
0.486364 0.576629 0.580655
0.579932 0.579932 0.579932
0.683532 0.589770 0.577588
0.514680 0.694584 0.555373
0.523007 0.694646 0.555304
0.552095 0.694905 0.555010
0.611116 0.695729 0.554073
0.693823 0.696294 0.551025
0.360855 0.000001 0.696294
0.391751 0.000001 0.696294
0.469327 0.000001 0.696294
0.573340 0.000001 0.696294
0.681588 0.205213 0.696294
0.367407 0.000001 0.696294
0.396730 0.000001 0.696294
0.471801 0.000001 0.696294
0.574260 0.000001 0.696294
0.681855 0.311788 0.696294
0.391270 0.385894 0.696294
0.415441 0.387388 0.696294
0.481599 0.393461 0.696294
0.578026 0.410835 0.696294
0.682961 0.452853 0.696294
0.444404 0.566421 0.696294
0.459891 0.566700 0.696294
0.507948 0.567860 0.696294
0.589153 0.571459 0.696294
0.686381 0.582140 0.696294
0.531583 0.692465 0.696294
0.538706 0.692527 0.696294
0.564136 0.692796 0.696294
0.617834 0.693647 0.696294
0.696294 0.696294 0.696294
