luts/Rec2100_PQ/DJI_Osmo_DLogM_to_Rec2100_PQ_BT2408_DeepBlacks_Punchy.cube
TITLE "OpenOSV D-Log M to Rec.2100 PQ, BT.2408 Deep Blacks + Punchy - DJI Osmo 360 / Pocket 3"
LUT_3D_SIZE 9
DOMAIN_MIN 0.000000 0.000000 0.000000
DOMAIN_MAX 1.000000 1.000000 1.000000
0.000001 0.000001 0.000001
0.066598 0.002120 0.000001
0.232778 0.022052 0.000001
0.337131 0.057116 0.000001
0.422245 0.105997 0.000001
0.500379 0.165595 0.000001
0.575988 0.231235 0.000001
0.650712 0.299030 0.000001
0.724941 0.367332 0.000001
0.011119 0.079605 0.000001
0.077495 0.082495 0.000001
0.236026 0.097086 0.000001
0.338497 0.119999 0.000001
0.422926 0.153378 0.000001
0.500735 0.197700 0.000001
0.576182 0.251142 0.000001
0.650823 0.310719 0.000001
0.725002 0.374056 0.000001
0.078184 0.255617 0.000001
0.125258 0.256380 0.000001
0.252070 0.260384 0.000001
0.345550 0.267220 0.000001
0.426471 0.278533 0.000001
0.502642 0.296394 0.000001
0.577236 0.322825 0.000001
0.651410 0.359017 0.000001
0.725327 0.404785 0.000001
0.154367 0.360867 0.000001
0.183277 0.361183 0.000001
0.276296 0.362857 0.000001
0.357197 0.365795 0.000001
0.432567 0.370864 0.000001
0.505980 0.379419 0.000001
0.579099 0.393323 0.000001
0.652451 0.414755 0.000001
0.725913 0.445594 0.000001
0.230797 0.446500 0.000001
0.247311 0.446659 0.000001
0.310139 0.447487 0.000001
0.375535 0.448962 0.000001
0.442747 0.451537 0.000001
0.511722 0.456022 0.000001
0.582350 0.463638 0.000001
0.654288 0.476174 0.000001
0.726944 0.495833 0.000001
0.304677 0.525208 0.000001
0.313858 0.525285 0.000001
0.353665 0.525728 0.000001
0.402603 0.526521 0.000001
0.459067 0.527909 0.000001
0.521362 0.530361 0.000001
0.587956 0.534624 0.000001
0.657508 0.541895 0.000001
0.728765 0.553920 0.000001
0.376309 0.601317 0.000001
0.381428 0.601360 0.000001
0.405646 0.601604 0.000001
0.439646 0.602034 0.000001
0.483739 0.602809 0.000001
0.536936 0.604174 0.000001
0.597399 0.606570 0.000001
0.663057 0.610747 0.000001
0.731949 0.617884 0.000001
0.447082 0.676365 0.000001
0.449971 0.676390 0.000001
0.464372 0.676525 0.000001
0.486553 0.676767 0.000001
0.518416 0.677193 0.000001
0.560715 0.677954 0.000001
0.612688 0.679307 0.000001
0.672403 0.681682 0.000001
0.737446 0.685811 0.000001
0.518153 0.750664 0.000001
0.519791 0.750674 0.000001
0.528227 0.750749 0.000001
0.542021 0.750883 0.000001
0.563442 0.751121 0.000001
0.594509 0.751542 0.000001
0.636126 0.751829 0.000001
0.687552 0.751829 0.000001
0.746691 0.751829 0.000001
0.001933 0.000001 0.087114
0.069531 0.000267 0.086490
0.233640 0.018970 0.083110
0.337491 0.054466 0.076877
0.422424 0.104070 0.065089
0.500472 0.164354 0.041717
0.576038 0.230499 0.000001
0.650739 0.298610 0.000001
0.724958 0.367101 0.000001
0.014748 0.077302 0.080883
0.080234 0.080234 0.080234
0.236866 0.095037 0.076711
0.338852 0.118253 0.070211
0.423097 0.152014 0.057905
0.500832 0.196733 0.033536
0.576237 0.250519 0.000001
0.650850 0.310342 0.000001
0.725019 0.373836 0.000001
0.080910 0.255015 0.042645
0.127235 0.255782 0.041830
0.252805 0.259805 0.037408
0.345885 0.266673 0.029284
0.426639 0.278036 0.014321
0.502735 0.295966 0.000001
0.577287 0.322485 0.000001
0.651438 0.358764 0.000001
0.725348 0.404610 0.000001
0.155963 0.360620 0.000001
0.184557 0.360936 0.000001
0.276898 0.362617 0.000001
0.357502 0.365558 0.000001
0.432730 0.370637 0.000001
0.506066 0.379205 0.000001
0.579143 0.393128 0.000001
0.652479 0.414597 0.000001
0.725930 0.445471 0.000001
0.231671 0.446375 0.000001
0.248075 0.446534 0.000001
0.310590 0.447364 0.000001
0.375794 0.448836 0.000001
0.442898 0.451422 0.000001
0.511807 0.455909 0.000001
0.582399 0.463533 0.000001
0.654319 0.476079 0.000001
0.726958 0.495755 0.000001
0.305149 0.525135 0.000001
0.314295 0.525220 0.000001
0.353977 0.525663 0.000001
0.402806 0.526453 0.000001
0.459200 0.527844 0.000001
0.521443 0.530301 0.000001
0.588006 0.534561 0.000001
0.657533 0.541836 0.000001
0.728778 0.553865 0.000001
0.376565 0.601283 0.000001
0.381677 0.601326 0.000001
0.405853 0.601567 0.000001
0.439801 0.602000 0.000001
0.483847 0.602775 0.000001
0.537007 0.604139 0.000001
0.597441 0.606541 0.000001
0.663082 0.610718 0.000001
0.731966 0.617854 0.000001
0.447226 0.676346 0.000001
0.450110 0.676371 0.000001
0.464493 0.676502 0.000001
0.486662 0.676748 0.000001
0.518499 0.677173 0.000001
0.560776 0.677938 0.000001
0.612728 0.679284 0.000001
0.672428 0.681662 0.000001
0.737460 0.685792 0.000001
0.518231 0.750649 0.000001
0.519869 0.750664 0.000001
0.528302 0.750738 0.000001
0.542090 0.750869 0.000001
0.563503 0.751106 0.000001
0.594557 0.751532 0.000001
0.636156 0.751829 0.000001
0.687572 0.751829 0.000001
0.746709 0.751829 0.000001
0.020416 0.000001 0.267806
0.084367 0.000001 0.267651
0.238147 0.003249 0.266817
0.339400 0.039574 0.265315
0.423366 0.093296 0.262584
0.500975 0.157490 0.257545
0.576313 0.226481 0.247989
0.650893 0.296350 0.228783
0.725043 0.365833 0.184601
0.034194 0.064358 0.266276
0.094110 0.067538 0.266118
0.241255 0.083557 0.265275
0.340738 0.108525 0.263753
0.424037 0.144463 0.260986
0.501336 0.191429 0.255877
0.576515 0.247120 0.246182
0.651004 0.308295 0.226663
0.725101 0.372640 0.181571
0.094727 0.251741 0.257736
0.137359 0.252531 0.257570
0.256662 0.256662 0.256662
0.347665 0.263709 0.255026
0.427552 0.275344 0.252047
0.503231 0.293653 0.246536
0.577563 0.320637 0.236026
0.651589 0.357407 0.214657
0.725430 0.403688 0.164017
0.164194 0.359283 0.240786
0.191194 0.359603 0.240591
0.280059 0.361302 0.239547
0.359117 0.364274 0.237660
0.433600 0.369407 0.234213
0.506551 0.378059 0.227806
0.579417 0.392114 0.215459
0.652630 0.413745 0.189799
0.726009 0.444808 0.125316
0.236251 0.445723 0.203006
0.252083 0.445878 0.202742
0.312980 0.446712 0.201322
0.377182 0.448195 0.198738
0.443698 0.450792 0.193991
0.512271 0.455300 0.185044
0.582661 0.462961 0.167322
0.654467 0.475565 0.128147
0.727041 0.495314 0.012529
0.307650 0.524790 0.082106
0.316612 0.524872 0.081462
0.355641 0.525317 0.077967
0.403924 0.526109 0.071520
0.459900 0.527504 0.059317
0.521871 0.529964 0.035139
0.588259 0.534242 0.000001
0.657679 0.541533 0.000001
0.728858 0.553590 0.000001
0.377946 0.601090 0.000001
0.382996 0.601138 0.000001
0.406935 0.601377 0.000001
0.440618 0.601812 0.000001
0.484424 0.602587 0.000001
0.537381 0.603951 0.000001
0.597676 0.606355 0.000001
0.663223 0.610539 0.000001
0.732049 0.617685 0.000001
0.448002 0.676240 0.000001
0.450865 0.676266 0.000001
0.465165 0.676400 0.000001
0.487223 0.676640 0.000001
0.518932 0.677071 0.000001
0.561089 0.677833 0.000001
0.612940 0.679182 0.000001
0.672558 0.681559 0.000001
0.737537 0.685698 0.000001
0.518669 0.750589 0.000001
0.520301 0.750607 0.000001
0.528703 0.750681 0.000001
0.542455 0.750812 0.000001
0.563805 0.751050 0.000001
0.594796 0.751475 0.000001
0.636328 0.751829 0.000001
0.687689 0.751829 0.000001
0.746782 0.751829 0.000001
0.053580 0.000001 0.373455
0.107704 0.000001 0.373393
0.245805 0.000001 0.373050
0.342736 0.010652 0.372437
0.425039 0.071870 0.371334
0.501871 0.144267 0.369337
0.576810 0.218954 0.365695
0.651170 0.292200 0.358892
0.725194 0.363540 0.345694
0.065354 0.038419 0.372827
0.116045 0.042096 0.372761
0.248728 0.060636 0.372421
0.344038 0.089319 0.371804
0.425700 0.129820 0.370695
0.502228 0.181363 0.368691
0.577003 0.240799 0.365021
0.651281 0.304549 0.358183
0.725259 0.370474 0.344901
0.116577 0.245664 0.369413
0.153756 0.246493 0.369346
0.263260 0.250833 0.368995
0.350779 0.258219 0.368359
0.429168 0.270373 0.367220
0.504108 0.289407 0.365156
0.578053 0.317269 0.361376
0.651863 0.354943 0.354319
0.725584 0.402016 0.340573
0.177721 0.356857 0.363059
0.202252 0.357184 0.362992
0.285509 0.358916 0.362619
0.361951 0.361951 0.361951
0.435137 0.367183 0.360745
0.507406 0.375991 0.358566
0.579897 0.390274 0.354569
0.652902 0.412208 0.347083
0.726166 0.443616 0.332420
0.244029 0.444539 0.350804
0.258932 0.444700 0.350727
0.317133 0.445543 0.350313
0.379624 0.447037 0.349571
0.445114 0.449659 0.348235
0.513085 0.454205 0.345812
0.583133 0.461934 0.341356
0.654730 0.474634 0.332959
0.727192 0.494520 0.316307
0.311988 0.524166 0.325179
0.320639 0.524248 0.325084
0.358555 0.524693 0.324570
0.405878 0.525489 0.323649
0.461145 0.526895 0.321986
0.522626 0.529367 0.318953
0.588705 0.533657 0.313340
0.657940 0.540985 0.302602
0.729009 0.553090 0.280618
0.380372 0.600746 0.258415
0.385322 0.600791 0.258247
0.408842 0.601036 0.257344
0.442070 0.601471 0.255717
0.485447 0.602248 0.252755
0.538056 0.603614 0.247279
0.598095 0.606025 0.236835
0.663471 0.610224 0.215620
0.732191 0.617381 0.165449
0.449367 0.676049 0.000001
0.452205 0.676074 0.000001
0.466359 0.676215 0.000001
0.488220 0.676451 0.000001
0.519709 0.676883 0.000001
0.561645 0.677644 0.000001
0.613308 0.678996 0.000001
0.672790 0.681379 0.000001
0.737679 0.685517 0.000001
0.519451 0.750487 0.000001
0.521073 0.750501 0.000001
0.529422 0.750572 0.000001
0.543097 0.750710 0.000001
0.564352 0.750947 0.000001
0.595221 0.751369 0.000001
0.636635 0.751829 0.000001
0.687897 0.751829 0.000001
0.746909 0.751829 0.000001
0.100618 0.000001 0.459374
0.141732 0.000001 0.459343
0.258379 0.000001 0.459176
0.348466 0.000001 0.458873
0.427969 0.025085 0.458333
0.503456 0.116872 0.457362
0.577686 0.204257 0.455609
0.651659 0.284408 0.452415
0.725468 0.359330 0.446498
0.109370 0.000001 0.459064
0.148295 0.000001 0.459034
0.261012 0.011227 0.458866
0.349708 0.047585 0.458564
0.428610 0.099083 0.458022
0.503807 0.161159 0.457049
0.577883 0.228620 0.455289
0.651770 0.297549 0.452087
0.725529 0.366500 0.446155
0.148714 0.233988 0.457399
0.178769 0.234900 0.457364
0.274205 0.239669 0.457195
0.356144 0.247748 0.456891
0.432003 0.260952 0.456336
0.505666 0.281423 0.455352
0.578921 0.311000 0.453572
0.652353 0.350411 0.450319
0.725858 0.398973 0.444299
0.198812 0.352401 0.454358
0.219844 0.352739 0.454330
0.294658 0.354535 0.454151
0.366846 0.357682 0.453837
0.437834 0.363097 0.453273
0.508924 0.372203 0.452263
0.580754 0.386916 0.450437
0.653386 0.409410 0.447099
0.726434 0.441460 0.440917
0.256777 0.442400 0.448742
0.270261 0.442562 0.448708
0.324204 0.443422 0.448525
0.383857 0.444941 0.448195
0.447608 0.447608 0.447608
0.514534 0.452230 0.446545
0.583969 0.460077 0.444630
0.655210 0.472962 0.441135
0.727463 0.493094 0.434635
0.319364 0.523040 0.438027
0.327510 0.523126 0.437992
0.363592 0.523573 0.437792
0.409297 0.524377 0.437430
0.463335 0.525790 0.436789
0.523972 0.528285 0.435631
0.589505 0.532614 0.433538
0.658409 0.539999 0.429698
0.729277 0.552197 0.422542
0.384580 0.600132 0.416200
0.389366 0.600180 0.416154
0.412181 0.600425 0.415919
0.444622 0.600862 0.415483
0.487249 0.601641 0.414719
0.539243 0.603017 0.413326
0.598839 0.605438 0.410808
0.663919 0.609650 0.406171
0.732450 0.616847 0.397436
0.451775 0.675713 0.363557
0.454555 0.675739 0.363490
0.468459 0.675873 0.363120
0.489985 0.676113 0.362451
0.521083 0.676544 0.361254
0.562632 0.677311 0.359083
0.613967 0.678669 0.355105
0.673200 0.681051 0.347654
0.737923 0.685206 0.333065
0.520826 0.750296 0.000001
0.522430 0.750310 0.000001
0.530698 0.750388 0.000001
0.544241 0.750519 0.000001
0.565318 0.750759 0.000001
0.595988 0.751184 0.000001
0.637192 0.751829 0.000001
0.688260 0.751829 0.000001
0.747138 0.751829 0.000001
0.158858 0.000001 0.538383
0.186884 0.000001 0.538367
0.277996 0.000001 0.538278
0.358061 0.000001 0.538115
0.433030 0.000001 0.537827
0.506234 0.049566 0.537315
0.579241 0.172776 0.536392
0.652531 0.269082 0.534728
0.725954 0.351419 0.531699
0.164643 0.000001 0.538219
0.191560 0.000001 0.538202
0.280233 0.000001 0.538110
0.359208 0.000001 0.537952
0.433651 0.021934 0.537664
0.506577 0.115040 0.537147
0.579433 0.203316 0.536224
0.652636 0.283923 0.534558
0.726016 0.359071 0.531531
0.191859 0.209876 0.537335
0.213998 0.210986 0.537315
0.291552 0.216758 0.537226
0.365165 0.226445 0.537068
0.436899 0.242033 0.536778
0.508393 0.265681 0.536255
0.580457 0.298911 0.535331
0.653216 0.341865 0.533650
0.726341 0.393341 0.530600
0.229402 0.344000 0.535739
0.246096 0.344362 0.535724
0.309424 0.346290 0.535630
0.375120 0.349658 0.535465
0.442511 0.355445 0.535176
0.511582 0.365125 0.534652
0.582270 0.380680 0.533708
0.654242 0.404257 0.532009
0.726917 0.437514 0.528918
0.276639 0.438483 0.532844
0.288151 0.438656 0.532829
0.335867 0.439538 0.532733
0.391070 0.441108 0.532564
0.451934 0.443856 0.532264
0.517081 0.448621 0.531727
0.585447 0.456694 0.530766
0.656053 0.469917 0.529023
0.727940 0.490508 0.525855
0.331488 0.521006 0.527502
0.338870 0.521095 0.527482
0.372084 0.521550 0.527384
0.415177 0.522363 0.527207
0.467150 0.523803 0.526897
0.526336 0.526336 0.526336
0.590923 0.530733 0.525329
0.659234 0.538222 0.523513
0.729745 0.550586 0.520200
0.391755 0.599032 0.517353
0.396266 0.599074 0.517336
0.417926 0.599321 0.517225
0.449053 0.599763 0.517037
0.490406 0.600550 0.516701
0.541341 0.601937 0.516094
0.600158 0.604379 0.515000
0.664713 0.608630 0.513026
0.732909 0.615880 0.509421
0.455964 0.675104 0.496911
0.458646 0.675130 0.496887
0.472125 0.675267 0.496760
0.493076 0.675509 0.496539
0.523503 0.675940 0.496139
0.564379 0.676710 0.495424
0.615135 0.678073 0.494134
0.673938 0.680469 0.491801
0.738365 0.684643 0.487519
0.523248 0.749963 0.449181
0.524824 0.749974 0.449149
0.532940 0.750048 0.448966
0.546257 0.750186 0.448638
0.567027 0.750426 0.448050
0.597328 0.750848 0.446997
0.638165 0.751606 0.445086
0.688914 0.751829 0.441603
0.747547 0.751829 0.435128
0.223774 0.000001 0.614745
0.241203 0.000001 0.614733
0.306569 0.000001 0.614684
0.373484 0.000001 0.614597
0.441577 0.000001 0.614440
0.511049 0.000001 0.614158
0.581961 0.086380 0.613659
0.654072 0.235620 0.612754
0.726821 0.335839 0.611125
0.227267 0.000001 0.614655
0.244237 0.000001 0.614643
0.308334 0.000001 0.614594
0.374493 0.000001 0.614507
0.442152 0.000001 0.614350
0.511381 0.000001 0.614068
0.582157 0.139683 0.613569
0.654177 0.254871 0.612664
0.726879 0.344522 0.611033
0.244433 0.150259 0.614170
0.259289 0.152021 0.614158
0.317352 0.161068 0.614112
0.379752 0.175827 0.614022
0.445192 0.198580 0.613865
0.513131 0.231110 0.613583
0.583158 0.273685 0.613079
0.654749 0.324883 0.612172
0.727202 0.382584 0.610539
0.270092 0.327342 0.613302
0.282222 0.327760 0.613293
0.331934 0.329975 0.613241
0.388607 0.333828 0.613154
0.450446 0.340415 0.613001
0.516197 0.351342 0.612714
0.584932 0.368661 0.612207
0.655761 0.394465 0.611293
0.727775 0.430139 0.609644
0.305505 0.431170 0.611741
0.314623 0.431344 0.611726
0.354213 0.432286 0.611677
0.402967 0.433952 0.611585
0.459298 0.436862 0.611426
0.521503 0.441900 0.611142
0.588040 0.450409 0.610622
0.657554 0.464286 0.609702
0.728792 0.485753 0.608032
0.350472 0.517292 0.608895
0.356791 0.517382 0.608889
0.385902 0.517851 0.608835
0.425015 0.518691 0.608740
0.473689 0.520170 0.608576
0.530446 0.522777 0.608285
0.593411 0.527299 0.607759
0.660690 0.534989 0.606811
0.730586 0.547656 0.605106
0.403590 0.597035 0.603654
0.407690 0.597080 0.603642
0.427550 0.597334 0.603591
0.456587 0.597781 0.603494
0.495854 0.598576 0.603323
0.545004 0.599987 0.603017
0.602470 0.602470 0.602470
0.666109 0.606779 0.601482
0.733726 0.614132 0.599707
0.463093 0.674008 0.593725
0.465634 0.674034 0.593714
0.478407 0.674174 0.593655
0.498411 0.674422 0.593557
0.527712 0.674856 0.593369
0.567435 0.675631 0.593038
0.617197 0.677004 0.592443
0.675238 0.679422 0.591379
0.739146 0.683625 0.589449
0.527462 0.749358 0.573806
0.528991 0.749376 0.573793
0.536847 0.749450 0.573730
0.549781 0.749588 0.573606
0.570028 0.749825 0.573388
0.599695 0.750250 0.573003
0.639886 0.751014 0.572307
0.690073 0.751829 0.571054
0.748274 0.751829 0.568788
0.291282 0.000001 0.689933
0.301514 0.000001 0.689930
0.344970 0.000001 0.689900
0.396890 0.000001 0.689851
0.455499 0.000001 0.689763
0.519205 0.000001 0.689614
0.586689 0.000001 0.689337
0.656772 0.135596 0.688836
0.728345 0.301622 0.687942
0.293284 0.000001 0.689884
0.303354 0.000001 0.689877
0.346247 0.000001 0.689851
0.397722 0.000001 0.689803
0.456016 0.000001 0.689715
0.519520 0.000001 0.689562
0.586872 0.000001 0.689282
0.656878 0.174874 0.688784
0.728400 0.313071 0.687897
0.303473 0.000001 0.689614
0.312744 0.000001 0.689614
0.352870 0.000001 0.689584
0.402074 0.000001 0.689539
0.458738 0.040118 0.689448
0.521162 0.125549 0.689291
0.587836 0.208784 0.689015
0.657436 0.286765 0.688514
0.728720 0.360586 0.687624
0.319747 0.290143 0.689135
0.327870 0.290715 0.689132
0.363857 0.293730 0.689103
0.409478 0.298933 0.689057
0.463453 0.307691 0.688969
0.524044 0.321884 0.688813
0.589552 0.343645 0.688533
0.658431 0.374721 0.688033
0.729288 0.415743 0.687134
0.344200 0.416905 0.688277
0.350852 0.417103 0.688277
0.381271 0.418160 0.688247
0.421680 0.420026 0.688195
0.471449 0.423288 0.688108
0.529031 0.428899 0.687952
0.592550 0.438325 0.687669
0.660182 0.453546 0.687169
0.730293 0.476780 0.686261
0.378291 0.510373 0.686731
0.383326 0.510465 0.686722
0.407205 0.510966 0.686696
0.440823 0.511849 0.686650
0.484568 0.513413 0.686556
0.537478 0.516163 0.686394
0.597738 0.520920 0.686112
0.663258 0.529001 0.685604
0.732066 0.542252 0.684688
0.422211 0.593397 0.683919
0.425734 0.593445 0.683910
0.443060 0.593703 0.683884
0.468997 0.594166 0.683832
0.505028 0.594985 0.683745
0.551288 0.596436 0.683577
0.606501 0.598981 0.683287
0.668567 0.603417 0.682764
0.735171 0.610955 0.681830
0.474895 0.672034 0.678730
0.477212 0.672060 0.678726
0.488901 0.672206 0.678694
0.507406 0.672453 0.678646
0.534890 0.672895 0.678547
0.572724 0.673684 0.678380
0.620797 0.675079 0.678073
0.677532 0.677532 0.677532
0.740531 0.681801 0.676557
0.534654 0.748285 0.668912
0.536095 0.748295 0.668902
0.543535 0.748373 0.668871
0.555838 0.748510 0.668817
0.575209 0.748751 0.668713
0.603814 0.749178 0.668530
0.642900 0.749945 0.668198
0.692112 0.751308 0.667611
0.749560 0.751829 0.666559
0.359449 0.000001 0.751829
0.365325 0.000001 0.751829
0.392642 0.000001 0.751829
0.429939 0.000001 0.751829
0.477027 0.000001 0.751829
0.532584 0.000001 0.751829
0.594712 0.000001 0.751829
0.661462 0.000001 0.751829
0.731027 0.194456 0.751829
0.360584 0.000001 0.751829
0.366401 0.000001 0.751829
0.393506 0.000001 0.751829
0.430573 0.000001 0.751829
0.477459 0.000001 0.751829
0.532862 0.000001 0.751829
0.594881 0.000001 0.751829
0.661565 0.000001 0.751829
0.731082 0.220626 0.751829
0.366474 0.000001 0.751829
0.372019 0.000001 0.751829
0.398009 0.000001 0.751829
0.433909 0.000001 0.751829
0.479754 0.000001 0.751829
0.534340 0.000001 0.751829
0.595793 0.000001 0.751829
0.662102 0.155185 0.751829
0.731400 0.307045 0.751829
0.376325 0.164759 0.751829
0.381443 0.166338 0.751829
0.405658 0.174476 0.751829
0.439653 0.187849 0.751829
0.483746 0.208699 0.751829
0.536941 0.238953 0.751829
0.597399 0.279243 0.751829
0.663057 0.328520 0.751829
0.731949 0.384842 0.751829
0.392129 0.386333 0.751829
0.396626 0.386587 0.751829
0.418228 0.387943 0.751829
0.449290 0.390334 0.751829
0.490571 0.394486 0.751829
0.541454 0.401558 0.751829
0.600223 0.413244 0.751829
0.664751 0.431668 0.751829
0.732934 0.458945 0.751829
0.416042 0.496986 0.751829
0.419751 0.497088 0.751829
0.437881 0.497642 0.751829
0.464817 0.498627 0.751829
0.501909 0.500365 0.751829
0.549131 0.503408 0.751829
0.605112 0.508666 0.751829
0.667715 0.517542 0.751829
0.734668 0.531987 0.751829
0.449711 0.586631 0.751829
0.452540 0.586681 0.751829
0.466656 0.586953 0.751829
0.488472 0.587436 0.751829
0.519906 0.588301 0.751829
0.561783 0.589831 0.751829
0.613404 0.592513 0.751829
0.672850 0.597167 0.751829
0.737711 0.605080 0.751829
0.493539 0.668432 0.751829
0.495527 0.668460 0.751829
0.505690 0.668602 0.751829
0.522022 0.668858 0.751829
0.546772 0.669316 0.751829
0.581647 0.670129 0.751829
0.626979 0.671561 0.751829
0.681527 0.674085 0.751829
0.742963 0.678467 0.751829
0.546560 0.746328 0.751829
0.547874 0.746342 0.751829
0.554671 0.746420 0.751829
0.565979 0.746554 0.751829
0.583964 0.746800 0.751829
0.610856 0.747241 0.751829
0.648122 0.748020 0.751829
0.695673 0.749401 0.751829
0.751829 0.751829 0.751829
