luts/Rec2100_PQ/DJI_Osmo_DLogM_to_Rec2100_PQ_ACES2_Bright.cube
TITLE "OpenOSV D-Log M to Rec.2100 PQ, ACES 2 Bright (outdoor) - DJI Osmo 360 / Pocket 3"
LUT_3D_SIZE 65
DOMAIN_MIN 0.000000 0.000000 0.000000
DOMAIN_MAX 1.000000 1.000000 1.000000
0.000001 0.000001 0.000001
0.006965 0.000170 0.000001
0.016325 0.000421 0.000001
0.026323 0.000741 0.000001
0.036580 0.001128 0.000001
0.046949 0.001582 0.000001
0.057358 0.002103 0.000001
0.067770 0.002693 0.000001
0.078161 0.003355 0.000001
0.106901 0.005610 0.000001
0.132192 0.008188 0.000001
0.154694 0.011039 0.000001
0.175012 0.014140 0.000001
0.193586 0.017476 0.000001
0.210740 0.021039 0.000001
0.226724 0.024822 0.000001
0.241727 0.028819 0.000001
0.255906 0.033027 0.000001
0.269379 0.037441 0.000001
0.282250 0.042058 0.000001
0.294599 0.046875 0.000001
0.306495 0.051888 0.000001
0.317993 0.057095 0.000001
0.329147 0.062490 0.000001
0.339997 0.068070 0.000001
0.350573 0.073830 0.000001
0.360910 0.079766 0.000001
0.371034 0.085870 0.000001
0.380968 0.092137 0.000001
0.390731 0.098562 0.000001
0.400340 0.105137 0.000001
0.409807 0.111854 0.000001
0.419149 0.118707 0.000001
0.428380 0.125687 0.000001
0.437507 0.132786 0.000001
0.446528 0.139997 0.000001
0.455470 0.147311 0.000001
0.464325 0.154719 0.000001
0.473101 0.162214 0.000001
0.481807 0.169786 0.000001
0.490443 0.177430 0.000001
0.499012 0.185137 0.000001
0.507517 0.192896 0.000001
0.515960 0.200707 0.000001
0.524345 0.208559 0.000001
0.532665 0.216446 0.000001
0.540921 0.224360 0.000001
0.549121 0.232303 0.000001
0.557259 0.240262 0.000001
0.565334 0.248240 0.000001
0.573345 0.256228 0.000001
0.581287 0.264226 0.000001
0.589165 0.272228 0.000001
0.596973 0.280233 0.000001
0.604702 0.288243 0.000001
0.612352 0.296251 0.000001
0.619929 0.304257 0.000001
0.627418 0.312263 0.000001
0.634826 0.320265 0.000001
0.642134 0.328262 0.000001
0.649354 0.336258 0.000001
0.656474 0.344251 0.000001
0.663483 0.352240 0.000001
0.670386 0.360225 0.000001
0.677180 0.368209 0.000001
0.000840 0.008907 0.000001
0.008578 0.009366 0.000001
0.017982 0.009862 0.000001
0.027920 0.010396 0.000001
0.038089 0.010972 0.000001
0.048361 0.011592 0.000001
0.058675 0.012260 0.000001
0.068994 0.012980 0.000001
0.079294 0.013755 0.000001
0.107816 0.016237 0.000001
0.132943 0.018915 0.000001
0.155321 0.021772 0.000001
0.175542 0.024812 0.000001
0.194039 0.028034 0.000001
0.211131 0.031441 0.000001
0.227065 0.035034 0.000001
0.242025 0.038814 0.000001
0.256169 0.042782 0.000001
0.269611 0.046939 0.000001
0.282457 0.051284 0.000001
0.294784 0.055817 0.000001
0.306661 0.060537 0.000001
0.318145 0.065444 0.000001
0.329282 0.070534 0.000001
0.340117 0.075807 0.000001
0.350684 0.081257 0.000001
0.361012 0.086881 0.000001
0.371129 0.092679 0.000001
0.381051 0.098640 0.000001
0.390807 0.104761 0.000001
0.400412 0.111037 0.000001
0.409872 0.117463 0.000001
0.419211 0.124029 0.000001
0.428439 0.130730 0.000001
0.437553 0.137559 0.000001
0.446577 0.144506 0.000001
0.455511 0.151565 0.000001
0.464365 0.158728 0.000001
0.473139 0.165987 0.000001
0.481841 0.173334 0.000001
0.490476 0.180761 0.000001
0.499043 0.188260 0.000001
0.507544 0.195824 0.000001
0.515984 0.203447 0.000001
0.524362 0.211121 0.000001
0.532683 0.218839 0.000001
0.540941 0.226598 0.000001
0.549139 0.234390 0.000001
0.557277 0.242211 0.000001
0.565352 0.250055 0.000001
0.573359 0.257919 0.000001
0.581306 0.265800 0.000001
0.589176 0.273694 0.000001
0.596981 0.281599 0.000001
0.604711 0.289513 0.000001
0.612366 0.297433 0.000001
0.619941 0.305356 0.000001
0.627427 0.313285 0.000001
0.634832 0.321216 0.000001
0.642143 0.329149 0.000001
0.649360 0.337081 0.000001
0.656474 0.345016 0.000001
0.663490 0.352950 0.000001
0.670392 0.360886 0.000001
0.677186 0.368822 0.000001
0.002155 0.020445 0.000001
0.010339 0.020906 0.000001
0.019756 0.021401 0.000001
0.029624 0.021932 0.000001
0.039696 0.022502 0.000001
0.049866 0.023113 0.000001
0.060077 0.023769 0.000001
0.070297 0.024472 0.000001
0.080504 0.025225 0.000001
0.108792 0.027620 0.000001
0.133746 0.030181 0.000001
0.155991 0.032896 0.000001
0.176109 0.035769 0.000001
0.194525 0.038803 0.000001
0.211550 0.042004 0.000001
0.227429 0.045374 0.000001
0.242345 0.048916 0.000001
0.256449 0.052633 0.000001
0.269862 0.056527 0.000001
0.282681 0.060600 0.000001
0.294983 0.064852 0.000001
0.306840 0.069285 0.000001
0.318305 0.073899 0.000001
0.329428 0.078692 0.000001
0.340248 0.083663 0.000001
0.350804 0.088812 0.000001
0.361122 0.094135 0.000001
0.371226 0.099628 0.000001
0.381144 0.105290 0.000001
0.390891 0.111113 0.000001
0.400488 0.117096 0.000001
0.409944 0.123232 0.000001
0.419273 0.129514 0.000001
0.428494 0.135937 0.000001
0.437607 0.142494 0.000001
0.446630 0.149179 0.000001
0.455559 0.155981 0.000001
0.464407 0.162896 0.000001
0.473179 0.169916 0.000001
0.481880 0.177035 0.000001
0.490506 0.184240 0.000001
0.499074 0.191529 0.000001
0.507575 0.198893 0.000001
0.516011 0.206322 0.000001
0.524384 0.213816 0.000001
0.532705 0.221360 0.000001
0.540959 0.228956 0.000001
0.549154 0.236593 0.000001
0.557293 0.244267 0.000001
0.565366 0.251974 0.000001
0.573375 0.259710 0.000001
0.581314 0.267469 0.000001
0.589190 0.275250 0.000001
0.596992 0.283048 0.000001
0.604720 0.290863 0.000001
0.612378 0.298690 0.000001
0.619950 0.306525 0.000001
0.627439 0.314373 0.000001
0.634841 0.322230 0.000001
0.642153 0.330090 0.000001
0.649366 0.337959 0.000001
0.656487 0.345830 0.000001
0.663496 0.353711 0.000001
0.670398 0.361595 0.000001
0.677186 0.369480 0.000001
0.003786 0.032453 0.000001
0.012250 0.032889 0.000001
0.021654 0.033356 0.000001
0.031438 0.033857 0.000001
0.041406 0.034394 0.000001
0.051466 0.034969 0.000001
0.061569 0.035586 0.000001
0.071684 0.036246 0.000001
0.081793 0.036953 0.000001
0.109832 0.039198 0.000001
0.134603 0.041594 0.000001
0.156707 0.044129 0.000001
0.176716 0.046810 0.000001
0.195043 0.049639 0.000001
0.211999 0.052623 0.000001
0.227820 0.055764 0.000001
0.242689 0.059068 0.000001
0.256754 0.062536 0.000001
0.270131 0.066173 0.000001
0.282918 0.069980 0.000001
0.295197 0.073960 0.000001
0.307033 0.078114 0.000001
0.318477 0.082444 0.000001
0.329584 0.086948 0.000001
0.340391 0.091629 0.000001
0.350934 0.096484 0.000001
0.361237 0.101512 0.000001
0.371334 0.106712 0.000001
0.381242 0.112079 0.000001
0.390980 0.117612 0.000001
0.400570 0.123305 0.000001
0.410016 0.129156 0.000001
0.419342 0.135157 0.000001
0.428561 0.141304 0.000001
0.437669 0.147591 0.000001
0.446681 0.154011 0.000001
0.455609 0.160558 0.000001
0.464453 0.167225 0.000001
0.473220 0.174004 0.000001
0.481914 0.180888 0.000001
0.490543 0.187872 0.000001
0.499104 0.194946 0.000001
0.507601 0.202103 0.000001
0.516038 0.209338 0.000001
0.524414 0.216643 0.000001
0.532728 0.224010 0.000001
0.540982 0.231437 0.000001
0.549180 0.238913 0.000001
0.557309 0.246436 0.000001
0.565382 0.254001 0.000001
0.573388 0.261603 0.000001
0.581328 0.269236 0.000001
0.589201 0.276898 0.000001
0.597006 0.284586 0.000001
0.604734 0.292295 0.000001
0.612386 0.300024 0.000001
0.619958 0.307769 0.000001
0.627448 0.315532 0.000001
0.634847 0.323308 0.000001
0.642159 0.331095 0.000001
0.649373 0.338896 0.000001
0.656487 0.346703 0.000001
0.663502 0.354522 0.000001
0.670402 0.362348 0.000001
0.677193 0.370185 0.000001
0.005678 0.044532 0.000001
0.014314 0.044936 0.000001
0.023679 0.045370 0.000001
0.033368 0.045835 0.000001
0.043224 0.046333 0.000001
0.053168 0.046867 0.000001
0.063156 0.047439 0.000001
0.073160 0.048052 0.000001
0.083163 0.048707 0.000001
0.110943 0.050790 0.000001
0.135518 0.053011 0.000001
0.157473 0.055362 0.000001
0.177365 0.057848 0.000001
0.195599 0.060474 0.000001
0.212481 0.063244 0.000001
0.228238 0.066162 0.000001
0.243055 0.069233 0.000001
0.257077 0.072462 0.000001
0.270420 0.075852 0.000001
0.283175 0.079403 0.000001
0.295427 0.083122 0.000001
0.307237 0.087009 0.000001
0.318664 0.091065 0.000001
0.329753 0.095293 0.000001
0.340545 0.099693 0.000001
0.351070 0.104265 0.000001
0.361364 0.109008 0.000001
0.371451 0.113920 0.000001
0.381345 0.119003 0.000001
0.391075 0.124251 0.000001
0.400656 0.129661 0.000001
0.410100 0.135230 0.000001
0.419416 0.140953 0.000001
0.428628 0.146826 0.000001
0.437730 0.152845 0.000001
0.446740 0.159002 0.000001
0.455663 0.165293 0.000001
0.464502 0.171710 0.000001
0.473265 0.178247 0.000001
0.481955 0.184897 0.000001
0.490583 0.191655 0.000001
0.499142 0.198511 0.000001
0.507635 0.205459 0.000001
0.516067 0.212494 0.000001
0.524442 0.219608 0.000001
0.532751 0.226793 0.000001
0.541005 0.234045 0.000001
0.549201 0.241356 0.000001
0.557335 0.248723 0.000001
0.565403 0.256142 0.000001
0.573405 0.263604 0.000001
0.581347 0.271106 0.000001
0.589218 0.278642 0.000001
0.597015 0.286215 0.000001
0.604745 0.293815 0.000001
0.612395 0.301442 0.000001
0.619967 0.309093 0.000001
0.627457 0.316766 0.000001
0.634856 0.324457 0.000001
0.642165 0.332165 0.000001
0.649382 0.339892 0.000001
0.656496 0.347632 0.000001
0.663508 0.355387 0.000001
0.670408 0.363152 0.000001
0.677199 0.370935 0.000001
0.007804 0.056543 0.000001
0.016533 0.056916 0.000001
0.025837 0.057317 0.000001
0.035421 0.057745 0.000001
0.045155 0.058205 0.000001
0.054976 0.058698 0.000001
0.064843 0.059225 0.000001
0.074731 0.059791 0.000001
0.084624 0.060396 0.000001
0.112127 0.062318 0.000001
0.136495 0.064369 0.000001
0.158290 0.066542 0.000001
0.178059 0.068841 0.000001
0.196195 0.071270 0.000001
0.212995 0.073837 0.000001
0.228686 0.076543 0.000001
0.243450 0.079393 0.000001
0.257425 0.082393 0.000001
0.270726 0.085546 0.000001
0.283451 0.088855 0.000001
0.295672 0.092325 0.000001
0.307458 0.095956 0.000001
0.318863 0.099751 0.000001
0.329934 0.103713 0.000001
0.340707 0.107845 0.000001
0.351220 0.112142 0.000001
0.361500 0.116611 0.000001
0.371571 0.121247 0.000001
0.381456 0.126051 0.000001
0.391177 0.131021 0.000001
0.400749 0.136153 0.000001
0.410185 0.141447 0.000001
0.419502 0.146898 0.000001
0.428697 0.152503 0.000001
0.437794 0.158254 0.000001
0.446799 0.164151 0.000001
0.455719 0.170185 0.000001
0.464554 0.176353 0.000001
0.473314 0.182648 0.000001
0.482001 0.189063 0.000001
0.490622 0.195591 0.000001
0.499180 0.202226 0.000001
0.507669 0.208963 0.000001
0.516102 0.215792 0.000001
0.524474 0.222710 0.000001
0.532784 0.229709 0.000001
0.541036 0.236783 0.000001
0.549225 0.243926 0.000001
0.557354 0.251132 0.000001
0.565419 0.258396 0.000001
0.573424 0.265714 0.000001
0.581364 0.273080 0.000001
0.589231 0.280489 0.000001
0.597035 0.287941 0.000001
0.604760 0.295427 0.000001
0.612412 0.302947 0.000001
0.619979 0.310496 0.000001
0.627469 0.318075 0.000001
0.634868 0.325678 0.000001
0.642174 0.333304 0.000001
0.649388 0.340953 0.000001
0.656502 0.348624 0.000001
0.663512 0.356309 0.000001
0.670417 0.364014 0.000001
0.677205 0.371737 0.000001
0.010148 0.068433 0.000001
0.018910 0.068776 0.000001
0.028134 0.069144 0.000001
0.037599 0.069538 0.000001
0.047205 0.069961 0.000001
0.056895 0.070414 0.000001
0.066634 0.070900 0.000001
0.076400 0.071421 0.000001
0.086175 0.071977 0.000001
0.113387 0.073748 0.000001
0.137536 0.075638 0.000001
0.159164 0.077642 0.000001
0.178799 0.079764 0.000001
0.196829 0.082009 0.000001
0.213544 0.084381 0.000001
0.229168 0.086887 0.000001
0.243871 0.089529 0.000001
0.257797 0.092314 0.000001
0.271056 0.095245 0.000001
0.283746 0.098322 0.000001
0.295936 0.101556 0.000001
0.307696 0.104945 0.000001
0.319077 0.108491 0.000001
0.330126 0.112200 0.000001
0.340883 0.116073 0.000001
0.351379 0.120110 0.000001
0.361643 0.124312 0.000001
0.371705 0.128680 0.000001
0.381583 0.133215 0.000001
0.391291 0.137915 0.000001
0.400854 0.142778 0.000001
0.410277 0.147802 0.000001
0.419586 0.152985 0.000001
0.428777 0.158324 0.000001
0.437867 0.163814 0.000001
0.446869 0.169451 0.000001
0.455782 0.175233 0.000001
0.464610 0.181151 0.000001
0.473363 0.187205 0.000001
0.482049 0.193381 0.000001
0.490669 0.199679 0.000001
0.499220 0.206094 0.000001
0.507707 0.212614 0.000001
0.516136 0.219238 0.000001
0.524504 0.225956 0.000001
0.532811 0.232765 0.000001
0.541062 0.239656 0.000001
0.549248 0.246626 0.000001
0.557375 0.253666 0.000001
0.565446 0.260773 0.000001
0.573445 0.267941 0.000001
0.581380 0.275165 0.000001
0.589251 0.282442 0.000001
0.597049 0.289765 0.000001
0.604774 0.297132 0.000001
0.612421 0.304542 0.000001
0.619997 0.311986 0.000001
0.627478 0.319466 0.000001
0.634874 0.326977 0.000001
0.642186 0.334516 0.000001
0.649394 0.342083 0.000001
0.656508 0.349676 0.000001
0.663521 0.357291 0.000001
0.670421 0.364929 0.000001
0.677212 0.372589 0.000001
0.012703 0.080177 0.000001
0.021449 0.080492 0.000001
0.030574 0.080830 0.000001
0.039911 0.081192 0.000001
0.049378 0.081580 0.000001
0.058930 0.081997 0.000001
0.068534 0.082443 0.000001
0.078171 0.082921 0.000001
0.087824 0.083434 0.000001
0.114728 0.085061 0.000001
0.138646 0.086802 0.000001
0.160095 0.088647 0.000001
0.179592 0.090605 0.000001
0.197510 0.092676 0.000001
0.214135 0.094869 0.000001
0.229682 0.097187 0.000001
0.244324 0.099634 0.000001
0.258196 0.102214 0.000001
0.271413 0.104934 0.000001
0.284061 0.107796 0.000001
0.296220 0.110805 0.000001
0.307950 0.113963 0.000001
0.319307 0.117276 0.000001
0.330334 0.120743 0.000001
0.341071 0.124368 0.000001
0.351550 0.128155 0.000001
0.361798 0.132103 0.000001
0.371847 0.136213 0.000001
0.381708 0.140489 0.000001
0.391408 0.144926 0.000001
0.400963 0.149527 0.000001
0.410380 0.154290 0.000001
0.419675 0.159209 0.000001
0.428864 0.164288 0.000001
0.437946 0.169521 0.000001
0.446937 0.174903 0.000001
0.455842 0.180432 0.000001
0.464673 0.186104 0.000001
0.473422 0.191914 0.000001
0.482102 0.197855 0.000001
0.490715 0.203923 0.000001
0.499261 0.210112 0.000001
0.507750 0.216416 0.000001
0.516177 0.222831 0.000001
0.524541 0.229346 0.000001
0.532842 0.235959 0.000001
0.541090 0.242667 0.000001
0.549277 0.249457 0.000001
0.557401 0.256327 0.000001
0.565467 0.263271 0.000001
0.573467 0.270284 0.000001
0.581405 0.277364 0.000001
0.589268 0.284504 0.000001
0.597069 0.291695 0.000001
0.604788 0.298938 0.000001
0.612438 0.306230 0.000001
0.620005 0.313567 0.000001
0.627492 0.320942 0.000001
0.634886 0.328356 0.000001
0.642198 0.335805 0.000001
0.649406 0.343285 0.000001
0.656521 0.350799 0.000001
0.663527 0.358340 0.000001
0.670430 0.365910 0.000001
0.677218 0.373500 0.000001
0.015461 0.091764 0.000001
0.024154 0.092052 0.000001
0.033161 0.092362 0.000001
0.042358 0.092696 0.000001
0.051680 0.093051 0.000001
0.061086 0.093434 0.000001
0.070549 0.093843 0.000001
0.080050 0.094282 0.000001
0.089574 0.094753 0.000001
0.116155 0.096249 0.000001
0.139827 0.097851 0.000001
0.161089 0.099548 0.000001
0.180438 0.101352 0.000001
0.198237 0.103263 0.000001
0.214765 0.105287 0.000001
0.230232 0.107429 0.000001
0.244806 0.109694 0.000001
0.258624 0.112085 0.000001
0.271792 0.114608 0.000001
0.284400 0.117266 0.000001
0.296524 0.120063 0.000001
0.308225 0.123003 0.000001
0.319552 0.126091 0.000001
0.330556 0.129330 0.000001
0.341273 0.132722 0.000001
0.351734 0.136269 0.000001
0.361968 0.139973 0.000001
0.371999 0.143837 0.000001
0.381851 0.147862 0.000001
0.391538 0.152047 0.000001
0.401079 0.156393 0.000001
0.410488 0.160899 0.000001
0.419775 0.165566 0.000001
0.428954 0.170389 0.000001
0.438029 0.175367 0.000001
0.447016 0.180500 0.000001
0.455914 0.185780 0.000001
0.464737 0.191206 0.000001
0.473485 0.196776 0.000001
0.482157 0.202481 0.000001
0.490769 0.208318 0.000001
0.499308 0.214283 0.000001
0.507791 0.220368 0.000001
0.516212 0.226571 0.000001
0.524573 0.232883 0.000001
0.532882 0.239298 0.000001
0.541126 0.245813 0.000001
0.549305 0.252422 0.000001
0.557430 0.259119 0.000001
0.565491 0.265897 0.000001
0.573489 0.272753 0.000001
0.581422 0.279680 0.000001
0.589287 0.286676 0.000001
0.597083 0.293732 0.000001
0.604808 0.300849 0.000001
0.612450 0.308019 0.000001
0.620020 0.315239 0.000001
0.627504 0.322506 0.000001
0.634901 0.329819 0.000001
0.642210 0.337173 0.000001
0.649419 0.344566 0.000001
0.656530 0.351992 0.000001
0.663537 0.359454 0.000001
0.670436 0.366949 0.000001
0.677225 0.374473 0.000001
0.024208 0.123222 0.000001
0.032597 0.123448 0.000001
0.041196 0.123692 0.000001
0.049949 0.123953 0.000001
0.058819 0.124234 0.000001
0.067780 0.124535 0.000001
0.076813 0.124857 0.000001
0.085901 0.125203 0.000001
0.095031 0.125573 0.000001
0.120623 0.126754 0.000001
0.143542 0.128020 0.000001
0.164220 0.129366 0.000001
0.183109 0.130797 0.000001
0.200538 0.132320 0.000001
0.216761 0.133936 0.000001
0.231978 0.135651 0.000001
0.246344 0.137467 0.000001
0.259984 0.139392 0.000001
0.273001 0.141430 0.000001
0.285479 0.143583 0.000001
0.297491 0.145857 0.000001
0.309093 0.148257 0.000001
0.320338 0.150786 0.000001
0.331267 0.153450 0.000001
0.341917 0.156248 0.000001
0.352321 0.159188 0.000001
0.362503 0.162272 0.000001
0.372488 0.165501 0.000001
0.382297 0.168881 0.000001
0.391943 0.172411 0.000001
0.401453 0.176097 0.000001
0.410831 0.179934 0.000001
0.420092 0.183926 0.000001
0.429241 0.188074 0.000001
0.438300 0.192377 0.000001
0.447262 0.196833 0.000001
0.456145 0.201444 0.000001
0.464945 0.206204 0.000001
0.473676 0.211113 0.000001
0.482335 0.216171 0.000001
0.490932 0.221370 0.000001
0.499464 0.226708 0.000001
0.507929 0.232181 0.000001
0.516344 0.237788 0.000001
0.524693 0.243520 0.000001
0.532993 0.249375 0.000001
0.541223 0.255347 0.000001
0.549401 0.261431 0.000001
0.557517 0.267621 0.000001
0.565569 0.273916 0.000001
0.573562 0.280309 0.000001
0.581490 0.286792 0.000001
0.589351 0.293364 0.000001
0.597142 0.300019 0.000001
0.604857 0.306751 0.000001
0.612502 0.313557 0.000001
0.620067 0.320434 0.000001
0.627540 0.327378 0.000001
0.634940 0.334382 0.000001
0.642244 0.341445 0.000001
0.649446 0.348564 0.000001
0.656558 0.355734 0.000001
0.663565 0.362955 0.000001
0.670462 0.370221 0.000001
0.677244 0.377529 0.000001
0.033327 0.150302 0.000001
0.041306 0.150486 0.000001
0.049457 0.150681 0.000001
0.057752 0.150893 0.000001
0.066166 0.151119 0.000001
0.074681 0.151360 0.000001
0.083283 0.151621 0.000001
0.091959 0.151899 0.000001
0.100694 0.152200 0.000001
0.125288 0.153153 0.000001
0.147441 0.154178 0.000001
0.167521 0.155271 0.000001
0.185932 0.156434 0.000001
0.202977 0.157674 0.000001
0.218884 0.158991 0.000001
0.233838 0.160392 0.000001
0.247984 0.161882 0.000001
0.261437 0.163462 0.000001
0.274294 0.165139 0.000001
0.286636 0.166917 0.000001
0.298529 0.168799 0.000001
0.310028 0.170791 0.000001
0.321184 0.172895 0.000001
0.332031 0.175118 0.000001
0.342612 0.177462 0.000001
0.352950 0.179932 0.000001
0.363076 0.182532 0.000001
0.373011 0.185267 0.000001
0.382775 0.188136 0.000001
0.392379 0.191145 0.000001
0.401856 0.194298 0.000001
0.411198 0.197596 0.000001
0.420430 0.201040 0.000001
0.429553 0.204633 0.000001
0.438589 0.208378 0.000001
0.447528 0.212271 0.000001
0.456384 0.216317 0.000001
0.465172 0.220514 0.000001
0.473885 0.224859 0.000001
0.482530 0.229356 0.000001
0.491106 0.233999 0.000001
0.499628 0.238788 0.000001
0.508083 0.243721 0.000001
0.516483 0.248793 0.000001
0.524827 0.254005 0.000001
0.533107 0.259349 0.000001
0.541333 0.264824 0.000001
0.549503 0.270425 0.000001
0.557612 0.276149 0.000001
0.565657 0.281990 0.000001
0.573641 0.287945 0.000001
0.581568 0.294006 0.000001
0.589418 0.300172 0.000001
0.597207 0.306439 0.000001
0.604920 0.312803 0.000001
0.612554 0.319254 0.000001
0.620114 0.325793 0.000001
0.627590 0.332415 0.000001
0.634979 0.339116 0.000001
0.642277 0.345890 0.000001
0.649480 0.352734 0.000001
0.656592 0.359646 0.000001
0.663593 0.366621 0.000001
0.670487 0.373656 0.000001
0.677269 0.380747 0.000001
0.042632 0.174006 0.000001
0.050164 0.174155 0.000001
0.057857 0.174319 0.000001
0.065693 0.174491 0.000001
0.073657 0.174677 0.000001
0.081733 0.174877 0.000001
0.089910 0.175091 0.000001
0.098177 0.175322 0.000001
0.106522 0.175569 0.000001
0.130120 0.176356 0.000001
0.151499 0.177202 0.000001
0.170971 0.178105 0.000001
0.188896 0.179069 0.000001
0.205543 0.180097 0.000001
0.221122 0.181191 0.000001
0.235804 0.182358 0.000001
0.249718 0.183599 0.000001
0.262977 0.184920 0.000001
0.275668 0.186322 0.000001
0.287866 0.187813 0.000001
0.299634 0.189395 0.000001
0.311025 0.191073 0.000001
0.322084 0.192850 0.000001
0.332848 0.194730 0.000001
0.343352 0.196720 0.000001
0.353623 0.198821 0.000001
0.363692 0.201039 0.000001
0.373571 0.203379 0.000001
0.383289 0.205842 0.000001
0.392855 0.208434 0.000001
0.402288 0.211156 0.000001
0.411595 0.214014 0.000001
0.420799 0.217009 0.000001
0.429890 0.220146 0.000001
0.438893 0.223423 0.000001
0.447814 0.226847 0.000001
0.456650 0.230416 0.000001
0.465415 0.234132 0.000001
0.474107 0.237999 0.000001
0.482733 0.242011 0.000001
0.491297 0.246172 0.000001
0.499803 0.250481 0.000001
0.508246 0.254937 0.000001
0.516633 0.259537 0.000001
0.524964 0.264281 0.000001
0.533235 0.269167 0.000001
0.541451 0.274190 0.000001
0.549612 0.279349 0.000001
0.557710 0.284639 0.000001
0.565754 0.290061 0.000001
0.573728 0.295604 0.000001
0.581642 0.301271 0.000001
0.589491 0.307055 0.000001
0.597272 0.312952 0.000001
0.604977 0.318957 0.000001
0.612612 0.325067 0.000001
0.620167 0.331280 0.000001
0.627635 0.337587 0.000001
0.635027 0.343987 0.000001
0.642323 0.350475 0.000001
0.649520 0.357048 0.000001
0.656623 0.363699 0.000001
0.663624 0.370427 0.000001
0.670516 0.377227 0.000001
0.677298 0.384103 0.000001
0.052055 0.195151 0.000001
0.059133 0.195276 0.000001
0.066372 0.195411 0.000001
0.073758 0.195556 0.000001
0.081279 0.195712 0.000001
0.088927 0.195879 0.000001
0.096687 0.196059 0.000001
0.104552 0.196251 0.000001
0.112510 0.196457 0.000001
0.135118 0.197118 0.000001
0.155719 0.197829 0.000001
0.174574 0.198588 0.000001
0.192000 0.199398 0.000001
0.208240 0.200265 0.000001
0.223482 0.201188 0.000001
0.237880 0.202172 0.000001
0.251557 0.203222 0.000001
0.264611 0.204339 0.000001
0.277127 0.205530 0.000001
0.289173 0.206795 0.000001
0.300810 0.208142 0.000001
0.312084 0.209573 0.000001
0.323042 0.211090 0.000001
0.333718 0.212700 0.000001
0.344143 0.214407 0.000001
0.354345 0.216212 0.000001
0.364347 0.218124 0.000001
0.374174 0.220146 0.000001
0.383840 0.222278 0.000001
0.393362 0.224529 0.000001
0.402751 0.226899 0.000001
0.412024 0.229395 0.000001
0.421187 0.232017 0.000001
0.430254 0.234771 0.000001
0.439229 0.237660 0.000001
0.448116 0.240686 0.000001
0.456932 0.243850 0.000001
0.465671 0.247156 0.000001
0.474344 0.250606 0.000001
0.482953 0.254201 0.000001
0.491500 0.257942 0.000001
0.499990 0.261828 0.000001
0.508422 0.265862 0.000001
0.516794 0.270043 0.000001
0.525113 0.274367 0.000001
0.533374 0.278837 0.000001
0.541579 0.283449 0.000001
0.549729 0.288202 0.000001
0.557818 0.293095 0.000001
0.565850 0.298125 0.000001
0.573820 0.303287 0.000001
0.581730 0.308581 0.000001
0.589569 0.314001 0.000001
0.597343 0.319546 0.000001
0.605046 0.325210 0.000001
0.612673 0.330993 0.000001
0.620222 0.336885 0.000001
0.627691 0.342886 0.000001
0.635069 0.348992 0.000001
0.642362 0.355200 0.000001
0.649560 0.361500 0.000001
0.656663 0.367895 0.000001
0.663662 0.374380 0.000001
0.670547 0.380948 0.000001
0.677327 0.387598 0.000001
0.061555 0.214300 0.000001
0.068187 0.214406 0.000001
0.074983 0.214521 0.000001
0.081931 0.214644 0.000001
0.089024 0.214777 0.000001
0.096252 0.214920 0.000001
0.103605 0.215072 0.000001
0.111075 0.215235 0.000001
0.118653 0.215410 0.000001
0.140276 0.215971 0.000001
0.160099 0.216576 0.000001
0.178330 0.217221 0.000001
0.195248 0.217912 0.000001
0.211070 0.218650 0.000001
0.225965 0.219438 0.000001
0.240073 0.220280 0.000001
0.253499 0.221177 0.000001
0.266342 0.222135 0.000001
0.278674 0.223156 0.000001
0.290563 0.224243 0.000001
0.302060 0.225401 0.000001
0.313215 0.226631 0.000001
0.324064 0.227941 0.000001
0.334645 0.229332 0.000001
0.344986 0.230810 0.000001
0.355117 0.232377 0.000001
0.365052 0.234039 0.000001
0.374819 0.235798 0.000001
0.384430 0.237660 0.000001
0.393901 0.239626 0.000001
0.403243 0.241706 0.000001
0.412475 0.243897 0.000001
0.421602 0.246208 0.000001
0.430636 0.248642 0.000001
0.439584 0.251200 0.000001
0.448444 0.253887 0.000001
0.457234 0.256705 0.000001
