luts/OpenOSV_Osmo360_DLogM_to_Rec2100_HLG.cube
TITLE "OpenOSV Osmo 360 D-Log M to Rec.2100 HLG (osmo360 curve)"
LUT_3D_SIZE 65
DOMAIN_MIN 0.000000 0.000000 0.000000
DOMAIN_MAX 1.000000 1.000000 1.000000
0.000000 0.000000 0.000000
0.024156 0.000000 0.000000
0.034798 0.000000 0.000000
0.043421 0.000000 0.000000
0.051094 0.000000 0.000000
0.058227 0.000000 0.000000
0.065029 0.000000 0.000000
0.071624 0.000000 0.000000
0.078097 0.000000 0.000000
0.095938 0.000000 0.000000
0.112093 0.000000 0.000000
0.127194 0.000000 0.000000
0.141644 0.000000 0.000000
0.155692 0.000000 0.000000
0.169502 0.000000 0.000000
0.183192 0.000000 0.000000
0.196852 0.000000 0.000000
0.210552 0.000000 0.000000
0.224351 0.000000 0.000000
0.238297 0.000000 0.000000
0.252433 0.000000 0.000000
0.266798 0.000000 0.000000
0.281425 0.000000 0.000000
0.296348 0.000000 0.000000
0.311595 0.000000 0.000000
0.327198 0.000000 0.000000
0.343182 0.000000 0.000000
0.359576 0.000000 0.000000
0.376407 0.000000 0.000000
0.393701 0.000000 0.000000
0.411484 0.000000 0.000000
0.429784 0.000000 0.000000
0.448628 0.000000 0.000000
0.468042 0.000000 0.000000
0.488055 0.000000 0.000000
0.508562 0.000000 0.000000
0.528493 0.000000 0.000000
0.547702 0.000000 0.000000
0.566285 0.000000 0.000000
0.584320 0.000000 0.000000
0.601875 0.000000 0.000000
0.619005 0.000000 0.000000
0.635758 0.000000 0.000000
0.652175 0.000000 0.000000
0.668292 0.000000 0.000000
0.684139 0.000000 0.000000
0.699743 0.000000 0.000000
0.715127 0.000000 0.000000
0.730313 0.000000 0.000000
0.745319 0.000000 0.000000
0.760161 0.000000 0.000000
0.774854 0.000000 0.000000
0.789410 0.000000 0.000000
0.803843 0.000000 0.000000
0.818162 0.000000 0.000000
0.832376 0.000000 0.000000
0.846495 0.000000 0.000000
0.860527 0.000000 0.000000
0.874477 0.000000 0.000000
0.888354 0.000000 0.000000
0.902162 0.000000 0.000000
0.915908 0.000000 0.000000
0.929595 0.000000 0.000000
0.943229 0.000000 0.000000
0.956814 0.000000 0.000000
0.011527 0.030575 0.007576
0.026766 0.030126 0.006838
0.036657 0.029636 0.005943
0.044925 0.029100 0.004798
0.052379 0.028512 0.003129
0.059357 0.027867 0.000000
0.066042 0.027156 0.000000
0.072546 0.026370 0.000000
0.078943 0.025498 0.000000
0.096628 0.022477 0.000000
0.112684 0.018664 0.000000
0.127715 0.013404 0.000000
0.142113 0.000000 0.000000
0.156118 0.000000 0.000000
0.169894 0.000000 0.000000
0.183555 0.000000 0.000000
0.197189 0.000000 0.000000
0.210868 0.000000 0.000000
0.224647 0.000000 0.000000
0.238576 0.000000 0.000000
0.252696 0.000000 0.000000
0.267047 0.000000 0.000000
0.281661 0.000000 0.000000
0.296572 0.000000 0.000000
0.311809 0.000000 0.000000
0.327401 0.000000 0.000000
0.343376 0.000000 0.000000
0.359761 0.000000 0.000000
0.376583 0.000000 0.000000
0.393869 0.000000 0.000000
0.411646 0.000000 0.000000
0.429939 0.000000 0.000000
0.448776 0.000000 0.000000
0.468184 0.000000 0.000000
0.488191 0.000000 0.000000
0.508689 0.000000 0.000000
0.528607 0.000000 0.000000
0.547804 0.000000 0.000000
0.566377 0.000000 0.000000
0.584403 0.000000 0.000000
0.601950 0.000000 0.000000
0.619073 0.000000 0.000000
0.635820 0.000000 0.000000
0.652232 0.000000 0.000000
0.668344 0.000000 0.000000
0.684186 0.000000 0.000000
0.699786 0.000000 0.000000
0.715167 0.000000 0.000000
0.730350 0.000000 0.000000
0.745353 0.000000 0.000000
0.760192 0.000000 0.000000
0.774882 0.000000 0.000000
0.789437 0.000000 0.000000
0.803867 0.000000 0.000000
0.818184 0.000000 0.000000
0.832397 0.000000 0.000000
0.846514 0.000000 0.000000
0.860544 0.000000 0.000000
0.874494 0.000000 0.000000
0.888369 0.000000 0.000000
0.902176 0.000000 0.000000
0.915921 0.000000 0.000000
0.929607 0.000000 0.000000
0.943240 0.000000 0.000000
0.956824 0.000000 0.000000
0.016606 0.044044 0.010914
0.029313 0.043734 0.010416
0.038557 0.043398 0.009851
0.046488 0.043034 0.009205
0.053725 0.042638 0.008457
0.060549 0.042209 0.007569
0.067115 0.041743 0.006481
0.073524 0.041236 0.005056
0.079843 0.040684 0.002809
0.097364 0.038862 0.000000
0.113316 0.036789 0.000000
0.128273 0.034420 0.000000
0.142614 0.031677 0.000000
0.156575 0.028433 0.000000
0.170314 0.024471 0.000000
0.183943 0.019325 0.000000
0.197551 0.011452 0.000000
0.211206 0.000000 0.000000
0.224965 0.000000 0.000000
0.238875 0.000000 0.000000
0.252979 0.000000 0.000000
0.267314 0.000000 0.000000
0.281915 0.000000 0.000000
0.296813 0.000000 0.000000
0.312038 0.000000 0.000000
0.327619 0.000000 0.000000
0.343584 0.000000 0.000000
0.359960 0.000000 0.000000
0.376773 0.000000 0.000000
0.394051 0.000000 0.000000
0.411819 0.000000 0.000000
0.430105 0.000000 0.000000
0.448935 0.000000 0.000000
0.468337 0.000000 0.000000
0.488338 0.000000 0.000000
0.508825 0.000000 0.000000
0.528728 0.000000 0.000000
0.547913 0.000000 0.000000
0.566475 0.000000 0.000000
0.584492 0.000000 0.000000
0.602031 0.000000 0.000000
0.619147 0.000000 0.000000
0.635887 0.000000 0.000000
0.652293 0.000000 0.000000
0.668400 0.000000 0.000000
0.684237 0.000000 0.000000
0.699833 0.000000 0.000000
0.715210 0.000000 0.000000
0.730389 0.000000 0.000000
0.745389 0.000000 0.000000
0.760225 0.000000 0.000000
0.774913 0.000000 0.000000
0.789465 0.000000 0.000000
0.803893 0.000000 0.000000
0.818208 0.000000 0.000000
0.832419 0.000000 0.000000
0.846535 0.000000 0.000000
0.860563 0.000000 0.000000
0.874511 0.000000 0.000000
0.888385 0.000000 0.000000
0.902191 0.000000 0.000000
0.915935 0.000000 0.000000
0.929620 0.000000 0.000000
0.943252 0.000000 0.000000
0.956835 0.000000 0.000000
0.020721 0.054959 0.013619
0.031826 0.054711 0.013223
0.040500 0.054443 0.012783
0.048112 0.054153 0.012292
0.055136 0.053839 0.011742
0.061804 0.053500 0.011120
0.068250 0.053133 0.010410
0.074562 0.052736 0.009588
0.080799 0.052305 0.008617
0.098150 0.050901 0.004198
0.113992 0.049336 0.000000
0.128870 0.047596 0.000000
0.143152 0.045651 0.000000
0.157065 0.043463 0.000000
0.170764 0.040981 0.000000
0.184360 0.038132 0.000000
0.197940 0.034810 0.000000
0.211570 0.030842 0.000000
0.225306 0.025906 0.000000
0.239196 0.019235 0.000000
0.253282 0.006795 0.000000
0.267601 0.000000 0.000000
0.282187 0.000000 0.000000
0.297071 0.000000 0.000000
0.312284 0.000000 0.000000
0.327853 0.000000 0.000000
0.343807 0.000000 0.000000
0.360173 0.000000 0.000000
0.376977 0.000000 0.000000
0.394246 0.000000 0.000000
0.412006 0.000000 0.000000
0.430284 0.000000 0.000000
0.449106 0.000000 0.000000
0.468501 0.000000 0.000000
0.488495 0.000000 0.000000
0.508971 0.000000 0.000000
0.528859 0.000000 0.000000
0.548031 0.000000 0.000000
0.566581 0.000000 0.000000
0.584588 0.000000 0.000000
0.602118 0.000000 0.000000
0.619226 0.000000 0.000000
0.635959 0.000000 0.000000
0.652359 0.000000 0.000000
0.668460 0.000000 0.000000
0.684292 0.000000 0.000000
0.699883 0.000000 0.000000
0.715256 0.000000 0.000000
0.730432 0.000000 0.000000
0.745428 0.000000 0.000000
0.760261 0.000000 0.000000
0.774946 0.000000 0.000000
0.789495 0.000000 0.000000
0.803921 0.000000 0.000000
0.818234 0.000000 0.000000
0.832443 0.000000 0.000000
0.846557 0.000000 0.000000
0.860584 0.000000 0.000000
0.874530 0.000000 0.000000
0.888403 0.000000 0.000000
0.902208 0.000000 0.000000
0.915950 0.000000 0.000000
0.929634 0.000000 0.000000
0.943265 0.000000 0.000000
0.956847 0.000000 0.000000
0.024383 0.064671 0.016026
0.034322 0.064460 0.015691
0.042490 0.064233 0.015322
0.049799 0.063987 0.014915
0.056614 0.063722 0.014465
0.063126 0.063436 0.013964
0.069449 0.063127 0.013406
0.075661 0.062793 0.012778
0.081815 0.062431 0.012067
0.098988 0.061260 0.009433
0.114714 0.059966 0.005262
0.129510 0.058542 0.000000
0.143728 0.056973 0.000000
0.157590 0.055235 0.000000
0.171247 0.053304 0.000000
0.184808 0.051146 0.000000
0.198356 0.048720 0.000000
0.211960 0.045968 0.000000
0.225672 0.042813 0.000000
0.239541 0.039138 0.000000
0.253608 0.034757 0.000000
0.267910 0.029324 0.000000
0.282479 0.022036 0.000000
0.297349 0.009119 0.000000
0.312548 0.000000 0.000000
0.328105 0.000000 0.000000
0.344047 0.000000 0.000000
0.360402 0.000000 0.000000
0.377196 0.000000 0.000000
0.394455 0.000000 0.000000
0.412206 0.000000 0.000000
0.430475 0.000000 0.000000
0.449290 0.000000 0.000000
0.468677 0.000000 0.000000
0.488664 0.000000 0.000000
0.509128 0.000000 0.000000
0.529000 0.000000 0.000000
0.548157 0.000000 0.000000
0.566695 0.000000 0.000000
0.584691 0.000000 0.000000
0.602211 0.000000 0.000000
0.619310 0.000000 0.000000
0.636036 0.000000 0.000000
0.652429 0.000000 0.000000
0.668524 0.000000 0.000000
0.684351 0.000000 0.000000
0.699937 0.000000 0.000000
0.715306 0.000000 0.000000
0.730477 0.000000 0.000000
0.745470 0.000000 0.000000
0.760300 0.000000 0.000000
0.774981 0.000000 0.000000
0.789528 0.000000 0.000000
0.803952 0.000000 0.000000
0.818262 0.000000 0.000000
0.832469 0.000000 0.000000
0.846581 0.000000 0.000000
0.860606 0.000000 0.000000
0.874551 0.000000 0.000000
0.888422 0.000000 0.000000
0.902225 0.000000 0.000000
0.915966 0.000000 0.000000
0.929649 0.000000 0.000000
0.943279 0.000000 0.000000
0.956860 0.000000 0.000000
0.027787 0.073699 0.018263
0.036819 0.073514 0.017970
0.044531 0.073314 0.017648
0.051551 0.073099 0.017296
0.058161 0.072868 0.016910
0.064517 0.072617 0.016484
0.070716 0.072347 0.016013
0.076825 0.072056 0.015492
0.082893 0.071741 0.014910
0.099881 0.070724 0.012872
0.115486 0.069606 0.010217
0.130193 0.068384 0.006205
0.144344 0.067045 0.000000
0.158152 0.065575 0.000000
0.171765 0.063957 0.000000
0.185288 0.062170 0.000000
0.198804 0.060190 0.000000
0.212378 0.057985 0.000000
0.226065 0.055517 0.000000
0.239912 0.052735 0.000000
0.253958 0.049570 0.000000
0.268241 0.045924 0.000000
0.282794 0.041650 0.000000
0.297647 0.036501 0.000000
0.312832 0.029994 0.000000
0.328375 0.020843 0.000000
0.344305 0.000000 0.000000
0.360648 0.000000 0.000000
0.377431 0.000000 0.000000
0.394680 0.000000 0.000000
0.412421 0.000000 0.000000
0.430682 0.000000 0.000000
0.449488 0.000000 0.000000
0.468866 0.000000 0.000000
0.488846 0.000000 0.000000
0.509297 0.000000 0.000000
0.529151 0.000000 0.000000
0.548293 0.000000 0.000000
0.566817 0.000000 0.000000
0.584801 0.000000 0.000000
0.602311 0.000000 0.000000
0.619401 0.000000 0.000000
0.636119 0.000000 0.000000
0.652505 0.000000 0.000000
0.668593 0.000000 0.000000
0.684414 0.000000 0.000000
0.699995 0.000000 0.000000
0.715359 0.000000 0.000000
0.730526 0.000000 0.000000
0.745515 0.000000 0.000000
0.760341 0.000000 0.000000
0.775020 0.000000 0.000000
0.789563 0.000000 0.000000
0.803984 0.000000 0.000000
0.818292 0.000000 0.000000
0.832497 0.000000 0.000000
0.846606 0.000000 0.000000
0.860629 0.000000 0.000000
0.874572 0.000000 0.000000
0.888442 0.000000 0.000000
0.902244 0.000000 0.000000
0.915983 0.000000 0.000000
0.929665 0.000000 0.000000
0.943294 0.000000 0.000000
0.956874 0.000000 0.000000
0.031032 0.082308 0.020397
0.039326 0.082142 0.020134
0.046625 0.081964 0.019848
0.053371 0.081772 0.019536
0.059780 0.081564 0.019194
0.065980 0.081341 0.018820
0.072054 0.081100 0.018409
0.078058 0.080840 0.017957
0.084037 0.080560 0.017458
0.100832 0.079655 0.015753
0.116309 0.078665 0.013670
0.130924 0.077585 0.010999
0.145004 0.076408 0.007080
0.158755 0.075121 0.000000
0.172319 0.073712 0.000000
0.185802 0.072168 0.000000
0.199283 0.070469 0.000000
0.212827 0.068595 0.000000
0.226487 0.066522 0.000000
0.240309 0.064219 0.000000
0.254334 0.061646 0.000000
0.268596 0.058755 0.000000
0.283131 0.055478 0.000000
0.297968 0.051724 0.000000
0.313137 0.047357 0.000000
0.328666 0.042160 0.000000
0.344582 0.035740 0.000000
0.360913 0.027195 0.000000
0.377684 0.012704 0.000000
0.394922 0.000000 0.000000
0.412653 0.000000 0.000000
0.430903 0.000000 0.000000
0.449700 0.000000 0.000000
0.469070 0.000000 0.000000
0.489041 0.000000 0.000000
0.509478 0.000000 0.000000
0.529313 0.000000 0.000000
0.548438 0.000000 0.000000
0.566948 0.000000 0.000000
0.584920 0.000000 0.000000
0.602419 0.000000 0.000000
0.619499 0.000000 0.000000
0.636208 0.000000 0.000000
0.652586 0.000000 0.000000
0.668667 0.000000 0.000000
0.684483 0.000000 0.000000
0.700058 0.000000 0.000000
0.715416 0.000000 0.000000
0.730579 0.000000 0.000000
0.745563 0.000000 0.000000
0.760385 0.000000 0.000000
0.775061 0.000000 0.000000
0.789601 0.000000 0.000000
0.804019 0.000000 0.000000
0.818324 0.000000 0.000000
0.832526 0.000000 0.000000
0.846634 0.000000 0.000000
0.860655 0.000000 0.000000
0.874596 0.000000 0.000000
0.888464 0.000000 0.000000
0.902264 0.000000 0.000000
0.916002 0.000000 0.000000
0.929682 0.000000 0.000000
0.943310 0.000000 0.000000
0.956889 0.000000 0.000000
0.034180 0.090656 0.022466
0.041854 0.090506 0.022228
0.048777 0.090344 0.021969
0.055260 0.090170 0.021687
0.061473 0.089982 0.021380
0.067518 0.089779 0.021045
0.073464 0.089561 0.020678
0.079362 0.089326 0.020277
0.085249 0.089073 0.019836
0.101845 0.088255 0.018353
0.117188 0.087362 0.016600
0.131706 0.086391 0.014479
0.145710 0.085335 0.011781
0.159400 0.084185 0.007913
0.172914 0.082931 0.000000
0.186354 0.081561 0.000000
0.199798 0.080062 0.000000
0.213309 0.078418 0.000000
0.226940 0.076611 0.000000
0.240736 0.074619 0.000000
0.254737 0.072417 0.000000
0.268978 0.069972 0.000000
0.283493 0.067244 0.000000
0.298312 0.064182 0.000000
0.313465 0.060718 0.000000
0.328978 0.056758 0.000000
0.344880 0.052166 0.000000
0.361197 0.046729 0.000000
0.377956 0.040067 0.000000
0.395182 0.031365 0.000000
0.412901 0.017759 0.000000
0.431141 0.000000 0.000000
0.449928 0.000000 0.000000
0.469289 0.000000 0.000000
0.489251 0.000000 0.000000
0.509672 0.000000 0.000000
0.529487 0.000000 0.000000
0.548595 0.000000 0.000000
0.567089 0.000000 0.000000
0.585048 0.000000 0.000000
0.602535 0.000000 0.000000
0.619604 0.000000 0.000000
0.636304 0.000000 0.000000
0.652674 0.000000 0.000000
0.668747 0.000000 0.000000
0.684556 0.000000 0.000000
0.700125 0.000000 0.000000
0.715478 0.000000 0.000000
0.730635 0.000000 0.000000
0.745615 0.000000 0.000000
0.760433 0.000000 0.000000
0.775105 0.000000 0.000000
0.789642 0.000000 0.000000
0.804056 0.000000 0.000000
0.818359 0.000000 0.000000
0.832558 0.000000 0.000000
0.846663 0.000000 0.000000
0.860682 0.000000 0.000000
0.874621 0.000000 0.000000
0.888487 0.000000 0.000000
0.902286 0.000000 0.000000
0.916022 0.000000 0.000000
0.929701 0.000000 0.000000
0.943327 0.000000 0.000000
0.956905 0.000000 0.000000
0.037269 0.098849 0.024496
0.044413 0.098711 0.024278
0.050989 0.098563 0.024041
0.057222 0.098403 0.023784
0.063242 0.098231 0.023504
0.069133 0.098045 0.023199
0.074951 0.097846 0.022868
0.080741 0.097630 0.022505
0.086534 0.097398 0.022109
0.102923 0.096652 0.020789
0.118126 0.095837 0.019259
0.132541 0.094953 0.017464
0.146465 0.093993 0.015302
0.160091 0.092950 0.012568
0.173551 0.091815 0.008721
0.186945 0.090580 0.000000
0.200349 0.089232 0.000000
0.213825 0.087760 0.000000
0.227426 0.086150 0.000000
0.241194 0.084384 0.000000
0.255170 0.082443 0.000000
0.269388 0.080304 0.000000
0.283882 0.077938 0.000000
0.298682 0.075312 0.000000
0.313816 0.072383 0.000000
0.329313 0.069094 0.000000
0.345200 0.065375 0.000000
0.361502 0.061124 0.000000
0.378247 0.056195 0.000000
0.395461 0.050362 0.000000
0.413169 0.043220 0.000000
0.431397 0.033902 0.000000
0.450173 0.019409 0.000000
0.469524 0.000000 0.000000
0.489476 0.000000 0.000000
0.509881 0.000000 0.000000
0.529674 0.000000 0.000000
0.548763 0.000000 0.000000
0.567241 0.000000 0.000000
0.585185 0.000000 0.000000
0.602659 0.000000 0.000000
0.619718 0.000000 0.000000
0.636407 0.000000 0.000000
0.652768 0.000000 0.000000
0.668833 0.000000 0.000000
0.684634 0.000000 0.000000
0.700197 0.000000 0.000000
0.715544 0.000000 0.000000
0.730696 0.000000 0.000000
0.745671 0.000000 0.000000
0.760485 0.000000 0.000000
0.775152 0.000000 0.000000
0.789685 0.000000 0.000000
0.804097 0.000000 0.000000
0.818396 0.000000 0.000000
0.832593 0.000000 0.000000
0.846695 0.000000 0.000000
0.860711 0.000000 0.000000
0.874648 0.000000 0.000000
0.888512 0.000000 0.000000
0.902309 0.000000 0.000000
0.916043 0.000000 0.000000
0.929721 0.000000 0.000000
0.943346 0.000000 0.000000
0.956922 0.000000 0.000000
0.045783 0.121430 0.030092
0.051765 0.121318 0.029914
0.057506 0.121198 0.029723
0.063099 0.121068 0.029515
0.068605 0.120928 0.029290
0.074070 0.120777 0.029046
0.079528 0.120615 0.028782
0.085007 0.120440 0.028495
0.090527 0.120253 0.028183
0.106302 0.119648 0.027160
0.121082 0.118991 0.026007
0.135182 0.118280 0.024708
0.148860 0.117511 0.023230
0.162284 0.116679 0.021528
0.175576 0.115777 0.019533
0.188827 0.114799 0.017131
0.202106 0.113739 0.014099
0.215472 0.112588 0.009849
0.228975 0.111337 0.000000
0.242655 0.109976 0.000000
0.256551 0.108494 0.000000
0.270697 0.106878 0.000000
0.285125 0.105112 0.000000
0.299863 0.103180 0.000000
0.314941 0.101062 0.000000
0.330385 0.098733 0.000000
0.346223 0.096167 0.000000
0.362479 0.093329 0.000000
0.379181 0.090178 0.000000
0.396354 0.086663 0.000000
0.414023 0.082717 0.000000
0.432216 0.078253 0.000000
0.450958 0.073150 0.000000
0.470276 0.067233 0.000000
0.490198 0.060226 0.000000
0.510549 0.051642 0.000000
0.530272 0.040429 0.000000
0.549301 0.022901 0.000000
0.567726 0.000000 0.000000
0.585623 0.000000 0.000000
0.603057 0.000000 0.000000
0.620079 0.000000 0.000000
0.636737 0.000000 0.000000
0.653068 0.000000 0.000000
0.669108 0.000000 0.000000
0.684886 0.000000 0.000000
0.700428 0.000000 0.000000
0.715756 0.000000 0.000000
0.730890 0.000000 0.000000
0.745850 0.000000 0.000000
0.760649 0.000000 0.000000
0.775304 0.000000 0.000000
0.789825 0.000000 0.000000
0.804226 0.000000 0.000000
0.818515 0.000000 0.000000
0.832703 0.000000 0.000000
0.846797 0.000000 0.000000
0.860806 0.000000 0.000000
0.874735 0.000000 0.000000
0.888593 0.000000 0.000000
0.902383 0.000000 0.000000
0.916112 0.000000 0.000000
0.929785 0.000000 0.000000
0.943405 0.000000 0.000000
0.956977 0.000000 0.000000
0.053492 0.141878 0.035159
0.058693 0.141782 0.035007
0.063815 0.141679 0.034844
0.068897 0.141568 0.034667
0.073973 0.141448 0.034475
0.079068 0.141319 0.034268
0.084203 0.141181 0.034045
0.089395 0.141032 0.033802
0.094660 0.140871 0.033540
0.109843 0.140356 0.032685
0.124202 0.139796 0.031733
0.137984 0.139192 0.030677
0.151409 0.138539 0.029500
0.164625 0.137833 0.028179
0.177743 0.137071 0.026687
0.190842 0.136246 0.024982
0.203991 0.135354 0.023009
0.217241 0.134388 0.020680
0.230640 0.133342 0.017838
0.244227 0.132208 0.014161
0.258039 0.130978 0.008603
0.272107 0.129642 0.000000
0.286464 0.128190 0.000000
0.301137 0.126611 0.000000
0.316154 0.124890 0.000000
0.331541 0.123014 0.000000
0.347326 0.120964 0.000000
0.363533 0.118720 0.000000
0.380189 0.116259 0.000000
0.397318 0.113554 0.000000
0.414947 0.110572 0.000000
0.433100 0.107274 0.000000
0.451806 0.103610 0.000000
0.471089 0.099521 0.000000
0.490978 0.094928 0.000000
0.511269 0.089727 0.000000
0.530917 0.083777 0.000000
0.549881 0.076867 0.000000
0.568249 0.068667 0.000000
0.586097 0.058583 0.000000
0.603486 0.045303 0.000000
0.620470 0.023855 0.000000
0.637092 0.000000 0.000000
0.653393 0.000000 0.000000
0.669405 0.000000 0.000000
0.685158 0.000000 0.000000
0.700677 0.000000 0.000000
0.715984 0.000000 0.000000
0.731101 0.000000 0.000000
0.746043 0.000000 0.000000
0.760828 0.000000 0.000000
0.775468 0.000000 0.000000
0.789977 0.000000 0.000000
0.804365 0.000000 0.000000
0.818644 0.000000 0.000000
0.832822 0.000000 0.000000
0.846907 0.000000 0.000000
0.860907 0.000000 0.000000
0.874829 0.000000 0.000000
0.888680 0.000000 0.000000
0.902464 0.000000 0.000000
0.916187 0.000000 0.000000
0.929854 0.000000 0.000000
0.943469 0.000000 0.000000
0.957036 0.000000 0.000000
0.060698 0.160991 0.039895
0.065328 0.160907 0.039762
0.069965 0.160816 0.039618
0.074630 0.160718 0.039462
0.079341 0.160612 0.039294
0.084111 0.160499 0.039113
0.088955 0.160377 0.038917
0.093885 0.160246 0.038705
0.098911 0.160105 0.038476
0.113527 0.159652 0.037733
0.127472 0.159159 0.036912
0.140934 0.158629 0.036008
0.154102 0.158056 0.035011
0.167106 0.157438 0.033905
0.180042 0.156771 0.032675
0.192986 0.156051 0.031299
0.205998 0.155272 0.029748
0.219127 0.154431 0.027985
0.232417 0.153521 0.025956
0.245906 0.152537 0.023580
0.259628 0.151472 0.020724
0.273615 0.150319 0.017131
0.287897 0.149069 0.012134
0.302500 0.147713 0.000000
0.317452 0.146241 0.000000
0.332780 0.144641 0.000000
0.348509 0.142902 0.000000
0.364663 0.141008 0.000000
0.381269 0.138942 0.000000
0.398352 0.136687 0.000000
0.415937 0.134220 0.000000
0.434049 0.131516 0.000000
0.452716 0.128545 0.000000
0.471962 0.125272 0.000000
0.491815 0.121655 0.000000
0.512040 0.117642 0.000000
0.531608 0.113170 0.000000
0.550502 0.108154 0.000000
0.568810 0.102488 0.000000
0.586605 0.096025 0.000000
0.603947 0.088550 0.000000
0.620889 0.079736 0.000000
0.637474 0.069015 0.000000
0.653742 0.055213 0.000000
0.669724 0.034712 0.000000
0.685450 0.000000 0.000000
0.700945 0.000000 0.000000
0.716230 0.000000 0.000000
0.731327 0.000000 0.000000
0.746251 0.000000 0.000000
0.761019 0.000000 0.000000
0.775644 0.000000 0.000000
0.790139 0.000000 0.000000
0.804515 0.000000 0.000000
0.818782 0.000000 0.000000
0.832950 0.000000 0.000000
0.847025 0.000000 0.000000
0.861017 0.000000 0.000000
0.874931 0.000000 0.000000
0.888773 0.000000 0.000000
0.902551 0.000000 0.000000
0.916267 0.000000 0.000000
0.929928 0.000000 0.000000
0.943538 0.000000 0.000000
0.957100 0.000000 0.000000
0.067594 0.179282 0.044428
0.071781 0.179206 0.044308
0.076026 0.179124 0.044179
0.080339 0.179037 0.044039
0.084733 0.178942 0.043889
0.089215 0.178840 0.043727
0.093796 0.178731 0.043552
0.098484 0.178613 0.043362
0.103287 0.178486 0.043158
0.117359 0.178080 0.042497
0.130896 0.177639 0.041770
0.144039 0.177164 0.040973
0.156946 0.176651 0.040099
0.169732 0.176098 0.039138
0.182483 0.175502 0.038077
0.195265 0.174859 0.036903
0.208134 0.174165 0.035597
0.221136 0.173415 0.034137
0.234313 0.172606 0.032495
0.247698 0.171731 0.030631
0.261327 0.170786 0.028491
0.275227 0.169763 0.025994
0.289429 0.168657 0.023010
0.303959 0.167460 0.019292
0.318843 0.166163 0.014253
0.334107 0.164757 0.004623
0.349776 0.163232 0.000000
0.365874 0.161577 0.000000
0.382428 0.159778 0.000000
0.399461 0.157820 0.000000
0.416999 0.155688 0.000000
0.435067 0.153363 0.000000
0.453692 0.150823 0.000000
0.472898 0.148044 0.000000
0.492714 0.144996 0.000000
0.512865 0.141646 0.000000
0.532348 0.137954 0.000000
0.551168 0.133870 0.000000
0.569411 0.129336 0.000000
0.587149 0.124276 0.000000
0.604441 0.118596 0.000000
0.621338 0.112168 0.000000
0.637884 0.104819 0.000000
0.654116 0.096293 0.000000
0.670066 0.086190 0.000000
0.685763 0.073802 0.000000
0.701232 0.057582 0.000000
0.716494 0.032007 0.000000
0.731569 0.000000 0.000000
0.746474 0.000000 0.000000
0.761224 0.000000 0.000000
0.775833 0.000000 0.000000
0.790314 0.000000 0.000000
0.804676 0.000000 0.000000
0.818931 0.000000 0.000000
0.833087 0.000000 0.000000
0.847152 0.000000 0.000000
0.861134 0.000000 0.000000
0.875039 0.000000 0.000000
0.888874 0.000000 0.000000
0.902644 0.000000 0.000000
0.916354 0.000000 0.000000
0.930008 0.000000 0.000000
0.943612 0.000000 0.000000
0.957169 0.000000 0.000000
0.074298 0.197063 0.048834
0.078126 0.196994 0.048725
0.082043 0.196919 0.048608
0.086056 0.196839 0.048481
0.090171 0.196753 0.048344
0.094396 0.196661 0.048197
0.098737 0.196561 0.048038
0.103200 0.196454 0.047867
0.107793 0.196339 0.047682
0.121344 0.195970 0.047084
0.134481 0.195569 0.046429
0.147304 0.195137 0.045714
0.159948 0.194672 0.044932
0.172512 0.194171 0.044076
0.185071 0.193630 0.043137
0.197686 0.193047 0.042104
0.210407 0.192419 0.040964
0.223277 0.191741 0.039702
0.236334 0.191009 0.038299
0.249611 0.190219 0.036731
0.263140 0.189366 0.034966
0.276950 0.188444 0.032964
0.291068 0.187449 0.030666
0.305519 0.186372 0.027985
0.320331 0.185208 0.024781
0.335527 0.183947 0.020792
0.351133 0.182583 0.015391
0.367172 0.181104 0.005174
0.383670 0.179501 0.000000
0.400650 0.177761 0.000000
0.418138 0.175871 0.000000
0.436159 0.173816 0.000000
0.454739 0.171579 0.000000
0.473903 0.169141 0.000000
0.493678 0.166480 0.000000
0.513748 0.163570 0.000000
0.533140 0.160384 0.000000
0.551881 0.156885 0.000000
