luts/OpenOSV_Osmo360_DLogM_to_Rec2100_HLG.cube
TITLE "OpenOSV Osmo 360 D-Log M to Rec.2100 HLG (osmo360 curve)"
LUT_3D_SIZE 9
DOMAIN_MIN 0.000000 0.000000 0.000000
DOMAIN_MAX 1.000000 1.000000 1.000000
0.000000 0.000000 0.000000
0.078097 0.000000 0.000000
0.196852 0.000000 0.000000
0.311595 0.000000 0.000000
0.448628 0.000000 0.000000
0.601875 0.000000 0.000000
0.730313 0.000000 0.000000
0.846495 0.000000 0.000000
0.956814 0.000000 0.000000
0.037269 0.098849 0.024496
0.086534 0.097398 0.022109
0.200349 0.089232 0.000000
0.313816 0.072383 0.000000
0.450173 0.019409 0.000000
0.602659 0.000000 0.000000
0.730696 0.000000 0.000000
0.846695 0.000000 0.000000
0.956922 0.000000 0.000000
0.093940 0.249160 0.061745
0.122164 0.248588 0.060837
0.218118 0.245503 0.055729
0.325448 0.239893 0.045185
0.458358 0.229535 0.011907
0.606799 0.209770 0.000000
0.732731 0.168818 0.000000
0.847762 0.028549 0.000000
0.957499 0.000000 0.000000
0.148697 0.394393 0.097735
0.167958 0.394032 0.097164
0.246702 0.392093 0.094050
0.345257 0.388605 0.088212
0.472629 0.382297 0.076691
0.613965 0.370767 0.049890
0.736311 0.349234 0.000000
0.849652 0.307050 0.000000
0.958524 0.211769 0.000000
0.214091 0.560818 0.140717
0.227890 0.560616 0.140321
0.290836 0.559526 0.138183
0.378056 0.557563 0.134278
0.497094 0.554004 0.127006
0.626089 0.547466 0.112863
0.742530 0.535163 0.081733
0.852979 0.510839 0.000000
0.960342 0.460152 0.000000
0.296980 0.700679 0.195198
0.307077 0.700586 0.194913
0.356298 0.700089 0.193379
0.430452 0.699198 0.190608
0.535660 0.697594 0.185557
0.645882 0.694695 0.176179
0.753124 0.689398 0.158055
0.858770 0.679530 0.119014
0.963542 0.660430 0.000000
0.404772 0.821823 0.266047
0.412237 0.821776 0.265838
0.450101 0.821524 0.264715
0.510611 0.821072 0.262698
0.588867 0.820263 0.259057
0.676553 0.818809 0.252424
0.770609 0.816182 0.240125
0.868665 0.811394 0.216432
0.969117 0.802511 0.165915
0.543237 0.934588 0.359351
0.547963 0.934563 0.359196
0.571337 0.934428 0.358366
0.606740 0.934188 0.356879
0.656484 0.933759 0.354207
0.720898 0.932989 0.349385
0.798123 0.931607 0.340606
0.885078 0.929112 0.324338
0.978660 0.924568 0.293053
0.672396 1.000000 0.483041
0.674707 1.000000 0.482926
0.686595 1.000000 0.482309
0.706048 1.000000 0.481204
0.736260 1.000000 0.479226
0.780065 1.000000 0.475673
0.838690 1.000000 0.469263
0.911093 1.000000 0.457592
0.994528 1.000000 0.435976
0.016689 0.000000 0.085310
0.079860 0.000000 0.084656
0.197558 0.000000 0.081062
0.312042 0.000000 0.074210
0.448938 0.000000 0.060060
0.602032 0.000000 0.014652
0.730390 0.000000 0.000000
0.846535 0.000000 0.000000
0.956836 0.000000 0.000000
0.040835 0.089729 0.088757
0.088129 0.088129 0.088129
0.201043 0.079010 0.084683
0.314260 0.059325 0.078148
0.450483 0.000000 0.064863
0.602816 0.000000 0.028543
0.730773 0.000000 0.000000
0.846735 0.000000 0.000000
0.956943 0.000000 0.000000
0.095411 0.245684 0.105310
0.123298 0.245104 0.104781
0.218756 0.241975 0.101900
0.325876 0.236281 0.096538
0.458661 0.225757 0.086137
0.606952 0.205630 0.063459
0.732807 0.163645 0.000000
0.847802 0.000000 0.000000
0.957520 0.000000 0.000000
0.149631 0.392206 0.129730
0.168785 0.391843 0.129301
0.247265 0.389894 0.126977
0.345660 0.386386 0.122716
0.472923 0.380041 0.114714
0.614112 0.368441 0.098827
0.736385 0.346763 0.060902
0.849692 0.304237 0.000000
0.958546 0.207668 0.000000
0.214740 0.559590 0.164557
0.228501 0.559386 0.164219
0.291315 0.558289 0.162396
0.378425 0.556313 0.159086
0.497374 0.552728 0.152998
0.626226 0.546143 0.141477
0.742602 0.533745 0.118144
0.853018 0.509212 0.056045
0.960363 0.458279 0.000000
0.297449 0.700118 0.213026
0.307530 0.700025 0.212765
0.356688 0.699527 0.211361
0.430775 0.698632 0.208828
0.535888 0.697024 0.204229
0.646005 0.694115 0.195747
0.753192 0.688800 0.179608
0.858807 0.678899 0.146431
0.963563 0.659728 0.046119
0.405116 0.821539 0.279390
0.412575 0.821492 0.279191
0.450411 0.821239 0.278122
0.510873 0.820787 0.276203
0.589036 0.819976 0.272742
0.676656 0.818519 0.266450
0.770670 0.815888 0.254829
0.868701 0.811092 0.232639
0.969137 0.802194 0.186563
0.543455 0.934436 0.369339
0.548176 0.934411 0.369188
0.571524 0.934277 0.368381
0.606893 0.934037 0.366934
0.656600 0.933607 0.364335
0.720979 0.932837 0.359650
0.798175 0.931453 0.351127
0.885110 0.928956 0.335370
0.978679 0.924408 0.305218
0.672502 1.000000 0.490516
0.674811 1.000000 0.490403
0.686693 1.000000 0.489795
0.706136 1.000000 0.488708
0.736334 1.000000 0.486760
0.780123 1.000000 0.483263
0.838732 1.000000 0.476954
0.911121 1.000000 0.465476
0.994545 1.000000 0.444245
0.042066 0.000000 0.215034
0.088706 0.000000 0.214775
0.201297 0.000000 0.213384
0.314422 0.000000 0.210876
0.450596 0.000000 0.206322
0.602873 0.000000 0.197930
0.730801 0.000000 0.181985
0.846750 0.000000 0.149337
0.956951 0.000000 0.054648
0.056200 0.000000 0.216424
0.096217 0.000000 0.216167
0.204718 0.000000 0.214785
0.316623 0.000000 0.212294
0.452134 0.000000 0.207771
0.603653 0.000000 0.199440
0.731182 0.000000 0.183626
0.846950 0.000000 0.151333
0.957059 0.000000 0.059887
0.102929 0.226172 0.223723
0.129203 0.225542 0.223474
0.222138 0.222138 0.222138
0.328156 0.215921 0.219730
0.460284 0.204351 0.215363
0.607770 0.181870 0.207337
0.733212 0.132562 0.192174
0.848015 0.000000 0.161598
0.957636 0.000000 0.082455
0.154533 0.380288 0.236202
0.173146 0.379913 0.235967
0.250262 0.377902 0.234702
0.347811 0.374282 0.232424
0.474497 0.367729 0.228300
0.614898 0.355727 0.220745
0.736782 0.333223 0.206569
0.849903 0.288710 0.178476
0.958661 0.184172 0.111976
0.218184 0.552868 0.256984
0.231740 0.552656 0.256767
0.293863 0.551517 0.255605
0.380390 0.549463 0.253515
0.498870 0.545737 0.249740
0.626961 0.538884 0.242853
0.742985 0.525954 0.230043
0.853225 0.500247 0.205189
0.960477 0.448122 0.150956
0.299945 0.697086 0.290416
0.309945 0.696991 0.290225
0.358772 0.696484 0.289197
0.432503 0.695574 0.287352
0.537104 0.693938 0.284026
0.646663 0.690978 0.277990
0.753554 0.685568 0.266872
0.859008 0.675480 0.245772
0.963674 0.655919 0.202703
0.406952 0.820007 0.342082
0.414378 0.819960 0.341920
0.452063 0.819705 0.341048
0.512271 0.819249 0.339484
0.589940 0.818431 0.336675
0.677211 0.816962 0.331598
0.770998 0.814307 0.322334
0.868890 0.809468 0.305094
0.969246 0.800486 0.271601
0.544621 0.933623 0.418775
0.549311 0.933598 0.418642
0.572521 0.933463 0.417930
0.607711 0.933222 0.416656
0.657221 0.932790 0.414369
0.721412 0.932016 0.410255
0.798457 0.930626 0.402805
0.885283 0.928117 0.389146
0.978782 0.923548 0.363482
0.673069 1.000000 0.527363
0.675371 1.000000 0.527268
0.687217 1.000000 0.526756
0.706606 1.000000 0.525837
0.736731 1.000000 0.524185
0.780434 1.000000 0.521197
0.838956 1.000000 0.515734
0.911270 1.000000 0.505543
0.994639 1.000000 0.486122
0.066585 0.000000 0.340375
0.102629 0.000000 0.340211
0.207809 0.000000 0.339335
0.318630 0.000000 0.337764
0.453542 0.000000 0.334939
0.604366 0.000000 0.329836
0.731532 0.000000 0.320521
0.847133 0.000000 0.303178
0.957158 0.000000 0.269447
0.076306 0.000000 0.341255
0.109187 0.000000 0.341092
0.211124 0.000000 0.340218
0.320803 0.000000 0.338651
0.455071 0.000000 0.335834
0.605139 0.000000 0.330744
0.731912 0.000000 0.321456
0.847332 0.000000 0.304166
0.957266 0.000000 0.270559
0.115145 0.186288 0.345930
0.139131 0.185522 0.345769
0.228055 0.181368 0.344907
0.332190 0.173699 0.343361
0.463169 0.159088 0.340583
0.609222 0.128943 0.335565
0.733934 0.033499 0.326414
0.848395 0.000000 0.309402
0.957842 0.000000 0.276431
0.162925 0.358006 0.354129
0.180675 0.357608 0.353972
0.255529 0.355471 0.353129
0.351619 0.351620 0.351620
0.477296 0.344636 0.348907
0.616294 0.331800 0.344011
0.737490 0.307550 0.335091
0.850279 0.258656 0.318542
0.958866 0.132169 0.286625
0.224206 0.540188 0.368315
0.237419 0.539961 0.368164
0.298361 0.538738 0.367355
0.383875 0.536531 0.365904
0.501529 0.532522 0.363298
0.628266 0.525133 0.358599
0.743669 0.511127 0.350050
0.853594 0.483525 0.334243
0.960680 0.429374 0.303979
0.304353 0.691536 0.392374
0.314213 0.691438 0.392232
0.362466 0.690915 0.391472
0.435572 0.689976 0.390111
0.539256 0.688288 0.387668
0.647832 0.685232 0.383267
0.754198 0.679642 0.375281
0.859365 0.669205 0.360582
0.963874 0.648904 0.332722
0.410212 0.817238 0.432014
0.417580 0.817189 0.431885
0.455000 0.816931 0.431195
0.514741 0.816467 0.429959
0.591544 0.815637 0.427744
0.678197 0.814144 0.423760
0.771583 0.811448 0.416551
0.869228 0.806529 0.403358
0.969439 0.797395 0.378659
0.546685 0.932161 0.494963
0.551322 0.932136 0.494850
0.574288 0.932000 0.494248
0.609164 0.931757 0.493171
0.658323 0.931321 0.491241
0.722182 0.930541 0.487775
0.798958 0.929140 0.481526
0.885592 0.926610 0.470160
0.978965 0.922001 0.449149
0.674078 1.000000 0.578906
0.676368 1.000000 0.578834
0.688150 1.000000 0.578451
0.707443 1.000000 0.577763
0.737439 1.000000 0.576529
0.780989 1.000000 0.574304
0.839356 1.000000 0.570260
0.911537 1.000000 0.562804
0.994807 1.000000 0.548665
0.095868 0.000000 0.490064
0.123652 0.000000 0.489950
0.218955 0.000000 0.489342
0.326010 0.000000 0.488254
0.458757 0.000000 0.486304
0.607000 0.000000 0.482803
0.732831 0.000000 0.476489
0.847814 0.000000 0.464999
0.957527 0.000000 0.443745
0.102857 0.000000 0.490675
0.129146 0.000000 0.490562
0.222105 0.000000 0.489955
0.328133 0.000000 0.488868
0.460268 0.000000 0.486921
0.607762 0.000000 0.483424
0.733208 0.000000 0.477118
0.848013 0.000000 0.465644
0.957634 0.000000 0.444420
0.134222 0.072997 0.493938
0.155289 0.071020 0.493825
0.238257 0.059328 0.493222
0.339274 0.028226 0.492142
0.468276 0.000000 0.490208
0.611787 0.000000 0.486736
0.735215 0.000000 0.480472
0.849072 0.000000 0.469081
0.958209 0.000000 0.448020
0.176922 0.314314 0.499714
0.193393 0.313861 0.499603
0.264674 0.311424 0.499007
0.358320 0.307021 0.497940
0.482254 0.298997 0.496028
0.618760 0.284106 0.492597
0.738746 0.255367 0.486409
0.850949 0.193722 0.475159
0.959231 0.000000 0.454380
0.234575 0.515037 0.509696
0.247234 0.514775 0.509591
0.306229 0.513366 0.509025
0.390022 0.510821 0.508011
0.506184 0.506185 0.506185
0.630573 0.497604 0.502877
0.744882 0.481774 0.496833
0.854252 0.452130 0.485825
0.961041 0.393685 0.465522
0.312070 0.681176 0.526241
0.321694 0.681073 0.526145
0.368970 0.680518 0.525630
0.440998 0.679523 0.524706
0.543035 0.677732 0.523043
0.649901 0.674489 0.520036
0.755342 0.668548 0.514536
0.860002 0.657421 0.504275
0.964229 0.635649 0.484780
0.415970 0.812183 0.552443
0.423238 0.812133 0.552360
0.460198 0.811867 0.551916
0.519069 0.811390 0.551118
0.594373 0.810536 0.549685
0.679945 0.809000 0.547096
0.772621 0.806224 0.542379
0.869831 0.801158 0.533634
0.969783 0.791738 0.516869
0.550312 0.929521 0.591397
0.554857 0.929495 0.591330
0.577401 0.929357 0.590972
0.611729 0.929110 0.590331
0.660275 0.928668 0.589181
0.723550 0.927877 0.587109
0.799850 0.926454 0.583347
0.886142 0.923885 0.576428
0.979291 0.919205 0.563365
0.675867 1.000000 0.644999
0.678133 1.000000 0.644949
0.689803 1.000000 0.644684
0.708928 1.000000 0.644210
0.738696 1.000000 0.643359
0.781974 1.000000 0.641831
0.840068 1.000000 0.639069
0.912013 1.000000 0.634028
0.995106 1.000000 0.624658
0.132985 0.000000 0.639876
0.154221 0.000000 0.639825
0.237562 0.000000 0.639552
0.338787 0.000000 0.639064
0.467923 0.000000 0.638189
0.611610 0.000000 0.636615
0.735126 0.000000 0.633771
0.849025 0.000000 0.628577
0.958183 0.000000 0.618909
0.138109 0.000000 0.640150
0.158660 0.000000 0.640099
0.240468 0.000000 0.639827
0.340831 0.000000 0.639339
0.469405 0.000000 0.638466
0.612352 0.000000 0.636895
0.735499 0.000000 0.634055
0.849222 0.000000 0.628869
0.958291 0.000000 0.619217
0.162818 0.000000 0.641611
0.180579 0.000000 0.641561
0.255461 0.000000 0.641291
0.351570 0.000000 0.640807
0.477260 0.000000 0.639941
0.616276 0.000000 0.638383
0.737481 0.000000 0.635566
0.850274 0.000000 0.630425
0.958863 0.000000 0.620859
0.199489 0.215270 0.644193
0.214231 0.214608 0.644143
0.280262 0.211027 0.643877
0.369983 0.204473 0.643400
0.490982 0.192216 0.642546
0.623080 0.168120 0.641011
0.740967 0.112961 0.638236
0.852138 0.000000 0.633171
0.959881 0.000000 0.623755
0.252032 0.461774 0.648711
0.263854 0.461465 0.648663
0.319798 0.459811 0.648403
0.400764 0.456840 0.647939
0.514207 0.451487 0.647106
0.634620 0.441767 0.645609
0.747029 0.423856 0.642906
0.855419 0.389833 0.637973
0.961685 0.320212 0.628813
0.325396 0.661039 0.656506
0.334636 0.660923 0.656460
0.380306 0.660303 0.656212
0.450526 0.659188 0.655767
0.549591 0.657180 0.654970
0.653538 0.653538 0.653538
0.757368 0.646844 0.650952
0.861133 0.634230 0.646240
0.964861 0.609223 0.637504
0.426058 0.802786 0.669633
0.433157 0.802734 0.669590
0.469336 0.802453 0.669359
0.526546 0.801951 0.668946
0.599315 0.801050 0.668206
0.683023 0.799430 0.666876
0.774461 0.796500 0.664478
0.870902 0.791146 0.660113
0.970396 0.781168 0.652044
0.556611 0.924707 0.690915
0.561001 0.924681 0.690877
0.582828 0.924539 0.690672
0.616220 0.924285 0.690305
0.663709 0.923831 0.689648
0.725967 0.923018 0.688470
0.801431 0.921556 0.686345
0.887119 0.918915 0.682488
0.979873 0.914101 0.675387
0.679016 1.000000 0.723570
0.681243 1.000000 0.723539
0.692718 1.000000 0.723368
0.711550 1.000000 0.723062
0.740918 1.000000 0.722516
0.783721 1.000000 0.721536
0.841332 1.000000 0.719772
0.912859 1.000000 0.716578
0.995638 1.000000 0.710730
0.181253 0.000000 0.765061
0.197362 0.000000 0.765036
0.267588 0.000000 0.764901
0.360478 0.000000 0.764659
0.483859 0.000000 0.764226
0.619556 0.000000 0.763450
0.739154 0.000000 0.762056
0.851166 0.000000 0.759540
0.959350 0.000000 0.754956
0.185045 0.000000 0.765198
0.200850 0.000000 0.765172
0.270171 0.000000 0.765037
0.362400 0.000000 0.764795
0.485292 0.000000 0.764362
0.620267 0.000000 0.763587
0.739518 0.000000 0.762194
0.851361 0.000000 0.759680
0.959456 0.000000 0.755101
0.204151 0.000000 0.765925
0.218579 0.000000 0.765900
0.283599 0.000000 0.765765
0.372518 0.000000 0.765524
0.492894 0.000000 0.765093
0.624023 0.000000 0.764321
0.741456 0.000000 0.762934
0.852401 0.000000 0.760430
0.960025 0.000000 0.755870
0.234443 0.000000 0.767218
0.247109 0.000000 0.767193
0.306128 0.000000 0.767059
0.389943 0.000000 0.766820
0.506125 0.000000 0.766392
0.630543 0.000000 0.765626
0.744867 0.000000 0.764249
0.854243 0.000000 0.761763
0.961036 0.000000 0.757238
0.280513 0.345796 0.769503
0.291182 0.345384 0.769479
0.342693 0.343171 0.769347
0.419261 0.339180 0.769111
0.527695 0.331934 0.768688
0.641625 0.318587 0.767931
0.750800 0.293247 0.766572
0.857486 0.241473 0.764119
0.962829 0.094208 0.759653
0.347922 0.618243 0.773513
0.356580 0.618096 0.773489
0.399751 0.617307 0.773360
0.467056 0.615888 0.773129
0.560731 0.613327 0.772716
0.659853 0.608659 0.771976
0.760929 0.600009 0.770647
0.863135 0.583438 0.768250
0.965985 0.549391 0.763887
0.443501 0.784671 0.780457
0.450325 0.784613 0.780433
0.485226 0.784302 0.780309
0.539165 0.783746 0.780087
0.607814 0.782748 0.779690
0.688393 0.780953 0.778978
0.777701 0.777701 0.777701
0.872798 0.771744 0.775397
0.971486 0.760586 0.771207
0.567335 0.915775 0.792222
0.571472 0.915747 0.792200
0.592127 0.915598 0.792084
0.623969 0.915331 0.791876
0.669680 0.914854 0.791504
0.730204 0.913998 0.790838
0.804220 0.912460 0.789643
0.888852 0.909681 0.787489
0.980906 0.904608 0.783576
0.684505 1.000000 0.811479
0.686666 1.000000 0.811460
0.697808 1.000000 0.811355
0.716138 1.000000 0.811169
0.744818 1.000000 0.810835
0.786798 1.000000 0.810237
0.843567 1.000000 0.809165
0.914360 1.000000 0.807235
0.996584 1.000000 0.803735
0.244820 0.000000 0.879745
0.256975 0.000000 0.879731
0.314146 0.000000 0.879660
0.396268 0.000000 0.879533
0.510867 0.000000 0.879305
0.632924 0.000000 0.878898
0.746127 0.000000 0.878168
0.854928 0.000000 0.876858
0.961414 0.000000 0.874494
0.247640 0.000000 0.879816
0.259663 0.000000 0.879803
0.316349 0.000000 0.879732
0.398017 0.000000 0.879604
0.512169 0.000000 0.879377
0.633583 0.000000 0.878970
0.746477 0.000000 0.878241
0.855118 0.000000 0.876931
0.961519 0.000000 0.874568
0.262224 0.000000 0.880200
0.273607 0.000000 0.880187
0.327891 0.000000 0.880116
0.407251 0.000000 0.879989
0.518984 0.000000 0.879762
0.637072 0.000000 0.879355
0.748342 0.000000 0.878628
0.856136 0.000000 0.877321
0.962081 0.000000 0.874963
0.286440 0.000000 0.880884
0.296895 0.000000 0.880870
0.347561 0.000000 0.880800
0.423249 0.000000 0.880673
0.530550 0.000000 0.880447
0.643141 0.000000 0.880042
0.751625 0.000000 0.879317
0.857941 0.000000 0.878015
0.963081 0.000000 0.875667
0.325226 0.000000 0.882098
0.334471 0.000000 0.882084
0.380161 0.000000 0.882014
0.450404 0.000000 0.881888
0.549507 0.000000 0.881664
0.653491 0.000000 0.881262
0.757342 0.000000 0.880542
0.861118 0.000000 0.879249
0.964853 0.000000 0.876917
0.384882 0.500342 0.884245
0.392725 0.500058 0.884232
0.432302 0.498532 0.884163
0.495203 0.495793 0.884038
0.579046 0.490865 0.883816
0.670602 0.481939 0.883419
0.767116 0.465577 0.882708
0.866655 0.434830 0.881431
0.967974 0.373689 0.879127
0.473051 0.746907 0.888017
0.479454 0.746835 0.888004
0.512109 0.746452 0.887936
0.559697 0.745764 0.887815
0.622053 0.744529 0.887597
0.697597 0.742303 0.887208
0.783343 0.738258 0.886512
0.876135 0.730800 0.885262
0.973415 0.716655 0.883007
0.585017 0.898624 0.894560
0.588769 0.898593 0.894548
0.607616 0.898429 0.894482
0.637022 0.898135 0.894365
0.679871 0.897609 0.894155
0.737528 0.896667 0.893781
0.809096 0.894972 0.893109
0.891904 0.891905 0.891905
0.982737 0.886293 0.889733
0.693906 1.000000 0.905680
0.695957 1.000000 0.905668
0.706551 1.000000 0.905607
0.724048 1.000000 0.905496
0.751578 1.000000 0.905299
0.792165 1.000000 0.904947
0.847489 1.000000 0.904317
0.917010 1.000000 0.903185
0.998262 1.000000 0.901147
0.329088 0.000000 0.989304
0.338227 0.000000 0.989297
0.383470 0.000000 0.989258
0.453200 0.000000 0.989189
0.551413 0.000000 0.989066
0.654559 0.000000 0.988846
0.757940 0.000000 0.988452
0.861453 0.000000 0.987746
0.965041 0.000000 0.986478
0.331191 0.000000 0.989343
0.340275 0.000000 0.989336
0.385277 0.000000 0.989297
0.454730 0.000000 0.989228
0.552452 0.000000 0.989105
0.655143 0.000000 0.988885
0.758268 0.000000 0.988491
0.861637 0.000000 0.987785
0.965144 0.000000 0.986518
0.342233 0.000000 0.989551
0.351031 0.000000 0.989544
0.394809 0.000000 0.989505
0.462834 0.000000 0.989437
0.557913 0.000000 0.989313
0.658239 0.000000 0.989093
0.760014 0.000000 0.988700
0.862619 0.000000 0.987995
0.965695 0.000000 0.986729
0.361123 0.000000 0.989922
0.369471 0.000000 0.989915
0.411291 0.000000 0.989877
0.476971 0.000000 0.989808
0.567275 0.000000 0.989685
0.663641 0.000000 0.989465
0.763091 0.000000 0.989073
0.864359 0.000000 0.988369
0.966675 0.000000 0.987106
0.392598 0.000000 0.990583
0.400291 0.000000 0.990576
0.439186 0.000000 0.990538
0.501221 0.000000 0.990469
0.582861 0.000000 0.990347
0.672899 0.000000 0.990128
0.768459 0.000000 0.989737
0.867425 0.000000 0.989036
0.968411 0.000000 0.987778
0.443279 0.000000 0.991757
0.450106 0.000000 0.991750
0.485022 0.000000 0.991712
0.539007 0.000000 0.991644
0.607706 0.000000 0.991522
0.688324 0.000000 0.991305
0.777659 0.000000 0.990916
0.872773 0.000000 0.990220
0.971471 0.000000 0.988970
0.520872 0.649543 0.993835
0.526219 0.649420 0.993828
0.552404 0.648758 0.993790
0.591358 0.647568 0.993723
0.644961 0.645425 0.993602
0.712939 0.641533 0.993388
0.792995 0.634364 0.993003
0.881942 0.620803 0.992315
0.976809 0.593691 0.991080
0.612806 0.863192 0.997485
0.616022 0.863154 0.997478
0.632323 0.862954 0.997441
0.658195 0.862596 0.997375
0.696738 0.861955 0.997257
0.749903 0.860804 0.997047
0.817483 0.858730 0.996671
0.897229 0.854966 0.995996
0.985960 0.848042 0.994786
0.709554 1.000000 1.000000
0.711434 1.000000 1.000000
0.721174 1.000000 1.000000
0.737357 1.000000 1.000000
0.763048 1.000000 1.000000
0.801364 1.000000 1.000000
0.854287 1.000000 1.000000
0.921646 1.000000 1.000000
1.000000 1.000000 1.000000
