luts/OpenOSV_Osmo360_DLogM_to_Rec2100_HLG.cube
TITLE "OpenOSV Osmo 360 D-Log M to Rec.2100 HLG (osmo360 curve)"
LUT_3D_SIZE 5
DOMAIN_MIN 0.000000 0.000000 0.000000
DOMAIN_MAX 1.000000 1.000000 1.000000
0.000000 0.000000 0.000000
0.196852 0.000000 0.000000
0.448628 0.000000 0.000000
0.730313 0.000000 0.000000
0.956814 0.000000 0.000000
0.093940 0.249160 0.061745
0.218118 0.245503 0.055729
0.458358 0.229535 0.011907
0.732731 0.168818 0.000000
0.957499 0.000000 0.000000
0.214091 0.560818 0.140717
0.290836 0.559526 0.138183
0.497094 0.554004 0.127006
0.742530 0.535163 0.081733
0.960342 0.460152 0.000000
0.404772 0.821823 0.266047
0.450101 0.821524 0.264715
0.588867 0.820263 0.259057
0.770609 0.816182 0.240125
0.969117 0.802511 0.165915
0.672396 1.000000 0.483041
0.686595 1.000000 0.482309
0.736260 1.000000 0.479226
0.838690 1.000000 0.469263
0.994528 1.000000 0.435976
0.042066 0.000000 0.215034
0.201297 0.000000 0.213384
0.450596 0.000000 0.206322
0.730801 0.000000 0.181985
0.956951 0.000000 0.054648
0.102929 0.226172 0.223723
0.222138 0.222138 0.222138
0.460284 0.204351 0.215363
0.733212 0.132562 0.192174
0.957636 0.000000 0.082455
0.218184 0.552868 0.256984
0.293863 0.551517 0.255605
0.498870 0.545737 0.249740
0.742985 0.525954 0.230043
0.960477 0.448122 0.150956
0.406952 0.820007 0.342082
0.452063 0.819705 0.341048
0.589940 0.818431 0.336675
0.770998 0.814307 0.322334
0.969246 0.800486 0.271601
0.673069 1.000000 0.527363
0.687217 1.000000 0.526756
0.736731 1.000000 0.524185
0.838956 1.000000 0.515734
0.994639 1.000000 0.486122
0.095868 0.000000 0.490064
0.218955 0.000000 0.489342
0.458757 0.000000 0.486304
0.732831 0.000000 0.476489
0.957527 0.000000 0.443745
0.134222 0.072997 0.493938
0.238257 0.059328 0.493222
0.468276 0.000000 0.490208
0.735215 0.000000 0.480472
0.958209 0.000000 0.448020
0.234575 0.515037 0.509696
0.306229 0.513366 0.509025
0.506184 0.506185 0.506185
0.744882 0.481774 0.496833
0.961041 0.393685 0.465522
0.415970 0.812183 0.552443
0.460198 0.811867 0.551916
0.594373 0.810536 0.549685
0.772621 0.806224 0.542379
0.969783 0.791738 0.516869
0.675867 1.000000 0.644999
0.689803 1.000000 0.644684
0.738696 1.000000 0.643359
0.840068 1.000000 0.639069
0.995106 1.000000 0.624658
0.181253 0.000000 0.765061
0.267588 0.000000 0.764901
0.483859 0.000000 0.764226
0.739154 0.000000 0.762056
0.959350 0.000000 0.754956
0.204151 0.000000 0.765925
0.283599 0.000000 0.765765
0.492894 0.000000 0.765093
0.741456 0.000000 0.762934
0.960025 0.000000 0.755870
0.280513 0.345796 0.769503
0.342693 0.343171 0.769347
0.527695 0.331934 0.768688
0.750800 0.293247 0.766572
0.962829 0.094208 0.759653
0.443501 0.784671 0.780457
0.485226 0.784302 0.780309
0.607814 0.782748 0.779690
0.777701 0.777701 0.777701
0.971486 0.760586 0.771207
0.684505 1.000000 0.811479
0.697808 1.000000 0.811355
0.744818 1.000000 0.810835
0.843567 1.000000 0.809165
0.996584 1.000000 0.803735
0.329088 0.000000 0.989304
0.383470 0.000000 0.989258
0.551413 0.000000 0.989066
0.757940 0.000000 0.988452
0.965041 0.000000 0.986478
0.342233 0.000000 0.989551
0.394809 0.000000 0.989505
0.557913 0.000000 0.989313
0.760014 0.000000 0.988700
0.965695 0.000000 0.986729
0.392598 0.000000 0.990583
0.439186 0.000000 0.990538
0.582861 0.000000 0.990347
0.768459 0.000000 0.989737
0.968411 0.000000 0.987778
0.520872 0.649543 0.993835
0.552404 0.648758 0.993790
0.644961 0.645425 0.993602
0.792995 0.634364 0.993003
0.976809 0.593691 0.991080
0.709554 1.000000 1.000000
0.721174 1.000000 1.000000
0.763048 1.000000 1.000000
0.854287 1.000000 1.000000
1.000000 1.000000 1.000000
